(G-CODE GENERATED BY FLATCAM v8.991 - www.flatcam.org - Version Date: 2019/12/27)

(Name: cncinverterpotencia)
(Type: G-code from Geometry)
(Units: MM)

(Created on Saturday, 18 January 2025 at 10:38)

(TOOL DIAMETER: 0.11 mm)
(Feedrate: 45.0 mm/min)
(Feedrate_Z: 25.0 mm/min)
(Feedrate rapids 1500.0 mm/min)

(Z_Cut: -0.0187 mm)
(Z_Move: 2.0 mm)
(Z Toolchange: 15.0 mm)
(X,Y Toolchange: 0.0000, 0.0000 mm)
(Z Start: None mm)
(Z End: 15.0 mm)
(Steps per circle: 64)
(Preprocessor Geometry: default)

(X range:    0.3567 ...   77.3433  mm)
(Y range:    0.3567 ...   36.1433  mm)

(Spindle Speed: None RPM)
G21
G90
G94




G01 F45.00
G00 Z2.0000

M03
G00 X16.8315 Y10.7096
G01 F25.00
G01 Z-0.0187
G01 F45.00
G01 X16.8265 Y10.8119
G01 X16.8260 Y10.8173
G01 X16.8114 Y10.9160
G01 X16.8103 Y10.9213
G01 X16.7861 Y11.0180
G01 X16.7681 Y11.0692
G01 X16.7710 Y11.1076
G01 X16.7693 Y11.2074
G01 X16.7690 Y11.2128
G01 X16.7576 Y11.3119
G01 X16.7567 Y11.3172
G01 X16.7356 Y11.4147
G01 X16.7342 Y11.4199
G01 X16.7037 Y11.5149
G01 X16.7018 Y11.5199
G01 X16.6621 Y11.6115
G01 X16.6598 Y11.6163
G01 X16.6113 Y11.7035
G01 X16.6084 Y11.7081
G01 X16.5517 Y11.7901
G01 X16.5484 Y11.7944
G01 X16.4839 Y11.8705
G01 X16.4802 Y11.8744
G01 X16.4085 Y11.9438
G01 X16.4044 Y11.9473
G01 X16.3263 Y12.0093
G01 X16.3219 Y12.0125
G01 X16.2381 Y12.0665
G01 X16.2334 Y12.0692
G01 X16.1447 Y12.1148
G01 X16.1397 Y12.1170
G01 X16.0470 Y12.1537
G01 X16.0419 Y12.1554
G01 X15.9459 Y12.1828
G01 X15.9407 Y12.1841
G01 X15.8425 Y12.2019
G01 X15.8372 Y12.2026
G01 X15.7378 Y12.2108
G01 X15.7324 Y12.2110
G01 X15.6326 Y12.2093
G01 X15.6272 Y12.2090
G01 X15.5281 Y12.1976
G01 X15.5228 Y12.1967
G01 X15.4253 Y12.1756
G01 X15.4201 Y12.1742
G01 X15.3251 Y12.1437
G01 X15.3201 Y12.1418
G01 X15.2285 Y12.1021
G01 X15.2237 Y12.0998
G01 X15.1365 Y12.0513
G01 X15.1319 Y12.0484
G01 X15.0499 Y11.9917
G01 X15.0456 Y11.9884
G01 X14.9695 Y11.9239
G01 X14.9656 Y11.9202
G01 X14.8962 Y11.8485
G01 X14.8927 Y11.8444
G01 X14.8307 Y11.7663
G01 X14.8275 Y11.7619
G01 X14.7735 Y11.6781
G01 X14.7708 Y11.6734
G01 X14.7252 Y11.5847
G01 X14.7230 Y11.5797
G01 X14.6863 Y11.4870
G01 X14.6846 Y11.4819
G01 X14.6572 Y11.3859
G01 X14.5864 Y11.0829
G01 X14.5676 Y10.9788
G01 X14.5669 Y10.9732
G01 X14.5590 Y10.8705
G01 X14.5588 Y10.8649
G01 X14.5613 Y10.7618
G01 X14.5618 Y10.7563
G01 X14.5747 Y10.6540
G01 X14.5757 Y10.6485
G01 X14.5989 Y10.5481
G01 X14.6005 Y10.5427
G01 X14.6338 Y10.4452
G01 X14.6358 Y10.4400
G01 X14.6788 Y10.3463
G01 X14.6885 Y10.3293
G01 X14.6885 Y6.9000
G01 X14.6890 Y6.8883
G01 X14.6890 Y5.8840
G01 X14.6893 Y5.8786
G01 X14.6901 Y5.8733
G01 X14.6914 Y5.8680
G01 X14.6932 Y5.8630
G01 X14.6955 Y5.8581
G01 X14.6983 Y5.8534
G01 X14.7015 Y5.8491
G01 X14.7051 Y5.8451
G01 X14.7091 Y5.8415
G01 X14.7134 Y5.8383
G01 X14.7181 Y5.8355
G01 X14.7230 Y5.8332
G01 X14.7280 Y5.8314
G01 X14.7333 Y5.8301
G01 X14.7386 Y5.8293
G01 X14.7440 Y5.8290
G01 X15.7483 Y5.8290
G01 X15.7573 Y5.8286
G01 X15.7717 Y5.8290
G01 X16.7760 Y5.8290
G01 X16.7814 Y5.8293
G01 X16.7867 Y5.8301
G01 X16.7920 Y5.8314
G01 X16.7970 Y5.8332
G01 X16.8019 Y5.8355
G01 X16.8066 Y5.8383
G01 X16.8109 Y5.8415
G01 X16.8149 Y5.8451
G01 X16.8185 Y5.8491
G01 X16.8217 Y5.8534
G01 X16.8245 Y5.8581
G01 X16.8268 Y5.8630
G01 X16.8286 Y5.8680
G01 X16.8299 Y5.8733
G01 X16.8307 Y5.8786
G01 X16.8310 Y5.8840
G01 X16.8310 Y6.8883
G01 X16.8315 Y6.9000
G01 X16.8315 Y10.7096
G00 Z2.0000
G00 X19.7734 Y7.9375
G01 F25.00
G01 Z-0.0187
G01 F45.00
G01 X19.7714 Y7.9320
G01 X19.7701 Y7.9267
G01 X19.7693 Y7.9214
G01 X19.7690 Y7.9160
G01 X19.7690 Y6.9117
G01 X19.7686 Y6.9027
G01 X19.7690 Y6.8883
G01 X19.7690 Y5.8840
G01 X19.7693 Y5.8786
G01 X19.7701 Y5.8733
G01 X19.7714 Y5.8680
G01 X19.7732 Y5.8630
G01 X19.7755 Y5.8581
G01 X19.7783 Y5.8534
G01 X19.7815 Y5.8491
G01 X19.7851 Y5.8451
G01 X19.7891 Y5.8415
G01 X19.7934 Y5.8383
G01 X19.7981 Y5.8355
G01 X19.8030 Y5.8332
G01 X19.8080 Y5.8314
G01 X19.8133 Y5.8301
G01 X19.8186 Y5.8293
G01 X19.8240 Y5.8290
G01 X20.8283 Y5.8290
G01 X20.8400 Y5.8285
G01 X22.4680 Y5.8286
G01 X22.5676 Y5.8335
G01 X22.5730 Y5.8340
G01 X22.6717 Y5.8486
G01 X22.6769 Y5.8497
G01 X22.7737 Y5.8739
G01 X22.7789 Y5.8755
G01 X22.8728 Y5.9091
G01 X22.8778 Y5.9111
G01 X22.9680 Y5.9538
G01 X22.9727 Y5.9563
G01 X23.0583 Y6.0076
G01 X23.0628 Y6.0106
G01 X23.1429 Y6.0701
G01 X23.1471 Y6.0735
G01 X23.2229 Y6.1423
G01 X24.5261 Y7.4456
G01 X24.5931 Y7.5195
G01 X24.5965 Y7.5237
G01 X24.6559 Y7.6038
G01 X24.6589 Y7.6083
G01 X24.7102 Y7.6938
G01 X24.7128 Y7.6986
G01 X24.7554 Y7.7888
G01 X24.7575 Y7.7938
G01 X24.7911 Y7.8877
G01 X24.7926 Y7.8928
G01 X24.8169 Y7.9896
G01 X24.8179 Y7.9949
G01 X24.8326 Y8.0936
G01 X24.8331 Y8.0990
G01 X24.8381 Y8.2013
G01 X24.8381 Y11.5382
G01 X25.7284 Y12.4285
G01 X29.2562 Y12.4285
G01 X31.3285 Y10.3562
G01 X31.3285 Y7.0000
G01 X31.3290 Y6.9883
G01 X31.3290 Y5.9840
G01 X31.3293 Y5.9786
G01 X31.3301 Y5.9733
G01 X31.3314 Y5.9680
G01 X31.3332 Y5.9630
G01 X31.3355 Y5.9581
G01 X31.3383 Y5.9534
G01 X31.3415 Y5.9491
G01 X31.3451 Y5.9451
G01 X31.3491 Y5.9415
G01 X31.3534 Y5.9383
G01 X31.3581 Y5.9355
G01 X31.3630 Y5.9332
G01 X31.3680 Y5.9314
G01 X31.3733 Y5.9301
G01 X31.3786 Y5.9293
G01 X31.3840 Y5.9290
G01 X32.3883 Y5.9290
G01 X32.4000 Y5.9285
G01 X35.6551 Y5.9285
G01 X35.7574 Y5.9335
G01 X35.7628 Y5.9340
G01 X35.8615 Y5.9486
G01 X35.8668 Y5.9497
G01 X35.9635 Y5.9739
G01 X35.9687 Y5.9755
G01 X36.0626 Y6.0091
G01 X36.0676 Y6.0111
G01 X36.1578 Y6.0538
G01 X36.1626 Y6.0563
G01 X36.2481 Y6.1076
G01 X36.2526 Y6.1106
G01 X36.3327 Y6.1701
G01 X36.3369 Y6.1735
G01 X36.4128 Y6.2423
G01 X38.5577 Y8.3872
G01 X38.6265 Y8.4631
G01 X38.6299 Y8.4673
G01 X38.6894 Y8.5474
G01 X38.6924 Y8.5519
G01 X38.7437 Y8.6374
G01 X38.7462 Y8.6422
G01 X38.7889 Y8.7324
G01 X38.7909 Y8.7374
G01 X38.8245 Y8.8313
G01 X38.8261 Y8.8365
G01 X38.8503 Y8.9332
G01 X38.8514 Y8.9385
G01 X38.8660 Y9.0372
G01 X38.8665 Y9.0426
G01 X38.8715 Y9.1449
G01 X38.8715 Y13.0285
G01 X41.5562 Y13.0285
G01 X44.4085 Y10.1762
G01 X44.4085 Y8.7249
G01 X44.4135 Y8.6226
G01 X44.4140 Y8.6172
G01 X44.4286 Y8.5185
G01 X44.4297 Y8.5133
G01 X44.4539 Y8.4165
G01 X44.4555 Y8.4113
G01 X44.4891 Y8.3174
G01 X44.4911 Y8.3124
G01 X44.5338 Y8.2222
G01 X44.5363 Y8.2175
G01 X44.5876 Y8.1319
G01 X44.6325 Y8.0710
G01 X44.4640 Y8.0710
G01 X44.4586 Y8.0707
G01 X44.4533 Y8.0699
G01 X44.4480 Y8.0686
G01 X44.4430 Y8.0668
G01 X44.4381 Y8.0645
G01 X44.4334 Y8.0617
G01 X44.4291 Y8.0585
G01 X44.4251 Y8.0549
G01 X44.4215 Y8.0509
G01 X44.4183 Y8.0466
G01 X44.4155 Y8.0419
G01 X44.4132 Y8.0370
G01 X44.4114 Y8.0320
G01 X44.4101 Y8.0267
G01 X44.4093 Y8.0214
G01 X44.4090 Y8.0160
G01 X44.4090 Y5.9840
G01 X44.4093 Y5.9786
G01 X44.4101 Y5.9733
G01 X44.4114 Y5.9680
G01 X44.4132 Y5.9630
G01 X44.4155 Y5.9581
G01 X44.4183 Y5.9534
G01 X44.4215 Y5.9491
G01 X44.4251 Y5.9451
G01 X44.4291 Y5.9415
G01 X44.4334 Y5.9383
G01 X44.4381 Y5.9355
G01 X44.4430 Y5.9332
G01 X44.4480 Y5.9314
G01 X44.4533 Y5.9301
G01 X44.4586 Y5.9293
G01 X44.4640 Y5.9290
G01 X46.4960 Y5.9290
G01 X46.5014 Y5.9293
G01 X46.5067 Y5.9301
G01 X46.5120 Y5.9314
G01 X46.5170 Y5.9332
G01 X46.5219 Y5.9355
G01 X46.5266 Y5.9383
G01 X46.5309 Y5.9415
G01 X46.5349 Y5.9451
G01 X46.5385 Y5.9491
G01 X46.5417 Y5.9534
G01 X46.5445 Y5.9581
G01 X46.5468 Y5.9630
G01 X46.5486 Y5.9680
G01 X46.5499 Y5.9733
G01 X46.5507 Y5.9786
G01 X46.5510 Y5.9840
G01 X46.5510 Y8.0160
G01 X46.5507 Y8.0214
G01 X46.5499 Y8.0267
G01 X46.5486 Y8.0320
G01 X46.5468 Y8.0370
G01 X46.5445 Y8.0419
G01 X46.5417 Y8.0466
G01 X46.5385 Y8.0509
G01 X46.5349 Y8.0549
G01 X46.5309 Y8.0585
G01 X46.5266 Y8.0617
G01 X46.5219 Y8.0645
G01 X46.5170 Y8.0668
G01 X46.5120 Y8.0686
G01 X46.5067 Y8.0699
G01 X46.5014 Y8.0707
G01 X46.4960 Y8.0710
G01 X46.3414 Y8.0710
G01 X51.4129 Y13.1425
G01 X52.8422 Y13.1425
G01 X57.2085 Y8.7762
G01 X57.2085 Y6.9000
G01 X57.2090 Y6.8883
G01 X57.2090 Y5.8840
G01 X57.2093 Y5.8786
G01 X57.2101 Y5.8733
G01 X57.2114 Y5.8680
G01 X57.2132 Y5.8630
G01 X57.2155 Y5.8581
G01 X57.2183 Y5.8534
G01 X57.2215 Y5.8491
G01 X57.2251 Y5.8451
G01 X57.2291 Y5.8415
G01 X57.2334 Y5.8383
G01 X57.2381 Y5.8355
G01 X57.2430 Y5.8332
G01 X57.2480 Y5.8314
G01 X57.2533 Y5.8301
G01 X57.2586 Y5.8293
G01 X57.2640 Y5.8290
G01 X58.2683 Y5.8290
G01 X58.2800 Y5.8285
G01 X73.3636 Y5.8285
G01 X73.4659 Y5.8335
G01 X73.4713 Y5.8340
G01 X73.5700 Y5.8486
G01 X73.5753 Y5.8497
G01 X73.6720 Y5.8739
G01 X73.6772 Y5.8755
G01 X73.7711 Y5.9091
G01 X73.7761 Y5.9111
G01 X73.8663 Y5.9538
G01 X73.8711 Y5.9563
G01 X73.9566 Y6.0076
G01 X73.9611 Y6.0106
G01 X74.0412 Y6.0701
G01 X74.0454 Y6.0735
G01 X74.1213 Y6.1423
G01 X76.1751 Y8.1961
G01 X76.2439 Y8.2720
G01 X76.2473 Y8.2762
G01 X76.3068 Y8.3563
G01 X76.3098 Y8.3608
G01 X76.3610 Y8.4463
G01 X76.3636 Y8.4511
G01 X76.4062 Y8.5413
G01 X76.4083 Y8.5463
G01 X76.4419 Y8.6402
G01 X76.4435 Y8.6453
G01 X76.4677 Y8.7421
G01 X76.4688 Y8.7474
G01 X76.4834 Y8.8461
G01 X76.4839 Y8.8515
G01 X76.4889 Y8.9538
G01 X76.4889 Y21.4826
G01 X76.4839 Y21.5849
G01 X76.4834 Y21.5903
G01 X76.4688 Y21.6890
G01 X76.4677 Y21.6943
G01 X76.4435 Y21.7911
G01 X76.4419 Y21.7962
G01 X76.4083 Y21.8901
G01 X76.4062 Y21.8951
G01 X76.3636 Y21.9853
G01 X76.3610 Y21.9901
G01 X76.3098 Y22.0756
G01 X76.3068 Y22.0801
G01 X76.2473 Y22.1602
G01 X76.2439 Y22.1644
G01 X76.1769 Y22.2383
G01 X73.2761 Y25.1393
G01 X73.2789 Y25.2027
G01 X73.2716 Y25.3521
G01 X73.2711 Y25.3574
G01 X73.2491 Y25.5054
G01 X73.2481 Y25.5107
G01 X73.2117 Y25.6558
G01 X73.2102 Y25.6609
G01 X73.1598 Y25.8017
G01 X73.1577 Y25.8067
G01 X73.0938 Y25.9419
G01 X73.0912 Y25.9467
G01 X73.0143 Y26.0750
G01 X73.0113 Y26.0795
G01 X72.9222 Y26.1996
G01 X72.9188 Y26.2038
G01 X72.8184 Y26.3146
G01 X72.8146 Y26.3184
G01 X72.7038 Y26.4188
G01 X72.6996 Y26.4222
G01 X72.5795 Y26.5113
G01 X72.5750 Y26.5143
G01 X72.4467 Y26.5912
G01 X72.4419 Y26.5938
G01 X72.3067 Y26.6577
G01 X72.3017 Y26.6598
G01 X72.1609 Y26.7102
G01 X72.1558 Y26.7117
G01 X72.0107 Y26.7481
G01 X72.0054 Y26.7491
G01 X71.8574 Y26.7711
G01 X71.8521 Y26.7716
G01 X71.7027 Y26.7789
G01 X71.6973 Y26.7789
G01 X71.5479 Y26.7716
G01 X71.5426 Y26.7711
G01 X71.3946 Y26.7491
G01 X71.3893 Y26.7481
G01 X71.2442 Y26.7117
G01 X71.2391 Y26.7102
G01 X71.0983 Y26.6598
G01 X71.0933 Y26.6577
G01 X70.9581 Y26.5938
G01 X70.9533 Y26.5912
G01 X70.8250 Y26.5143
G01 X70.8205 Y26.5113
G01 X70.7401 Y26.4517
G01 X68.8841 Y26.4517
G01 X68.7817 Y26.4467
G01 X68.7763 Y26.4462
G01 X68.6777 Y26.4316
G01 X68.6724 Y26.4305
G01 X68.5756 Y26.4063
G01 X68.5704 Y26.4047
G01 X68.4765 Y26.3711
G01 X68.4715 Y26.3690
G01 X68.3814 Y26.3264
G01 X68.3766 Y26.3238
G01 X68.2910 Y26.2726
G01 X68.2865 Y26.2696
G01 X68.2064 Y26.2101
G01 X68.2022 Y26.2067
G01 X68.1264 Y26.1379
G01 X65.4600 Y23.4715
G01 X58.0443 Y23.4715
G01 X55.1242 Y26.3960
G01 X55.1242 Y26.6527
G01 X55.1192 Y26.7550
G01 X55.1187 Y26.7604
G01 X55.1040 Y26.8590
G01 X55.1030 Y26.8643
G01 X55.0787 Y26.9611
G01 X55.0772 Y26.9663
G01 X55.0436 Y27.0602
G01 X55.0315 Y27.0863
G01 X55.0315 Y29.0000
G01 X55.0310 Y29.0117
G01 X55.0310 Y30.0160
G01 X55.0307 Y30.0214
G01 X55.0299 Y30.0267
G01 X55.0286 Y30.0320
G01 X55.0268 Y30.0370
G01 X55.0245 Y30.0419
G01 X55.0217 Y30.0466
G01 X55.0185 Y30.0509
G01 X55.0149 Y30.0549
G01 X55.0109 Y30.0585
G01 X55.0066 Y30.0617
G01 X55.0019 Y30.0645
G01 X54.9970 Y30.0668
G01 X54.9920 Y30.0686
G01 X54.9867 Y30.0699
G01 X54.9814 Y30.0707
G01 X54.9760 Y30.0710
G01 X53.9717 Y30.0710
G01 X53.9627 Y30.0714
G01 X53.9483 Y30.0710
G01 X52.9440 Y30.0710
G01 X52.9386 Y30.0707
G01 X52.9333 Y30.0699
G01 X52.9280 Y30.0686
G01 X52.9230 Y30.0668
G01 X52.9181 Y30.0645
G01 X52.9134 Y30.0617
G01 X52.9091 Y30.0585
G01 X52.9051 Y30.0549
G01 X52.9015 Y30.0509
G01 X52.8983 Y30.0466
G01 X52.8955 Y30.0419
G01 X52.8932 Y30.0370
G01 X52.8914 Y30.0320
G01 X52.8901 Y30.0267
G01 X52.8893 Y30.0214
G01 X52.8890 Y30.0160
G01 X52.8890 Y29.0117
G01 X52.8885 Y29.0000
G01 X52.8885 Y27.0189
G01 X51.3156 Y27.0189
G01 X51.2133 Y27.0139
G01 X51.2079 Y27.0134
G01 X51.1092 Y26.9987
G01 X51.1039 Y26.9977
G01 X51.0072 Y26.9734
G01 X51.0020 Y26.9719
G01 X50.9081 Y26.9383
G01 X50.9031 Y26.9362
G01 X50.8129 Y26.8935
G01 X50.8082 Y26.8910
G01 X50.7226 Y26.8397
G01 X50.7181 Y26.8367
G01 X50.6380 Y26.7773
G01 X50.6338 Y26.7739
G01 X50.5579 Y26.7050
G01 X46.7156 Y22.8627
G01 X46.6789 Y22.8222
G01 X45.0348 Y22.8222
G01 X44.9894 Y22.8975
G01 X44.9299 Y22.9776
G01 X44.9265 Y22.9818
G01 X44.8577 Y23.0577
G01 X41.6577 Y26.2577
G01 X41.5818 Y26.3265
G01 X41.5776 Y26.3299
G01 X41.4975 Y26.3894
G01 X41.4930 Y26.3924
G01 X41.4075 Y26.4437
G01 X41.4027 Y26.4462
G01 X41.3125 Y26.4889
G01 X41.3075 Y26.4909
G01 X41.2136 Y26.5245
G01 X41.1309 Y26.5455
G01 X41.1309 Y27.9290
G01 X41.1814 Y27.9293
G01 X41.1867 Y27.9301
G01 X41.1920 Y27.9314
G01 X41.1970 Y27.9332
G01 X41.2019 Y27.9355
G01 X41.2066 Y27.9383
G01 X41.2109 Y27.9415
G01 X41.2149 Y27.9451
G01 X41.2185 Y27.9491
G01 X41.2217 Y27.9534
G01 X41.2245 Y27.9581
G01 X41.2268 Y27.9630
G01 X41.2286 Y27.9680
G01 X41.2299 Y27.9733
G01 X41.2307 Y27.9786
G01 X41.2310 Y27.9840
G01 X41.2310 Y28.9879
G01 X41.2314 Y29.0022
G01 X41.2310 Y29.0113
G01 X41.2310 Y30.0160
G01 X41.2307 Y30.0214
G01 X41.2299 Y30.0267
G01 X41.2286 Y30.0320
G01 X41.2268 Y30.0370
G01 X41.2245 Y30.0419
G01 X41.2217 Y30.0466
G01 X41.2185 Y30.0509
G01 X41.2149 Y30.0549
G01 X41.2109 Y30.0585
G01 X41.2066 Y30.0617
G01 X41.2019 Y30.0645
G01 X41.1970 Y30.0668
G01 X41.1920 Y30.0686
G01 X41.1867 Y30.0699
G01 X41.1814 Y30.0707
G01 X41.1760 Y30.0710
G01 X40.1721 Y30.0710
G01 X40.1578 Y30.0714
G01 X40.1487 Y30.0710
G01 X39.1440 Y30.0710
G01 X39.1386 Y30.0707
G01 X39.1333 Y30.0699
G01 X39.1280 Y30.0686
G01 X39.1230 Y30.0668
G01 X39.1181 Y30.0645
G01 X39.1134 Y30.0617
G01 X39.1091 Y30.0585
G01 X39.1051 Y30.0549
G01 X39.1015 Y30.0509
G01 X39.0983 Y30.0466
G01 X39.0955 Y30.0419
G01 X39.0932 Y30.0370
G01 X39.0914 Y30.0320
G01 X39.0901 Y30.0267
G01 X39.0893 Y30.0214
G01 X39.0890 Y30.0160
G01 X39.0890 Y29.0580
G01 X38.9931 Y28.0896
G01 X38.9880 Y27.9867
G01 X38.9879 Y27.2715
G01 X38.5973 Y27.2714
G01 X38.4977 Y27.2665
G01 X38.4923 Y27.2660
G01 X38.3936 Y27.2514
G01 X38.3883 Y27.2503
G01 X38.2916 Y27.2261
G01 X38.2864 Y27.2245
G01 X38.1925 Y27.1909
G01 X38.1875 Y27.1889
G01 X38.0973 Y27.1462
G01 X38.0925 Y27.1437
G01 X38.0070 Y27.0924
G01 X38.0025 Y27.0894
G01 X37.9224 Y27.0299
G01 X37.9182 Y27.0265
G01 X37.8423 Y26.9577
G01 X34.1997 Y23.3150
G01 X34.1422 Y23.2517
G01 X32.2636 Y23.2517
G01 X28.9315 Y26.5838
G01 X28.9315 Y29.0000
G01 X28.9310 Y29.0117
G01 X28.9310 Y30.0160
G01 X28.9307 Y30.0214
G01 X28.9299 Y30.0267
G01 X28.9286 Y30.0320
G01 X28.9268 Y30.0370
G01 X28.9245 Y30.0419
G01 X28.9217 Y30.0466
G01 X28.9185 Y30.0509
G01 X28.9149 Y30.0549
G01 X28.9109 Y30.0585
G01 X28.9066 Y30.0617
G01 X28.9019 Y30.0645
G01 X28.8970 Y30.0668
G01 X28.8920 Y30.0686
G01 X28.8867 Y30.0699
G01 X28.8814 Y30.0707
G01 X28.8760 Y30.0710
G01 X27.8717 Y30.0710
G01 X27.8627 Y30.0714
G01 X27.8483 Y30.0710
G01 X26.8440 Y30.0710
G01 X26.8386 Y30.0707
G01 X26.8333 Y30.0699
G01 X26.8280 Y30.0686
G01 X26.8230 Y30.0668
G01 X26.8181 Y30.0645
G01 X26.8134 Y30.0617
G01 X26.8091 Y30.0585
G01 X26.8051 Y30.0549
G01 X26.8015 Y30.0509
G01 X26.7983 Y30.0466
G01 X26.7955 Y30.0419
G01 X26.7932 Y30.0370
G01 X26.7914 Y30.0320
G01 X26.7901 Y30.0267
G01 X26.7893 Y30.0214
G01 X26.7890 Y30.0160
G01 X26.7890 Y29.0117
G01 X26.7885 Y29.0000
G01 X26.7885 Y27.1711
G01 X26.6955 Y27.1665
G01 X26.6901 Y27.1660
G01 X26.5914 Y27.1514
G01 X26.5861 Y27.1503
G01 X26.4893 Y27.1261
G01 X26.4842 Y27.1245
G01 X26.3903 Y27.0909
G01 X26.3853 Y27.0889
G01 X26.2951 Y27.0462
G01 X26.2903 Y27.0437
G01 X26.2048 Y26.9924
G01 X26.2003 Y26.9894
G01 X26.1202 Y26.9299
G01 X26.1160 Y26.9265
G01 X26.0421 Y26.8595
G01 X22.1274 Y22.9449
G01 X20.1342 Y22.9449
G01 X16.7315 Y26.3476
G01 X16.7315 Y28.9000
G01 X16.7310 Y28.9117
G01 X16.7310 Y29.9160
G01 X16.7307 Y29.9214
G01 X16.7299 Y29.9267
G01 X16.7286 Y29.9320
G01 X16.7268 Y29.9370
G01 X16.7245 Y29.9419
G01 X16.7217 Y29.9466
G01 X16.7185 Y29.9509
G01 X16.7149 Y29.9549
G01 X16.7109 Y29.9585
G01 X16.7066 Y29.9617
G01 X16.7019 Y29.9645
G01 X16.6970 Y29.9668
G01 X16.6920 Y29.9686
G01 X16.6867 Y29.9699
G01 X16.6814 Y29.9707
G01 X16.6760 Y29.9710
G01 X15.6717 Y29.9710
G01 X15.6627 Y29.9714
G01 X15.6483 Y29.9710
G01 X14.6440 Y29.9710
G01 X14.6386 Y29.9707
G01 X14.6333 Y29.9699
G01 X14.6280 Y29.9686
G01 X14.6230 Y29.9668
G01 X14.6181 Y29.9645
G01 X14.6134 Y29.9617
G01 X14.6091 Y29.9585
G01 X14.6051 Y29.9549
G01 X14.6015 Y29.9509
G01 X14.5983 Y29.9466
G01 X14.5955 Y29.9419
G01 X14.5932 Y29.9370
G01 X14.5914 Y29.9320
G01 X14.5901 Y29.9267
G01 X14.5893 Y29.9214
G01 X14.5890 Y29.9160
G01 X14.5890 Y28.9117
G01 X14.5885 Y28.9000
G01 X14.5885 Y26.3476
G01 X12.1405 Y23.8995
G01 X12.0735 Y23.8256
G01 X12.0701 Y23.8214
G01 X12.0106 Y23.7413
G01 X12.0076 Y23.7368
G01 X11.9563 Y23.6512
G01 X11.9538 Y23.6465
G01 X11.9111 Y23.5563
G01 X11.9091 Y23.5513
G01 X11.8755 Y23.4574
G01 X11.8739 Y23.4522
G01 X11.8497 Y23.3555
G01 X11.8486 Y23.3502
G01 X11.8340 Y23.2515
G01 X11.8335 Y23.2461
G01 X11.8285 Y23.1438
G01 X11.8285 Y18.3000
G01 X11.8335 Y18.1977
G01 X11.8340 Y18.1923
G01 X11.8486 Y18.0936
G01 X11.8497 Y18.0883
G01 X11.8739 Y17.9916
G01 X11.8755 Y17.9864
G01 X11.9091 Y17.8925
G01 X11.9111 Y17.8875
G01 X11.9538 Y17.7973
G01 X11.9563 Y17.7925
G01 X12.0076 Y17.7070
G01 X12.0106 Y17.7025
G01 X12.0701 Y17.6224
G01 X12.0735 Y17.6182
G01 X12.1423 Y17.5423
G01 X19.7734 Y9.9112
G01 X19.7734 Y7.9375
G00 Z2.0000
G00 X28.3477 Y10.6179
G01 F25.00
G01 Z-0.0187
G01 F45.00
G01 X28.3515 Y10.6344
G01 X28.3661 Y10.7331
G01 X28.3666 Y10.7385
G01 X28.3714 Y10.8381
G01 X28.3714 Y10.8435
G01 X28.3665 Y10.9431
G01 X28.3659 Y10.9485
G01 X28.3512 Y11.0472
G01 X28.3502 Y11.0525
G01 X28.3259 Y11.1492
G01 X28.3243 Y11.1544
G01 X28.2906 Y11.2483
G01 X28.2885 Y11.2533
G01 X28.2458 Y11.3434
G01 X28.2433 Y11.3482
G01 X28.1919 Y11.4337
G01 X28.1889 Y11.4382
G01 X28.1294 Y11.5183
G01 X28.1260 Y11.5224
G01 X28.0590 Y11.5963
G01 X28.0551 Y11.6001
G01 X27.9812 Y11.6670
G01 X27.9770 Y11.6705
G01 X27.8968 Y11.7298
G01 X27.8923 Y11.7328
G01 X27.8067 Y11.7840
G01 X27.8020 Y11.7866
G01 X27.7118 Y11.8292
G01 X27.7068 Y11.8312
G01 X27.6128 Y11.8648
G01 X27.6077 Y11.8663
G01 X27.5109 Y11.8905
G01 X27.5056 Y11.8915
G01 X27.4069 Y11.9061
G01 X27.4015 Y11.9066
G01 X27.2992 Y11.9115
G01 X26.7953 Y11.9111
G01 X26.6930 Y11.9061
G01 X26.6877 Y11.9056
G01 X26.5890 Y11.8909
G01 X26.5837 Y11.8898
G01 X26.4870 Y11.8655
G01 X26.4819 Y11.8639
G01 X26.3880 Y11.8303
G01 X26.3830 Y11.8282
G01 X26.2929 Y11.7855
G01 X26.2881 Y11.7830
G01 X26.2026 Y11.7317
G01 X26.1981 Y11.7287
G01 X26.1181 Y11.6692
G01 X26.1139 Y11.6658
G01 X26.0400 Y11.5988
G01 X26.0362 Y11.5950
G01 X25.9693 Y11.5210
G01 X25.9659 Y11.5169
G01 X25.9065 Y11.4367
G01 X25.9035 Y11.4322
G01 X25.8523 Y11.3467
G01 X25.8497 Y11.3419
G01 X25.8071 Y11.2518
G01 X25.8051 Y11.2468
G01 X25.7715 Y11.1529
G01 X25.7699 Y11.1477
G01 X25.7457 Y11.0510
G01 X25.7447 Y11.0457
G01 X25.7301 Y10.9470
G01 X25.7296 Y10.9417
G01 X25.7247 Y10.8420
G01 X25.7247 Y10.8367
G01 X25.7296 Y10.7371
G01 X25.7301 Y10.7317
G01 X25.7448 Y10.6330
G01 X25.7459 Y10.6277
G01 X25.7701 Y10.5310
G01 X25.7717 Y10.5259
G01 X25.8053 Y10.4320
G01 X25.8073 Y10.4270
G01 X25.8500 Y10.3368
G01 X25.8525 Y10.3321
G01 X25.9038 Y10.2465
G01 X25.9068 Y10.2421
G01 X25.9662 Y10.1620
G01 X25.9696 Y10.1578
G01 X26.0366 Y10.0839
G01 X26.2485 Y9.8719
G01 X26.2485 Y7.0000
G01 X26.2490 Y6.9883
G01 X26.2490 Y5.9840
G01 X26.2493 Y5.9786
G01 X26.2501 Y5.9733
G01 X26.2514 Y5.9680
G01 X26.2532 Y5.9630
G01 X26.2555 Y5.9581
G01 X26.2583 Y5.9534
G01 X26.2615 Y5.9491
G01 X26.2651 Y5.9451
G01 X26.2691 Y5.9415
G01 X26.2734 Y5.9383
G01 X26.2781 Y5.9355
G01 X26.2830 Y5.9332
G01 X26.2880 Y5.9314
G01 X26.2933 Y5.9301
G01 X26.2986 Y5.9293
G01 X26.3040 Y5.9290
G01 X27.3083 Y5.9290
G01 X27.3173 Y5.9286
G01 X27.3317 Y5.9290
G01 X28.3360 Y5.9290
G01 X28.3414 Y5.9293
G01 X28.3467 Y5.9301
G01 X28.3520 Y5.9314
G01 X28.3570 Y5.9332
G01 X28.3619 Y5.9355
G01 X28.3666 Y5.9383
G01 X28.3709 Y5.9415
G01 X28.3749 Y5.9451
G01 X28.3785 Y5.9491
G01 X28.3817 Y5.9534
G01 X28.3845 Y5.9581
G01 X28.3868 Y5.9630
G01 X28.3886 Y5.9680
G01 X28.3899 Y5.9733
G01 X28.3907 Y5.9786
G01 X28.3910 Y5.9840
G01 X28.3910 Y6.9883
G01 X28.3915 Y7.0000
G01 X28.3915 Y10.3158
G01 X28.3865 Y10.4181
G01 X28.3860 Y10.4235
G01 X28.3714 Y10.5221
G01 X28.3703 Y10.5274
G01 X28.3477 Y10.6179
G00 Z2.0000
G00 X41.4715 Y11.1400
G01 F25.00
G01 Z-0.0187
G01 F45.00
G01 X41.4665 Y11.2423
G01 X41.4660 Y11.2477
G01 X41.4514 Y11.3464
G01 X41.4503 Y11.3517
G01 X41.4261 Y11.4484
G01 X41.4245 Y11.4536
G01 X41.3909 Y11.5475
G01 X41.3889 Y11.5525
G01 X41.3462 Y11.6427
G01 X41.3437 Y11.6475
G01 X41.2924 Y11.7330
G01 X41.2894 Y11.7375
G01 X41.2299 Y11.8176
G01 X41.2265 Y11.8218
G01 X41.1577 Y11.8977
G01 X41.0557 Y11.9995
G01 X40.9818 Y12.0665
G01 X40.9776 Y12.0699
G01 X40.8975 Y12.1294
G01 X40.8930 Y12.1324
G01 X40.8075 Y12.1837
G01 X40.8027 Y12.1862
G01 X40.7125 Y12.2289
G01 X40.7075 Y12.2309
G01 X40.6136 Y12.2645
G01 X40.6084 Y12.2661
G01 X40.5117 Y12.2903
G01 X40.5064 Y12.2914
G01 X40.4077 Y12.3060
G01 X40.4023 Y12.3065
G01 X40.3027 Y12.3114
G01 X40.2973 Y12.3114
G01 X40.1977 Y12.3065
G01 X40.1923 Y12.3060
G01 X40.0936 Y12.2914
G01 X40.0883 Y12.2903
G01 X39.9916 Y12.2661
G01 X39.9864 Y12.2645
G01 X39.8925 Y12.2309
G01 X39.8875 Y12.2289
G01 X39.7973 Y12.1862
G01 X39.7925 Y12.1837
G01 X39.7070 Y12.1324
G01 X39.7025 Y12.1294
G01 X39.6224 Y12.0699
G01 X39.6182 Y12.0665
G01 X39.5443 Y11.9995
G01 X39.5405 Y11.9957
G01 X39.4735 Y11.9218
G01 X39.4701 Y11.9176
G01 X39.4106 Y11.8375
G01 X39.4076 Y11.8330
G01 X39.3563 Y11.7475
G01 X39.3538 Y11.7427
G01 X39.3111 Y11.6525
G01 X39.3091 Y11.6475
G01 X39.2755 Y11.5536
G01 X39.2739 Y11.5484
G01 X39.2497 Y11.4517
G01 X39.2486 Y11.4464
G01 X39.2340 Y11.3477
G01 X39.2335 Y11.3423
G01 X39.2286 Y11.2427
G01 X39.2286 Y11.2373
G01 X39.2335 Y11.1377
G01 X39.2340 Y11.1323
G01 X39.2486 Y11.0336
G01 X39.2497 Y11.0283
G01 X39.2739 Y10.9316
G01 X39.2755 Y10.9264
G01 X39.3091 Y10.8325
G01 X39.3285 Y10.7908
G01 X39.3285 Y7.0000
G01 X39.3290 Y6.9883
G01 X39.3290 Y5.9840
G01 X39.3293 Y5.9786
G01 X39.3301 Y5.9733
G01 X39.3314 Y5.9680
G01 X39.3332 Y5.9630
G01 X39.3355 Y5.9581
G01 X39.3383 Y5.9534
G01 X39.3415 Y5.9491
G01 X39.3451 Y5.9451
G01 X39.3491 Y5.9415
G01 X39.3534 Y5.9383
G01 X39.3581 Y5.9355
G01 X39.3630 Y5.9332
G01 X39.3680 Y5.9314
G01 X39.3733 Y5.9301
G01 X39.3786 Y5.9293
G01 X39.3840 Y5.9290
G01 X40.3883 Y5.9290
G01 X40.3973 Y5.9286
G01 X40.4117 Y5.9290
G01 X41.4160 Y5.9290
G01 X41.4214 Y5.9293
G01 X41.4267 Y5.9301
G01 X41.4320 Y5.9314
G01 X41.4370 Y5.9332
G01 X41.4419 Y5.9355
G01 X41.4466 Y5.9383
G01 X41.4509 Y5.9415
G01 X41.4549 Y5.9451
G01 X41.4585 Y5.9491
G01 X41.4617 Y5.9534
G01 X41.4645 Y5.9581
G01 X41.4668 Y5.9630
G01 X41.4686 Y5.9680
G01 X41.4699 Y5.9733
G01 X41.4707 Y5.9786
G01 X41.4710 Y5.9840
G01 X41.4710 Y6.9883
G01 X41.4715 Y7.0000
G01 X41.4715 Y11.1400
G00 Z2.0000
G00 X46.4025 Y11.1628
G01 F25.00
G01 Z-0.0187
G01 F45.00
G01 X50.2114 Y14.9717
G01 X50.2873 Y15.0405
G01 X50.2915 Y15.0440
G01 X50.3716 Y15.1034
G01 X50.3761 Y15.1064
G01 X50.4616 Y15.1577
G01 X50.4664 Y15.1602
G01 X50.5566 Y15.2029
G01 X50.5616 Y15.2049
G01 X50.6555 Y15.2385
G01 X50.6606 Y15.2401
G01 X50.7574 Y15.2643
G01 X50.7627 Y15.2654
G01 X50.8614 Y15.2800
G01 X50.8667 Y15.2806
G01 X50.9664 Y15.2855
G01 X54.3435 Y15.2855
G01 X54.4458 Y15.2806
G01 X54.4512 Y15.2800
G01 X54.5499 Y15.2654
G01 X54.5552 Y15.2643
G01 X54.6519 Y15.2401
G01 X54.6571 Y15.2385
G01 X54.7510 Y15.2049
G01 X54.7560 Y15.2029
G01 X54.8462 Y15.1602
G01 X54.8509 Y15.1577
G01 X54.9365 Y15.1064
G01 X54.9410 Y15.1034
G01 X55.0211 Y15.0440
G01 X55.0253 Y15.0405
G01 X55.0992 Y14.9735
G01 X57.8418 Y12.2310
G01 X57.8776 Y12.2092
G01 X57.9578 Y12.1498
G01 X57.9619 Y12.1464
G01 X58.0378 Y12.0775
G01 X62.1438 Y7.9715
G01 X72.9198 Y7.9715
G01 X74.3459 Y9.3976
G01 X74.3459 Y21.0388
G01 X71.7607 Y23.6239
G01 X71.6973 Y23.6211
G01 X71.5479 Y23.6284
G01 X71.5426 Y23.6289
G01 X71.3946 Y23.6509
G01 X71.3893 Y23.6519
G01 X71.2442 Y23.6883
G01 X71.2391 Y23.6898
G01 X71.0983 Y23.7402
G01 X71.0933 Y23.7423
G01 X70.9581 Y23.8062
G01 X70.9533 Y23.8088
G01 X70.8250 Y23.8857
G01 X70.8205 Y23.8887
G01 X70.7004 Y23.9778
G01 X70.6962 Y23.9812
G01 X70.5854 Y24.0816
G01 X70.5816 Y24.0854
G01 X70.4812 Y24.1962
G01 X70.4778 Y24.2004
G01 X70.3975 Y24.3087
G01 X69.3279 Y24.3087
G01 X66.6596 Y21.6405
G01 X66.5857 Y21.5735
G01 X66.5815 Y21.5701
G01 X66.5014 Y21.5106
G01 X66.4969 Y21.5076
G01 X66.4113 Y21.4563
G01 X66.4066 Y21.4538
G01 X66.3164 Y21.4111
G01 X66.3114 Y21.4091
G01 X66.2175 Y21.3755
G01 X66.2123 Y21.3739
G01 X66.1155 Y21.3497
G01 X66.1102 Y21.3486
G01 X66.0116 Y21.3340
G01 X66.0062 Y21.3335
G01 X65.9039 Y21.3285
G01 X57.6000 Y21.3285
G01 X57.4978 Y21.3334
G01 X57.4924 Y21.3340
G01 X57.3938 Y21.3486
G01 X57.3885 Y21.3496
G01 X57.2918 Y21.3738
G01 X57.2867 Y21.3754
G01 X57.1928 Y21.4089
G01 X57.1879 Y21.4110
G01 X57.0977 Y21.4536
G01 X57.0930 Y21.4561
G01 X57.0075 Y21.5073
G01 X57.0030 Y21.5103
G01 X56.9229 Y21.5696
G01 X56.9187 Y21.5730
G01 X56.8429 Y21.6418
G01 X54.0479 Y24.4326
G01 X50.6084 Y20.9931
G01 X50.5325 Y20.9242
G01 X50.5284 Y20.9208
G01 X50.4482 Y20.8614
G01 X50.4437 Y20.8584
G01 X50.3582 Y20.8071
G01 X50.3534 Y20.8045
G01 X50.2632 Y20.7619
G01 X50.2583 Y20.7598
G01 X50.1643 Y20.7262
G01 X50.1592 Y20.7246
G01 X50.0624 Y20.7004
G01 X50.0571 Y20.6993
G01 X49.9584 Y20.6847
G01 X49.9531 Y20.6842
G01 X49.8534 Y20.6793
G01 X43.2493 Y20.6792
G01 X43.1469 Y20.6842
G01 X43.1416 Y20.6847
G01 X43.0429 Y20.6993
G01 X43.0376 Y20.7004
G01 X42.9408 Y20.7246
G01 X42.9357 Y20.7262
G01 X42.8417 Y20.7598
G01 X42.8367 Y20.7619
G01 X42.7466 Y20.8045
G01 X42.7418 Y20.8071
G01 X42.6562 Y20.8584
G01 X42.6518 Y20.8614
G01 X42.5716 Y20.9208
G01 X42.5675 Y20.9242
G01 X42.4916 Y20.9931
G01 X40.8421 Y22.6425
G01 X39.3579 Y22.6425
G01 X38.1379 Y21.4225
G01 X38.0620 Y21.3537
G01 X38.0578 Y21.3503
G01 X37.9777 Y21.2908
G01 X37.9732 Y21.2878
G01 X37.8877 Y21.2365
G01 X37.8829 Y21.2340
G01 X37.7927 Y21.1913
G01 X37.7877 Y21.1893
G01 X37.6938 Y21.1557
G01 X37.6887 Y21.1541
G01 X37.5919 Y21.1299
G01 X37.5866 Y21.1288
G01 X37.4879 Y21.1142
G01 X37.4825 Y21.1137
G01 X37.3802 Y21.1087
G01 X31.0562 Y21.1087
G01 X30.9539 Y21.1137
G01 X30.9485 Y21.1142
G01 X30.8498 Y21.1288
G01 X30.8445 Y21.1299
G01 X30.7478 Y21.1541
G01 X30.7426 Y21.1557
G01 X30.6487 Y21.1893
G01 X30.6437 Y21.1913
G01 X30.5535 Y21.2340
G01 X30.5487 Y21.2365
G01 X30.4632 Y21.2878
G01 X30.4587 Y21.2908
G01 X30.3786 Y21.3503
G01 X30.3744 Y21.3537
G01 X30.2985 Y21.4225
G01 X29.0883 Y22.6327
G01 X25.7075 Y22.6327
G01 X24.1886 Y21.1139
G01 X24.1147 Y21.0469
G01 X24.1105 Y21.0435
G01 X24.0304 Y20.9841
G01 X24.0259 Y20.9811
G01 X23.9403 Y20.9298
G01 X23.9356 Y20.9272
G01 X23.8454 Y20.8846
G01 X23.8404 Y20.8825
G01 X23.7465 Y20.8489
G01 X23.7413 Y20.8473
G01 X23.6445 Y20.8231
G01 X23.6392 Y20.8220
G01 X23.5406 Y20.8074
G01 X23.5352 Y20.8069
G01 X23.4329 Y20.8019
G01 X19.6904 Y20.8019
G01 X19.5880 Y20.8069
G01 X19.5826 Y20.8074
G01 X19.4840 Y20.8220
G01 X19.4787 Y20.8231
G01 X19.3819 Y20.8473
G01 X19.3767 Y20.8489
G01 X19.2828 Y20.8825
G01 X19.2778 Y20.8846
G01 X19.1877 Y20.9272
G01 X19.1829 Y20.9298
G01 X19.0973 Y20.9811
G01 X19.0928 Y20.9841
G01 X19.0127 Y21.0435
G01 X19.0085 Y21.0469
G01 X18.9346 Y21.1139
G01 X15.6600 Y24.3884
G01 X13.9715 Y22.6999
G01 X13.9715 Y18.7438
G01 X21.4923 Y11.2231
G01 X24.5288 Y14.2595
G01 X24.6027 Y14.3265
G01 X24.6069 Y14.3299
G01 X24.6870 Y14.3894
G01 X24.6915 Y14.3924
G01 X24.7771 Y14.4437
G01 X24.7818 Y14.4462
G01 X24.8720 Y14.4889
G01 X24.8770 Y14.4909
G01 X24.9709 Y14.5245
G01 X24.9761 Y14.5261
G01 X25.0729 Y14.5503
G01 X25.0782 Y14.5514
G01 X25.1768 Y14.5660
G01 X25.1822 Y14.5665
G01 X25.2845 Y14.5715
G01 X29.7000 Y14.5715
G01 X29.8023 Y14.5665
G01 X29.8077 Y14.5660
G01 X29.9064 Y14.5514
G01 X29.9117 Y14.5503
G01 X30.0084 Y14.5261
G01 X30.0136 Y14.5245
G01 X30.1075 Y14.4909
G01 X30.1125 Y14.4889
G01 X30.2027 Y14.4462
G01 X30.2075 Y14.4437
G01 X30.2930 Y14.3924
G01 X30.2975 Y14.3894
G01 X30.3776 Y14.3299
G01 X30.3818 Y14.3265
G01 X30.4557 Y14.2595
G01 X32.7686 Y11.9467
G01 X35.7795 Y14.9577
G01 X35.8554 Y15.0265
G01 X35.8596 Y15.0299
G01 X35.9397 Y15.0894
G01 X35.9442 Y15.0924
G01 X36.0297 Y15.1437
G01 X36.0345 Y15.1462
G01 X36.1247 Y15.1889
G01 X36.1297 Y15.1909
G01 X36.2236 Y15.2245
G01 X36.2287 Y15.2261
G01 X36.3255 Y15.2503
G01 X36.3308 Y15.2514
G01 X36.4295 Y15.2660
G01 X36.4349 Y15.2665
G01 X36.5372 Y15.2715
G01 X37.8000 Y15.2715
G01 X37.9023 Y15.2665
G01 X37.9077 Y15.2660
G01 X38.0064 Y15.2514
G01 X38.0117 Y15.2503
G01 X38.1084 Y15.2261
G01 X38.1136 Y15.2245
G01 X38.2075 Y15.1909
G01 X38.2538 Y15.1693
G01 X38.3000 Y15.1715
G01 X42.0027 Y15.1714
G01 X42.1023 Y15.1665
G01 X42.1077 Y15.1660
G01 X42.2064 Y15.1514
G01 X42.2117 Y15.1503
G01 X42.3084 Y15.1261
G01 X42.3136 Y15.1245
G01 X42.4075 Y15.0909
G01 X42.4125 Y15.0889
G01 X42.5027 Y15.0462
G01 X42.5075 Y15.0437
G01 X42.5930 Y14.9924
G01 X42.5975 Y14.9894
G01 X42.6776 Y14.9299
G01 X42.6818 Y14.9265
G01 X42.7577 Y14.8577
G01 X46.2377 Y11.3777
G01 X46.3065 Y11.3018
G01 X46.3099 Y11.2976
G01 X46.3694 Y11.2175
G01 X46.4025 Y11.1628
G00 Z2.0000
G00 X45.5957 Y17.5903
G01 F25.00
G01 Z-0.0187
G01 F45.00
G01 X45.5724 Y17.6287
G01 X45.5353 Y17.6788
G01 X45.4881 Y17.7311
G01 X45.3881 Y17.8311
G01 X45.3400 Y17.8748
G01 X45.2857 Y17.9154
G01 X45.2812 Y17.9184
G01 X45.2230 Y17.9530
G01 X45.1666 Y17.9797
G01 X45.1617 Y17.9817
G01 X45.0978 Y18.0043
G01 X45.0373 Y18.0195
G01 X44.9703 Y18.0297
G01 X44.9000 Y18.0333
G01 X23.7430 Y18.0333
G01 X23.6726 Y18.0297
G01 X23.6057 Y18.0195
G01 X23.5452 Y18.0043
G01 X23.4813 Y17.9817
G01 X23.4200 Y17.9530
G01 X23.3618 Y17.9184
G01 X23.3573 Y17.9154
G01 X23.3030 Y17.8748
G01 X23.2568 Y17.8330
G01 X20.8661 Y15.4424
G01 X20.8048 Y15.4391
G01 X20.7132 Y15.4253
G01 X20.6234 Y15.4025
G01 X20.5363 Y15.3710
G01 X20.4574 Y15.3337
G01 X20.3778 Y15.2864
G01 X20.3033 Y15.2314
G01 X20.2344 Y15.1694
G01 X20.1720 Y15.1009
G01 X20.1166 Y15.0267
G01 X20.1136 Y15.0222
G01 X20.0663 Y14.9426
G01 X20.0290 Y14.8637
G01 X19.9975 Y14.7766
G01 X19.9747 Y14.6868
G01 X19.9609 Y14.5952
G01 X19.9561 Y14.5027
G01 X19.9561 Y14.4973
G01 X19.9609 Y14.4048
G01 X19.9747 Y14.3132
G01 X19.9959 Y14.2286
G01 X20.0269 Y14.1413
G01 X20.0663 Y14.0574
G01 X20.1136 Y13.9778
G01 X20.1166 Y13.9733
G01 X20.1720 Y13.8991
G01 X20.2306 Y13.8344
G01 X20.2991 Y13.7720
G01 X20.3733 Y13.7166
G01 X20.3778 Y13.7136
G01 X20.4574 Y13.6663
G01 X20.5363 Y13.6290
G01 X20.6234 Y13.5975
G01 X20.7132 Y13.5747
G01 X20.7185 Y13.5737
G01 X20.8102 Y13.5603
G01 X20.9027 Y13.5561
G01 X20.9898 Y13.5603
G01 X21.0815 Y13.5737
G01 X21.1714 Y13.5959
G01 X21.1766 Y13.5975
G01 X21.2637 Y13.6290
G01 X21.3473 Y13.6688
G01 X21.4267 Y13.7166
G01 X21.5009 Y13.7720
G01 X21.5656 Y13.8306
G01 X21.6280 Y13.8991
G01 X21.6834 Y13.9733
G01 X21.6864 Y13.9778
G01 X21.7337 Y14.0574
G01 X21.7710 Y14.1363
G01 X21.8025 Y14.2234
G01 X21.8041 Y14.2286
G01 X21.8263 Y14.3185
G01 X21.8391 Y14.4048
G01 X21.8424 Y14.4661
G01 X24.0289 Y16.6527
G01 X32.3097 Y16.6527
G01 X32.3097 Y15.2424
G01 X32.2686 Y15.1967
G01 X32.2166 Y15.1267
G01 X32.1688 Y15.0473
G01 X32.1290 Y14.9637
G01 X32.0975 Y14.8766
G01 X32.0959 Y14.8714
G01 X32.0737 Y14.7815
G01 X32.0603 Y14.6898
G01 X32.0561 Y14.6027
G01 X32.0603 Y14.5102
G01 X32.0737 Y14.4185
G01 X32.0747 Y14.4132
G01 X32.0959 Y14.3286
G01 X32.1269 Y14.2413
G01 X32.1663 Y14.1574
G01 X32.2136 Y14.0778
G01 X32.2166 Y14.0733
G01 X32.2720 Y13.9991
G01 X32.3344 Y13.9306
G01 X32.3991 Y13.8720
G01 X32.4733 Y13.8166
G01 X32.4778 Y13.8136
G01 X32.5574 Y13.7663
G01 X32.6413 Y13.7269
G01 X32.7286 Y13.6959
G01 X32.8132 Y13.6747
G01 X32.9048 Y13.6609
G01 X32.9973 Y13.6561
G01 X33.0898 Y13.6603
G01 X33.1815 Y13.6737
G01 X33.1868 Y13.6747
G01 X33.2766 Y13.6975
G01 X33.3637 Y13.7290
G01 X33.4473 Y13.7688
G01 X33.5267 Y13.8166
G01 X33.5967 Y13.8686
G01 X33.6656 Y13.9306
G01 X33.6694 Y13.9344
G01 X33.7314 Y14.0033
G01 X33.7864 Y14.0778
G01 X33.8337 Y14.1574
G01 X33.8731 Y14.2413
G01 X33.9041 Y14.3286
G01 X33.9253 Y14.4132
G01 X33.9263 Y14.4185
G01 X33.9397 Y14.5102
G01 X33.9439 Y14.6027
G01 X33.9397 Y14.6898
G01 X33.9263 Y14.7815
G01 X33.9041 Y14.8714
G01 X33.9025 Y14.8766
G01 X33.8710 Y14.9637
G01 X33.8312 Y15.0473
G01 X33.7834 Y15.1267
G01 X33.7314 Y15.1967
G01 X33.6903 Y15.2424
G01 X33.6903 Y16.6527
G01 X44.2561 Y16.6527
G01 X44.2633 Y16.6334
G01 X44.2900 Y16.5770
G01 X44.3097 Y16.5436
G01 X44.3097 Y15.2424
G01 X44.2686 Y15.1967
G01 X44.2166 Y15.1267
G01 X44.1688 Y15.0473
G01 X44.1290 Y14.9637
G01 X44.0975 Y14.8766
G01 X44.0959 Y14.8714
G01 X44.0737 Y14.7815
G01 X44.0603 Y14.6898
G01 X44.0561 Y14.6027
G01 X44.0603 Y14.5102
G01 X44.0737 Y14.4185
G01 X44.0747 Y14.4132
G01 X44.0959 Y14.3286
G01 X44.1269 Y14.2413
G01 X44.1663 Y14.1574
G01 X44.2136 Y14.0778
G01 X44.2166 Y14.0733
G01 X44.2720 Y13.9991
G01 X44.3344 Y13.9306
G01 X44.3991 Y13.8720
G01 X44.4733 Y13.8166
G01 X44.4778 Y13.8136
G01 X44.5574 Y13.7663
G01 X44.6413 Y13.7269
G01 X44.7286 Y13.6959
G01 X44.8132 Y13.6747
G01 X44.9048 Y13.6609
G01 X44.9973 Y13.6561
G01 X45.0027 Y13.6561
G01 X45.0952 Y13.6609
G01 X45.1868 Y13.6747
G01 X45.2714 Y13.6959
G01 X45.2766 Y13.6975
G01 X45.3637 Y13.7290
G01 X45.4473 Y13.7688
G01 X45.5267 Y13.8166
G01 X45.6009 Y13.8720
G01 X45.6656 Y13.9306
G01 X45.7280 Y13.9991
G01 X45.7834 Y14.0733
G01 X45.7864 Y14.0778
G01 X45.8337 Y14.1574
G01 X45.8731 Y14.2413
G01 X45.9041 Y14.3286
G01 X45.9263 Y14.4185
G01 X45.9397 Y14.5102
G01 X45.9439 Y14.5973
G01 X45.9397 Y14.6898
G01 X45.9263 Y14.7815
G01 X45.9253 Y14.7868
G01 X45.9041 Y14.8714
G01 X45.8731 Y14.9587
G01 X45.8337 Y15.0426
G01 X45.7864 Y15.1222
G01 X45.7834 Y15.1267
G01 X45.7314 Y15.1967
G01 X45.6903 Y15.2424
G01 X45.6903 Y16.2097
G01 X58.3097 Y16.2097
G01 X58.3097 Y15.2424
G01 X58.2686 Y15.1967
G01 X58.2166 Y15.1267
G01 X58.2136 Y15.1222
G01 X58.1663 Y15.0426
G01 X58.1290 Y14.9637
G01 X58.0975 Y14.8766
G01 X58.0747 Y14.7868
G01 X58.0737 Y14.7815
G01 X58.0603 Y14.6898
G01 X58.0561 Y14.5973
G01 X58.0603 Y14.5102
G01 X58.0737 Y14.4185
G01 X58.0959 Y14.3286
G01 X58.0975 Y14.3234
G01 X58.1290 Y14.2363
G01 X58.1688 Y14.1527
G01 X58.2166 Y14.0733
G01 X58.2720 Y13.9991
G01 X58.3306 Y13.9344
G01 X58.3344 Y13.9306
G01 X58.4033 Y13.8686
G01 X58.4778 Y13.8136
G01 X58.5527 Y13.7688
G01 X58.6363 Y13.7290
G01 X58.7234 Y13.6975
G01 X58.7286 Y13.6959
G01 X58.8185 Y13.6737
G01 X58.9102 Y13.6603
G01 X58.9973 Y13.6561
G01 X59.0027 Y13.6561
G01 X59.0952 Y13.6609
G01 X59.1868 Y13.6747
G01 X59.2714 Y13.6959
G01 X59.2766 Y13.6975
G01 X59.3637 Y13.7290
G01 X59.4473 Y13.7688
G01 X59.5267 Y13.8166
G01 X59.6009 Y13.8720
G01 X59.6656 Y13.9306
G01 X59.7280 Y13.9991
G01 X59.7834 Y14.0733
G01 X59.7864 Y14.0778
G01 X59.8337 Y14.1574
G01 X59.8731 Y14.2413
G01 X59.9041 Y14.3286
G01 X59.9263 Y14.4185
G01 X59.9397 Y14.5102
G01 X59.9439 Y14.5973
G01 X59.9397 Y14.6898
G01 X59.9263 Y14.7815
G01 X59.9253 Y14.7868
G01 X59.9041 Y14.8714
G01 X59.8731 Y14.9587
G01 X59.8337 Y15.0426
G01 X59.7864 Y15.1222
G01 X59.7834 Y15.1267
G01 X59.7314 Y15.1967
G01 X59.6903 Y15.2424
G01 X59.6903 Y16.2097
G01 X69.1141 Y16.2097
G01 X69.6879 Y15.6359
G01 X69.7286 Y15.5984
G01 X69.7759 Y15.5615
G01 X70.1441 Y15.2996
G01 X70.1289 Y15.1974
G01 X70.1284 Y15.1921
G01 X70.1211 Y15.0427
G01 X70.1211 Y15.0373
G01 X70.1284 Y14.8879
G01 X70.1289 Y14.8826
G01 X70.1509 Y14.7346
G01 X70.1519 Y14.7293
G01 X70.1883 Y14.5842
G01 X70.1898 Y14.5791
G01 X70.2402 Y14.4383
G01 X70.2423 Y14.4333
G01 X70.3062 Y14.2981
G01 X70.3088 Y14.2933
G01 X70.3857 Y14.1650
G01 X70.3887 Y14.1605
G01 X70.4778 Y14.0404
G01 X70.4812 Y14.0362
G01 X70.5816 Y13.9254
G01 X70.5854 Y13.9216
G01 X70.6962 Y13.8212
G01 X70.7004 Y13.8178
G01 X70.8205 Y13.7287
G01 X70.8250 Y13.7257
G01 X70.9533 Y13.6488
G01 X70.9581 Y13.6462
G01 X71.0933 Y13.5823
G01 X71.0983 Y13.5802
G01 X71.2391 Y13.5298
G01 X71.2442 Y13.5283
G01 X71.3893 Y13.4919
G01 X71.3946 Y13.4909
G01 X71.5426 Y13.4689
G01 X71.5479 Y13.4684
G01 X71.6973 Y13.4611
G01 X71.7027 Y13.4611
G01 X71.8521 Y13.4684
G01 X71.8574 Y13.4689
G01 X72.0054 Y13.4909
G01 X72.0107 Y13.4919
G01 X72.1558 Y13.5283
G01 X72.1609 Y13.5298
G01 X72.3017 Y13.5802
G01 X72.3067 Y13.5823
G01 X72.4419 Y13.6462
G01 X72.4467 Y13.6488
G01 X72.5750 Y13.7257
G01 X72.5795 Y13.7287
G01 X72.6996 Y13.8178
G01 X72.7038 Y13.8212
G01 X72.8146 Y13.9216
G01 X72.8184 Y13.9254
G01 X72.9188 Y14.0362
G01 X72.9222 Y14.0404
G01 X73.0113 Y14.1605
G01 X73.0143 Y14.1650
G01 X73.0912 Y14.2933
G01 X73.0938 Y14.2981
G01 X73.1577 Y14.4333
G01 X73.1598 Y14.4383
G01 X73.2102 Y14.5791
G01 X73.2117 Y14.5842
G01 X73.2481 Y14.7293
G01 X73.2491 Y14.7346
G01 X73.2711 Y14.8826
G01 X73.2716 Y14.8879
G01 X73.2789 Y15.0373
G01 X73.2789 Y15.0427
G01 X73.2716 Y15.1921
G01 X73.2711 Y15.1974
G01 X73.2491 Y15.3454
G01 X73.2481 Y15.3507
G01 X73.2117 Y15.4958
G01 X73.2102 Y15.5009
G01 X73.1598 Y15.6417
G01 X73.1577 Y15.6467
G01 X73.0938 Y15.7819
G01 X73.0912 Y15.7867
G01 X73.0143 Y15.9150
G01 X73.0113 Y15.9195
G01 X72.9222 Y16.0396
G01 X72.9188 Y16.0438
G01 X72.8184 Y16.1546
G01 X72.8146 Y16.1584
G01 X72.7038 Y16.2588
G01 X72.6996 Y16.2622
G01 X72.5795 Y16.3513
G01 X72.5750 Y16.3543
G01 X72.4467 Y16.4312
G01 X72.4419 Y16.4338
G01 X72.3067 Y16.4977
G01 X72.3017 Y16.4998
G01 X72.1609 Y16.5502
G01 X72.1558 Y16.5517
G01 X72.0107 Y16.5881
G01 X72.0054 Y16.5891
G01 X71.8574 Y16.6111
G01 X71.8521 Y16.6116
G01 X71.7027 Y16.6189
G01 X71.6973 Y16.6189
G01 X71.5479 Y16.6116
G01 X71.5426 Y16.6111
G01 X71.3946 Y16.5891
G01 X71.3893 Y16.5881
G01 X71.2442 Y16.5517
G01 X71.2391 Y16.5502
G01 X71.0983 Y16.4998
G01 X71.0933 Y16.4977
G01 X70.9581 Y16.4338
G01 X70.9434 Y16.4253
G01 X70.6232 Y16.6530
G01 X69.8881 Y17.3881
G01 X69.8358 Y17.4353
G01 X69.7812 Y17.4754
G01 X69.7278 Y17.5075
G01 X69.6666 Y17.5367
G01 X69.6617 Y17.5387
G01 X69.5978 Y17.5613
G01 X69.5373 Y17.5765
G01 X69.4703 Y17.5867
G01 X69.4650 Y17.5872
G01 X69.4000 Y17.5903
G01 X45.5957 Y17.5903
G00 Z2.0000
G00 X44.1685 Y25.4355
G01 F25.00
G01 Z-0.0187
G01 F45.00
G01 X44.1106 Y25.3575
G01 X44.1076 Y25.3530
G01 X44.0563 Y25.2675
G01 X44.0538 Y25.2627
G01 X44.0111 Y25.1725
G01 X44.0091 Y25.1675
G01 X43.9755 Y25.0736
G01 X43.9739 Y25.0684
G01 X43.9497 Y24.9717
G01 X43.9486 Y24.9664
G01 X43.9340 Y24.8677
G01 X43.9335 Y24.8623
G01 X43.9286 Y24.7627
G01 X43.9286 Y24.7573
G01 X43.9335 Y24.6577
G01 X43.9340 Y24.6523
G01 X43.9486 Y24.5536
G01 X43.9497 Y24.5483
G01 X43.9739 Y24.4516
G01 X43.9755 Y24.4464
G01 X44.0091 Y24.3525
G01 X44.0111 Y24.3475
G01 X44.0538 Y24.2573
G01 X44.0563 Y24.2525
G01 X44.1076 Y24.1670
G01 X44.1106 Y24.1625
G01 X44.1701 Y24.0824
G01 X44.1735 Y24.0782
G01 X44.2405 Y24.0043
G01 X44.2443 Y24.0005
G01 X44.3182 Y23.9335
G01 X44.3224 Y23.9301
G01 X44.4025 Y23.8706
G01 X44.4070 Y23.8676
G01 X44.4925 Y23.8163
G01 X44.4973 Y23.8138
G01 X44.5875 Y23.7711
G01 X44.5925 Y23.7691
G01 X44.6864 Y23.7355
G01 X44.6916 Y23.7339
G01 X44.7883 Y23.7097
G01 X44.7936 Y23.7086
G01 X44.8923 Y23.6940
G01 X44.8977 Y23.6935
G01 X44.9973 Y23.6886
G01 X45.0027 Y23.6886
G01 X45.1023 Y23.6935
G01 X45.1077 Y23.6940
G01 X45.2064 Y23.7086
G01 X45.2117 Y23.7097
G01 X45.3084 Y23.7339
G01 X45.3136 Y23.7355
G01 X45.4075 Y23.7691
G01 X45.4125 Y23.7711
G01 X45.5027 Y23.8138
G01 X45.5075 Y23.8163
G01 X45.5930 Y23.8676
G01 X45.5975 Y23.8706
G01 X45.6776 Y23.9301
G01 X45.6818 Y23.9335
G01 X45.7577 Y24.0023
G01 X45.9995 Y24.2443
G01 X46.0665 Y24.3182
G01 X46.0699 Y24.3224
G01 X46.1294 Y24.4025
G01 X46.1324 Y24.4070
G01 X46.1837 Y24.4925
G01 X46.1862 Y24.4973
G01 X46.2289 Y24.5875
G01 X46.2309 Y24.5925
G01 X46.2645 Y24.6864
G01 X46.2661 Y24.6916
G01 X46.2903 Y24.7883
G01 X46.2914 Y24.7936
G01 X46.3060 Y24.8923
G01 X46.3065 Y24.8977
G01 X46.3115 Y25.0000
G01 X46.3115 Y29.0000
G01 X46.3110 Y29.0117
G01 X46.3110 Y30.0160
G01 X46.3107 Y30.0214
G01 X46.3099 Y30.0267
G01 X46.3086 Y30.0320
G01 X46.3068 Y30.0370
G01 X46.3045 Y30.0419
G01 X46.3017 Y30.0466
G01 X46.2985 Y30.0509
G01 X46.2949 Y30.0549
G01 X46.2909 Y30.0585
G01 X46.2866 Y30.0617
G01 X46.2819 Y30.0645
G01 X46.2770 Y30.0668
G01 X46.2720 Y30.0686
G01 X46.2667 Y30.0699
G01 X46.2614 Y30.0707
G01 X46.2560 Y30.0710
G01 X45.2517 Y30.0710
G01 X45.2427 Y30.0714
G01 X45.2283 Y30.0710
G01 X44.2240 Y30.0710
G01 X44.2186 Y30.0707
G01 X44.2133 Y30.0699
G01 X44.2080 Y30.0686
G01 X44.2030 Y30.0668
G01 X44.1981 Y30.0645
G01 X44.1934 Y30.0617
G01 X44.1891 Y30.0585
G01 X44.1851 Y30.0549
G01 X44.1815 Y30.0509
G01 X44.1783 Y30.0466
G01 X44.1755 Y30.0419
G01 X44.1732 Y30.0370
G01 X44.1714 Y30.0320
G01 X44.1701 Y30.0267
G01 X44.1693 Y30.0214
G01 X44.1690 Y30.0160
G01 X44.1690 Y29.0117
G01 X44.1685 Y29.0000
G01 X44.1685 Y25.4355
G00 Z2.0000
G00 X31.8690 Y28.1238
G01 F25.00
G01 Z-0.0187
G01 F45.00
G01 X31.8690 Y27.9840
G01 X31.8693 Y27.9786
G01 X31.8701 Y27.9733
G01 X31.8714 Y27.9680
G01 X31.8732 Y27.9630
G01 X31.8755 Y27.9581
G01 X31.8783 Y27.9534
G01 X31.8815 Y27.9491
G01 X31.8851 Y27.9451
G01 X31.8891 Y27.9415
G01 X31.8934 Y27.9383
G01 X31.8981 Y27.9355
G01 X31.9030 Y27.9332
G01 X31.9080 Y27.9314
G01 X31.9133 Y27.9301
G01 X31.9186 Y27.9293
G01 X31.9285 Y27.9290
G01 X31.9285 Y24.7600
G01 X31.9335 Y24.6577
G01 X31.9340 Y24.6523
G01 X31.9486 Y24.5536
G01 X31.9497 Y24.5483
G01 X31.9739 Y24.4516
G01 X31.9755 Y24.4464
G01 X32.0091 Y24.3525
G01 X32.0111 Y24.3475
G01 X32.0538 Y24.2573
G01 X32.0563 Y24.2525
G01 X32.1076 Y24.1670
G01 X32.1106 Y24.1625
G01 X32.1701 Y24.0824
G01 X32.1735 Y24.0782
G01 X32.2405 Y24.0043
G01 X32.2443 Y24.0005
G01 X32.3182 Y23.9335
G01 X32.3224 Y23.9301
G01 X32.4025 Y23.8706
G01 X32.4070 Y23.8676
G01 X32.4925 Y23.8163
G01 X32.4973 Y23.8138
G01 X32.5875 Y23.7711
G01 X32.5925 Y23.7691
G01 X32.6864 Y23.7355
G01 X32.6916 Y23.7339
G01 X32.7883 Y23.7097
G01 X32.7936 Y23.7086
G01 X32.8923 Y23.6940
G01 X32.8977 Y23.6935
G01 X32.9973 Y23.6886
G01 X33.0027 Y23.6886
G01 X33.1023 Y23.6935
G01 X33.1077 Y23.6940
G01 X33.2064 Y23.7086
G01 X33.2117 Y23.7097
G01 X33.3084 Y23.7339
G01 X33.3136 Y23.7355
G01 X33.4075 Y23.7691
G01 X33.4125 Y23.7711
G01 X33.5027 Y23.8138
G01 X33.5075 Y23.8163
G01 X33.5930 Y23.8676
G01 X33.5975 Y23.8706
G01 X33.6776 Y23.9301
G01 X33.6818 Y23.9335
G01 X33.7557 Y24.0005
G01 X33.7595 Y24.0043
G01 X33.8265 Y24.0782
G01 X33.8299 Y24.0824
G01 X33.8894 Y24.1625
G01 X33.8924 Y24.1670
G01 X33.9437 Y24.2525
G01 X33.9462 Y24.2573
G01 X33.9889 Y24.3475
G01 X33.9909 Y24.3525
G01 X34.0245 Y24.4464
G01 X34.0261 Y24.4516
G01 X34.0503 Y24.5483
G01 X34.0514 Y24.5536
G01 X34.0660 Y24.6523
G01 X34.0665 Y24.6577
G01 X34.0715 Y24.7600
G01 X34.0715 Y28.5000
G01 X34.0665 Y28.6023
G01 X34.0660 Y28.6077
G01 X34.0514 Y28.7064
G01 X34.0503 Y28.7117
G01 X34.0261 Y28.8084
G01 X34.0110 Y28.8514
G01 X34.0110 Y28.9950
G01 X34.0114 Y29.0054
G01 X34.0110 Y29.0177
G01 X34.0110 Y30.0160
G01 X34.0107 Y30.0214
G01 X34.0099 Y30.0267
G01 X34.0086 Y30.0320
G01 X34.0068 Y30.0370
G01 X34.0045 Y30.0419
G01 X34.0017 Y30.0466
G01 X33.9985 Y30.0509
G01 X33.9949 Y30.0549
G01 X33.9909 Y30.0585
G01 X33.9866 Y30.0617
G01 X33.9819 Y30.0645
G01 X33.9770 Y30.0668
G01 X33.9720 Y30.0686
G01 X33.9667 Y30.0699
G01 X33.9614 Y30.0707
G01 X33.9560 Y30.0710
G01 X32.9450 Y30.0710
G01 X32.9346 Y30.0714
G01 X32.9223 Y30.0710
G01 X31.9240 Y30.0710
G01 X31.9186 Y30.0707
G01 X31.9133 Y30.0699
G01 X31.9080 Y30.0686
G01 X31.9030 Y30.0668
G01 X31.8981 Y30.0645
G01 X31.8934 Y30.0617
G01 X31.8891 Y30.0585
G01 X31.8851 Y30.0549
G01 X31.8815 Y30.0509
G01 X31.8783 Y30.0466
G01 X31.8755 Y30.0419
G01 X31.8732 Y30.0370
G01 X31.8714 Y30.0320
G01 X31.8701 Y30.0267
G01 X31.8693 Y30.0214
G01 X31.8690 Y30.0160
G01 X31.8690 Y29.4763
G01 X31.8656 Y29.4721
G01 X31.8040 Y29.3875
G01 X31.7509 Y29.2973
G01 X31.7069 Y29.2023
G01 X31.6740 Y29.1086
G01 X31.6487 Y29.0070
G01 X31.6336 Y28.9035
G01 X31.6286 Y28.7989
G01 X31.6338 Y28.6944
G01 X31.6343 Y28.6890
G01 X31.6502 Y28.5856
G01 X31.6762 Y28.4841
G01 X31.7119 Y28.3857
G01 X31.7545 Y28.2960
G01 X31.8082 Y28.2062
G01 X31.8690 Y28.1238
G00 Z2.0000
G00 X21.9715 Y28.7400
G01 F25.00
G01 Z-0.0187
G01 F45.00
G01 X21.9665 Y28.8423
G01 X21.9660 Y28.8477
G01 X21.9514 Y28.9464
G01 X21.9503 Y28.9517
G01 X21.9261 Y29.0484
G01 X21.9245 Y29.0536
G01 X21.8909 Y29.1475
G01 X21.8889 Y29.1525
G01 X21.8462 Y29.2427
G01 X21.8110 Y29.3019
G01 X21.8110 Y29.9160
G01 X21.8107 Y29.9214
G01 X21.8099 Y29.9267
G01 X21.8086 Y29.9320
G01 X21.8068 Y29.9370
G01 X21.8045 Y29.9419
G01 X21.8017 Y29.9466
G01 X21.7985 Y29.9509
G01 X21.7949 Y29.9549
G01 X21.7909 Y29.9585
G01 X21.7866 Y29.9617
G01 X21.7819 Y29.9645
G01 X21.7770 Y29.9668
G01 X21.7720 Y29.9686
G01 X21.7667 Y29.9699
G01 X21.7614 Y29.9707
G01 X21.7560 Y29.9710
G01 X20.7517 Y29.9710
G01 X20.7427 Y29.9714
G01 X20.7283 Y29.9710
G01 X19.7240 Y29.9710
G01 X19.7186 Y29.9707
G01 X19.7133 Y29.9699
G01 X19.7080 Y29.9686
G01 X19.7030 Y29.9668
G01 X19.6981 Y29.9645
G01 X19.6934 Y29.9617
G01 X19.6891 Y29.9585
G01 X19.6851 Y29.9549
G01 X19.6815 Y29.9509
G01 X19.6783 Y29.9466
G01 X19.6755 Y29.9419
G01 X19.6732 Y29.9370
G01 X19.6714 Y29.9320
G01 X19.6701 Y29.9267
G01 X19.6693 Y29.9214
G01 X19.6690 Y29.9160
G01 X19.6690 Y28.9117
G01 X19.6686 Y28.8973
G01 X19.6690 Y28.8883
G01 X19.6690 Y27.8840
G01 X19.6693 Y27.8786
G01 X19.6701 Y27.8733
G01 X19.6714 Y27.8680
G01 X19.6732 Y27.8630
G01 X19.6755 Y27.8581
G01 X19.6783 Y27.8534
G01 X19.6815 Y27.8491
G01 X19.6851 Y27.8451
G01 X19.6891 Y27.8415
G01 X19.6934 Y27.8383
G01 X19.6981 Y27.8355
G01 X19.7030 Y27.8332
G01 X19.7080 Y27.8314
G01 X19.7133 Y27.8301
G01 X19.7186 Y27.8293
G01 X19.7240 Y27.8290
G01 X19.8285 Y27.8290
G01 X19.8285 Y24.6600
G01 X19.8335 Y24.5577
G01 X19.8340 Y24.5523
G01 X19.8486 Y24.4536
G01 X19.8497 Y24.4483
G01 X19.8739 Y24.3516
G01 X19.8755 Y24.3464
G01 X19.9091 Y24.2525
G01 X19.9111 Y24.2475
G01 X19.9538 Y24.1573
G01 X19.9563 Y24.1525
G01 X20.0076 Y24.0670
G01 X20.0106 Y24.0625
G01 X20.0701 Y23.9824
G01 X20.0735 Y23.9782
G01 X20.1405 Y23.9043
G01 X20.1443 Y23.9005
G01 X20.2182 Y23.8335
G01 X20.2224 Y23.8301
G01 X20.3025 Y23.7706
G01 X20.3070 Y23.7676
G01 X20.3925 Y23.7163
G01 X20.3973 Y23.7138
G01 X20.4875 Y23.6711
G01 X20.4925 Y23.6691
G01 X20.5864 Y23.6355
G01 X20.5916 Y23.6339
G01 X20.6883 Y23.6097
G01 X20.6936 Y23.6086
G01 X20.7923 Y23.5940
G01 X20.7977 Y23.5935
G01 X20.8973 Y23.5886
G01 X20.9027 Y23.5886
G01 X21.0023 Y23.5935
G01 X21.0077 Y23.5940
G01 X21.1064 Y23.6086
G01 X21.1117 Y23.6097
G01 X21.2084 Y23.6339
G01 X21.2136 Y23.6355
G01 X21.3075 Y23.6691
G01 X21.3125 Y23.6711
G01 X21.4027 Y23.7138
G01 X21.4075 Y23.7163
G01 X21.4930 Y23.7676
G01 X21.4975 Y23.7706
G01 X21.5776 Y23.8301
G01 X21.5818 Y23.8335
G01 X21.6557 Y23.9005
G01 X21.6595 Y23.9043
G01 X21.7265 Y23.9782
G01 X21.7299 Y23.9824
G01 X21.7894 Y24.0625
G01 X21.7924 Y24.0670
G01 X21.8437 Y24.1525
G01 X21.8462 Y24.1573
G01 X21.8889 Y24.2475
G01 X21.8909 Y24.2525
G01 X21.9245 Y24.3464
G01 X21.9261 Y24.3516
G01 X21.9503 Y24.4483
G01 X21.9514 Y24.4536
G01 X21.9660 Y24.5523
G01 X21.9665 Y24.5577
G01 X21.9715 Y24.6600
G01 X21.9715 Y28.7400
G00 Z2.0000
G00 X19.1522 Y31.3552
G01 F25.00
G01 Z-0.0187
G01 F45.00
G01 X19.2459 Y31.3601
G01 X19.3446 Y31.3747
G01 X19.3498 Y31.3758
G01 X19.4466 Y31.4000
G01 X19.4518 Y31.4016
G01 X19.5457 Y31.4352
G01 X19.5507 Y31.4372
G01 X19.6409 Y31.4799
G01 X19.6456 Y31.4824
G01 X19.7312 Y31.5337
G01 X19.7357 Y31.5367
G01 X19.8158 Y31.5961
G01 X19.8200 Y31.5996
G01 X19.8939 Y31.6665
G01 X19.9000 Y31.6729
G01 X29.2797 Y31.6729
G01 X29.2797 Y29.0488
G01 X29.2847 Y28.9465
G01 X29.2852 Y28.9411
G01 X29.2998 Y28.8424
G01 X29.3009 Y28.8371
G01 X29.3251 Y28.7403
G01 X29.3290 Y28.7287
G01 X29.3290 Y27.9840
G01 X29.3293 Y27.9786
G01 X29.3301 Y27.9733
G01 X29.3314 Y27.9680
G01 X29.3332 Y27.9630
G01 X29.3355 Y27.9581
G01 X29.3383 Y27.9534
G01 X29.3415 Y27.9491
G01 X29.3451 Y27.9451
G01 X29.3491 Y27.9415
G01 X29.3534 Y27.9383
G01 X29.3581 Y27.9355
G01 X29.3630 Y27.9332
G01 X29.3680 Y27.9314
G01 X29.3733 Y27.9301
G01 X29.3786 Y27.9293
G01 X29.3840 Y27.9290
G01 X30.3883 Y27.9290
G01 X30.3973 Y27.9286
G01 X30.4117 Y27.9290
G01 X31.4160 Y27.9290
G01 X31.4214 Y27.9293
G01 X31.4267 Y27.9301
G01 X31.4320 Y27.9314
G01 X31.4370 Y27.9332
G01 X31.4419 Y27.9355
G01 X31.4466 Y27.9383
G01 X31.4509 Y27.9415
G01 X31.4549 Y27.9451
G01 X31.4585 Y27.9491
G01 X31.4617 Y27.9534
G01 X31.4645 Y27.9581
G01 X31.4668 Y27.9630
G01 X31.4686 Y27.9680
G01 X31.4699 Y27.9733
G01 X31.4707 Y27.9786
G01 X31.4710 Y27.9840
G01 X31.4710 Y28.9883
G01 X31.4714 Y28.9973
G01 X31.4710 Y29.0117
G01 X31.4710 Y30.0160
G01 X31.4707 Y30.0214
G01 X31.4699 Y30.0267
G01 X31.4686 Y30.0320
G01 X31.4668 Y30.0370
G01 X31.4645 Y30.0419
G01 X31.4617 Y30.0466
G01 X31.4585 Y30.0509
G01 X31.4549 Y30.0549
G01 X31.4509 Y30.0585
G01 X31.4466 Y30.0617
G01 X31.4419 Y30.0645
G01 X31.4370 Y30.0668
G01 X31.4320 Y30.0686
G01 X31.4227 Y30.0705
G01 X31.4227 Y31.6729
G01 X41.6285 Y31.6729
G01 X41.6285 Y29.0000
G01 X41.6290 Y28.9883
G01 X41.6290 Y27.9840
G01 X41.6293 Y27.9786
G01 X41.6301 Y27.9733
G01 X41.6314 Y27.9680
G01 X41.6332 Y27.9630
G01 X41.6355 Y27.9581
G01 X41.6383 Y27.9534
G01 X41.6415 Y27.9491
G01 X41.6451 Y27.9451
G01 X41.6491 Y27.9415
G01 X41.6534 Y27.9383
G01 X41.6581 Y27.9355
G01 X41.6630 Y27.9332
G01 X41.6680 Y27.9314
G01 X41.6733 Y27.9301
G01 X41.6786 Y27.9293
G01 X41.6840 Y27.9290
G01 X42.6883 Y27.9290
G01 X42.6973 Y27.9286
G01 X42.7117 Y27.9290
G01 X43.7160 Y27.9290
G01 X43.7214 Y27.9293
G01 X43.7267 Y27.9301
G01 X43.7320 Y27.9314
G01 X43.7370 Y27.9332
G01 X43.7419 Y27.9355
G01 X43.7466 Y27.9383
G01 X43.7509 Y27.9415
G01 X43.7549 Y27.9451
G01 X43.7585 Y27.9491
G01 X43.7617 Y27.9534
G01 X43.7645 Y27.9581
G01 X43.7668 Y27.9630
G01 X43.7686 Y27.9680
G01 X43.7699 Y27.9733
G01 X43.7707 Y27.9786
G01 X43.7710 Y27.9840
G01 X43.7710 Y28.9883
G01 X43.7715 Y29.0000
G01 X43.7715 Y31.6729
G01 X55.4285 Y31.6729
G01 X55.4285 Y29.0000
G01 X55.4290 Y28.9883
G01 X55.4290 Y27.9840
G01 X55.4293 Y27.9786
G01 X55.4301 Y27.9733
G01 X55.4314 Y27.9680
G01 X55.4332 Y27.9630
G01 X55.4355 Y27.9581
G01 X55.4383 Y27.9534
G01 X55.4415 Y27.9491
G01 X55.4451 Y27.9451
G01 X55.4491 Y27.9415
G01 X55.4534 Y27.9383
G01 X55.4581 Y27.9355
G01 X55.4630 Y27.9332
G01 X55.4680 Y27.9314
G01 X55.4733 Y27.9301
G01 X55.4786 Y27.9293
G01 X55.4840 Y27.9290
G01 X56.4883 Y27.9290
G01 X56.4973 Y27.9286
G01 X56.5117 Y27.9290
G01 X57.5160 Y27.9290
G01 X57.5214 Y27.9293
G01 X57.5267 Y27.9301
G01 X57.5320 Y27.9314
G01 X57.5370 Y27.9332
G01 X57.5419 Y27.9355
G01 X57.5466 Y27.9383
G01 X57.5509 Y27.9415
G01 X57.5549 Y27.9451
G01 X57.5585 Y27.9491
G01 X57.5617 Y27.9534
G01 X57.5645 Y27.9581
G01 X57.5668 Y27.9630
G01 X57.5686 Y27.9680
G01 X57.5699 Y27.9733
G01 X57.5707 Y27.9786
G01 X57.5710 Y27.9840
G01 X57.5710 Y28.9883
G01 X57.5715 Y29.0000
G01 X57.5715 Y32.4865
G01 X57.5665 Y32.5888
G01 X57.5660 Y32.5942
G01 X57.5514 Y32.6929
G01 X57.5503 Y32.6981
G01 X57.5261 Y32.7949
G01 X57.5245 Y32.8001
G01 X57.4909 Y32.8940
G01 X57.4889 Y32.8990
G01 X57.4462 Y32.9892
G01 X57.4437 Y32.9939
G01 X57.3924 Y33.0795
G01 X57.3894 Y33.0840
G01 X57.3299 Y33.1641
G01 X57.3265 Y33.1683
G01 X57.2577 Y33.2441
G01 X56.9977 Y33.5040
G01 X56.9238 Y33.5710
G01 X56.9197 Y33.5744
G01 X56.8395 Y33.6338
G01 X56.8350 Y33.6368
G01 X56.7495 Y33.6881
G01 X56.7447 Y33.6906
G01 X56.6545 Y33.7333
G01 X56.6496 Y33.7354
G01 X56.5556 Y33.7690
G01 X56.5505 Y33.7705
G01 X56.4517 Y33.7952
G01 X55.0288 Y35.2181
G01 X54.9529 Y35.2869
G01 X54.9487 Y35.2903
G01 X54.8686 Y35.3498
G01 X54.8641 Y35.3528
G01 X54.7786 Y35.4040
G01 X54.7738 Y35.4066
G01 X54.6836 Y35.4492
G01 X54.6786 Y35.4513
G01 X54.5847 Y35.4849
G01 X54.5796 Y35.4865
G01 X54.4828 Y35.5107
G01 X54.4775 Y35.5118
G01 X54.3788 Y35.5264
G01 X54.3734 Y35.5269
G01 X54.2711 Y35.5319
G01 X11.1402 Y35.5319
G01 X11.0379 Y35.5269
G01 X11.0325 Y35.5264
G01 X10.9338 Y35.5118
G01 X10.9285 Y35.5107
G01 X10.8318 Y35.4865
G01 X10.8266 Y35.4849
G01 X10.7327 Y35.4513
G01 X10.7277 Y35.4492
G01 X10.6375 Y35.4066
G01 X10.6327 Y35.4040
G01 X10.5472 Y35.3528
G01 X10.5427 Y35.3498
G01 X10.4626 Y35.2903
G01 X10.4584 Y35.2869
G01 X10.3825 Y35.2181
G01 X6.1423 Y30.9779
G01 X6.0735 Y30.9020
G01 X6.0701 Y30.8978
G01 X6.0106 Y30.8177
G01 X6.0076 Y30.8132
G01 X5.9563 Y30.7276
G01 X5.9538 Y30.7229
G01 X5.9111 Y30.6327
G01 X5.9091 Y30.6277
G01 X5.8755 Y30.5338
G01 X5.8739 Y30.5286
G01 X5.8497 Y30.4319
G01 X5.8486 Y30.4266
G01 X5.8340 Y30.3279
G01 X5.8335 Y30.3225
G01 X5.8285 Y30.2202
G01 X5.8285 Y21.4574
G01 X5.7816 Y21.4146
G01 X5.6812 Y21.3038
G01 X5.6778 Y21.2996
G01 X5.5887 Y21.1795
G01 X5.5857 Y21.1750
G01 X5.5088 Y21.0467
G01 X5.5062 Y21.0419
G01 X5.4423 Y20.9067
G01 X5.4402 Y20.9017
G01 X5.3898 Y20.7609
G01 X5.3883 Y20.7558
G01 X5.3519 Y20.6107
G01 X5.3509 Y20.6054
G01 X5.3289 Y20.4574
G01 X5.3284 Y20.4521
G01 X5.3211 Y20.3027
G01 X5.3211 Y20.2973
G01 X5.3284 Y20.1479
G01 X5.3289 Y20.1426
G01 X5.3509 Y19.9946
G01 X5.3519 Y19.9893
G01 X5.3883 Y19.8442
G01 X5.3898 Y19.8391
G01 X5.4402 Y19.6983
G01 X5.4423 Y19.6933
G01 X5.5062 Y19.5581
G01 X5.5088 Y19.5533
G01 X5.5857 Y19.4250
G01 X5.5887 Y19.4205
G01 X5.6778 Y19.3004
G01 X5.6812 Y19.2962
G01 X5.7816 Y19.1854
G01 X5.7854 Y19.1816
G01 X5.8962 Y19.0812
G01 X5.9004 Y19.0778
G01 X6.0205 Y18.9887
G01 X6.0250 Y18.9857
G01 X6.1533 Y18.9088
G01 X6.1581 Y18.9062
G01 X6.2933 Y18.8423
G01 X6.2983 Y18.8402
G01 X6.4391 Y18.7898
G01 X6.4442 Y18.7883
G01 X6.5893 Y18.7519
G01 X6.5946 Y18.7509
G01 X6.7426 Y18.7289
G01 X6.7479 Y18.7284
G01 X6.8973 Y18.7211
G01 X6.9027 Y18.7211
G01 X7.0521 Y18.7284
G01 X7.0574 Y18.7289
G01 X7.2054 Y18.7509
G01 X7.2107 Y18.7519
G01 X7.3558 Y18.7883
G01 X7.3609 Y18.7898
G01 X7.5017 Y18.8402
G01 X7.5067 Y18.8423
G01 X7.6419 Y18.9062
G01 X7.6467 Y18.9088
G01 X7.7750 Y18.9857
G01 X7.7795 Y18.9887
G01 X7.8996 Y19.0778
G01 X7.9038 Y19.0812
G01 X8.0146 Y19.1816
G01 X8.0184 Y19.1854
G01 X8.1188 Y19.2962
G01 X8.1222 Y19.3004
G01 X8.2113 Y19.4205
G01 X8.2143 Y19.4250
G01 X8.2912 Y19.5533
G01 X8.2938 Y19.5581
G01 X8.3577 Y19.6933
G01 X8.3598 Y19.6983
G01 X8.4102 Y19.8391
G01 X8.4117 Y19.8442
G01 X8.4481 Y19.9893
G01 X8.4491 Y19.9946
G01 X8.4711 Y20.1426
G01 X8.4716 Y20.1479
G01 X8.4789 Y20.2973
G01 X8.4761 Y20.3607
G01 X11.0077 Y22.8923
G01 X11.0765 Y22.9682
G01 X11.0799 Y22.9724
G01 X11.1394 Y23.0525
G01 X11.1424 Y23.0570
G01 X11.1937 Y23.1425
G01 X11.1962 Y23.1473
G01 X11.2389 Y23.2375
G01 X11.2409 Y23.2425
G01 X11.2745 Y23.3364
G01 X11.2761 Y23.3416
G01 X11.3003 Y23.4383
G01 X11.3014 Y23.4436
G01 X11.3160 Y23.5423
G01 X11.3165 Y23.5477
G01 X11.3214 Y23.6473
G01 X11.3215 Y29.8062
G01 X13.2994 Y31.7840
G01 X17.0092 Y31.7840
G01 X17.0092 Y29.0166
G01 X17.0141 Y28.9170
G01 X17.0147 Y28.9116
G01 X17.0293 Y28.8129
G01 X17.0304 Y28.8076
G01 X17.0546 Y28.7109
G01 X17.0562 Y28.7057
G01 X17.0898 Y28.6118
G01 X17.1290 Y28.5282
G01 X17.1290 Y27.8840
G01 X17.1293 Y27.8786
G01 X17.1301 Y27.8733
G01 X17.1314 Y27.8680
G01 X17.1332 Y27.8630
G01 X17.1355 Y27.8581
G01 X17.1383 Y27.8534
G01 X17.1415 Y27.8491
G01 X17.1451 Y27.8451
G01 X17.1491 Y27.8415
G01 X17.1534 Y27.8383
G01 X17.1581 Y27.8355
G01 X17.1630 Y27.8332
G01 X17.1680 Y27.8314
G01 X17.1733 Y27.8301
G01 X17.1786 Y27.8293
G01 X17.1840 Y27.8290
G01 X18.1883 Y27.8290
G01 X18.1973 Y27.8286
G01 X18.2117 Y27.8290
G01 X19.2160 Y27.8290
G01 X19.2214 Y27.8293
G01 X19.2267 Y27.8301
G01 X19.2320 Y27.8314
G01 X19.2370 Y27.8332
G01 X19.2419 Y27.8355
G01 X19.2466 Y27.8383
G01 X19.2509 Y27.8415
G01 X19.2549 Y27.8451
G01 X19.2585 Y27.8491
G01 X19.2617 Y27.8534
G01 X19.2645 Y27.8581
G01 X19.2668 Y27.8630
G01 X19.2686 Y27.8680
G01 X19.2699 Y27.8733
G01 X19.2707 Y27.8786
G01 X19.2710 Y27.8840
G01 X19.2710 Y28.8883
G01 X19.2714 Y28.8973
G01 X19.2710 Y28.9117
G01 X19.2710 Y29.9160
G01 X19.2707 Y29.9214
G01 X19.2699 Y29.9267
G01 X19.2686 Y29.9320
G01 X19.2668 Y29.9370
G01 X19.2645 Y29.9419
G01 X19.2617 Y29.9466
G01 X19.2585 Y29.9509
G01 X19.2549 Y29.9549
G01 X19.2509 Y29.9585
G01 X19.2466 Y29.9617
G01 X19.2419 Y29.9645
G01 X19.2370 Y29.9668
G01 X19.2320 Y29.9686
G01 X19.2267 Y29.9699
G01 X19.2214 Y29.9707
G01 X19.1522 Y29.9710
G01 X19.1522 Y31.3552
G00 Z2.0000
G00 X14.8039 Y20.7133
G01 F25.00
G01 Z-0.0187
G01 F45.00
G01 X14.8039 Y19.5517
G01 X14.8088 Y19.4494
G01 X14.8094 Y19.4440
G01 X14.8240 Y19.3453
G01 X14.8250 Y19.3400
G01 X14.8493 Y19.2432
G01 X14.8508 Y19.2381
G01 X14.8845 Y19.1442
G01 X14.8865 Y19.1392
G01 X14.9292 Y19.0490
G01 X14.9317 Y19.0442
G01 X14.9830 Y18.9587
G01 X14.9860 Y18.9542
G01 X15.0454 Y18.8741
G01 X15.0488 Y18.8699
G01 X15.1158 Y18.7960
G01 X15.1197 Y18.7922
G01 X15.1936 Y18.7252
G01 X15.1977 Y18.7217
G01 X15.2779 Y18.6623
G01 X15.2824 Y18.6593
G01 X15.3679 Y18.6080
G01 X15.3727 Y18.6055
G01 X15.4629 Y18.5628
G01 X15.4678 Y18.5608
G01 X15.5618 Y18.5272
G01 X15.5669 Y18.5256
G01 X15.6637 Y18.5014
G01 X15.6690 Y18.5003
G01 X15.7677 Y18.4857
G01 X15.7730 Y18.4851
G01 X15.8754 Y18.4802
G01 X27.1670 Y18.4802
G01 X27.2666 Y18.4851
G01 X27.2720 Y18.4857
G01 X27.3706 Y18.5003
G01 X27.3759 Y18.5014
G01 X27.4727 Y18.5256
G01 X27.4779 Y18.5272
G01 X27.5718 Y18.5608
G01 X27.5768 Y18.5628
G01 X27.6670 Y18.6055
G01 X27.6717 Y18.6080
G01 X27.7573 Y18.6593
G01 X27.7618 Y18.6623
G01 X27.8419 Y18.7217
G01 X27.8461 Y18.7252
G01 X27.9200 Y18.7922
G01 X27.9831 Y18.8614
G01 X39.5750 Y18.8614
G01 X39.6443 Y18.7922
G01 X39.7182 Y18.7252
G01 X39.7224 Y18.7217
G01 X39.8025 Y18.6623
G01 X39.8070 Y18.6593
G01 X39.8925 Y18.6080
G01 X39.8973 Y18.6055
G01 X39.9875 Y18.5628
G01 X39.9925 Y18.5608
G01 X40.0864 Y18.5272
G01 X40.0916 Y18.5256
G01 X40.1883 Y18.5014
G01 X40.1936 Y18.5003
G01 X40.2923 Y18.4857
G01 X40.2977 Y18.4851
G01 X40.3973 Y18.4802
G01 X40.4027 Y18.4802
G01 X40.5023 Y18.4851
G01 X40.5077 Y18.4857
G01 X40.6064 Y18.5003
G01 X40.6117 Y18.5014
G01 X40.7084 Y18.5256
G01 X40.7136 Y18.5272
G01 X40.8075 Y18.5608
G01 X40.8125 Y18.5628
G01 X40.9027 Y18.6055
G01 X40.9075 Y18.6080
G01 X40.9930 Y18.6593
G01 X40.9975 Y18.6623
G01 X41.0776 Y18.7217
G01 X41.0919 Y18.7343
G01 X52.4385 Y18.7343
G01 X52.4925 Y18.7091
G01 X52.5864 Y18.6755
G01 X52.5916 Y18.6739
G01 X52.6883 Y18.6497
G01 X52.6936 Y18.6486
G01 X52.7923 Y18.6340
G01 X52.7977 Y18.6335
G01 X52.8973 Y18.6286
G01 X52.9027 Y18.6286
G01 X53.0023 Y18.6335
G01 X53.0077 Y18.6340
G01 X53.1064 Y18.6486
G01 X53.1117 Y18.6497
G01 X53.2084 Y18.6739
G01 X53.2136 Y18.6755
G01 X53.3075 Y18.7091
G01 X53.3125 Y18.7111
G01 X53.4027 Y18.7538
G01 X53.4075 Y18.7563
G01 X53.4930 Y18.8076
G01 X53.4975 Y18.8106
G01 X53.5776 Y18.8701
G01 X53.5818 Y18.8735
G01 X53.6557 Y18.9405
G01 X53.7188 Y19.0097
G01 X70.5778 Y19.0097
G01 X70.5854 Y19.0016
G01 X70.6962 Y18.9012
G01 X70.7004 Y18.8978
G01 X70.8205 Y18.8087
G01 X70.8250 Y18.8057
G01 X70.9533 Y18.7288
G01 X70.9581 Y18.7262
G01 X71.0933 Y18.6623
G01 X71.0983 Y18.6602
G01 X71.2391 Y18.6098
G01 X71.2442 Y18.6083
G01 X71.3893 Y18.5719
G01 X71.3946 Y18.5709
G01 X71.5426 Y18.5489
G01 X71.5479 Y18.5484
G01 X71.6973 Y18.5411
G01 X71.7027 Y18.5411
G01 X71.8521 Y18.5484
G01 X71.8574 Y18.5489
G01 X72.0054 Y18.5709
G01 X72.0107 Y18.5719
G01 X72.1558 Y18.6083
G01 X72.1609 Y18.6098
G01 X72.3017 Y18.6602
G01 X72.3067 Y18.6623
G01 X72.4419 Y18.7262
G01 X72.4467 Y18.7288
G01 X72.5750 Y18.8057
G01 X72.5795 Y18.8087
G01 X72.6996 Y18.8978
G01 X72.7038 Y18.9012
G01 X72.8146 Y19.0016
G01 X72.8184 Y19.0054
G01 X72.9188 Y19.1162
G01 X72.9222 Y19.1204
G01 X73.0113 Y19.2405
G01 X73.0143 Y19.2450
G01 X73.0912 Y19.3733
G01 X73.0938 Y19.3781
G01 X73.1577 Y19.5133
G01 X73.1598 Y19.5183
G01 X73.2102 Y19.6591
G01 X73.2117 Y19.6642
G01 X73.2481 Y19.8093
G01 X73.2491 Y19.8146
G01 X73.2711 Y19.9626
G01 X73.2716 Y19.9679
G01 X73.2789 Y20.1173
G01 X73.2789 Y20.1227
G01 X73.2716 Y20.2721
G01 X73.2711 Y20.2774
G01 X73.2491 Y20.4254
G01 X73.2481 Y20.4307
G01 X73.2117 Y20.5758
G01 X73.2102 Y20.5809
G01 X73.1598 Y20.7217
G01 X73.1577 Y20.7267
G01 X73.0938 Y20.8619
G01 X73.0912 Y20.8667
G01 X73.0143 Y20.9950
G01 X73.0113 Y20.9995
G01 X72.9222 Y21.1196
G01 X72.9188 Y21.1238
G01 X72.8184 Y21.2346
G01 X72.8146 Y21.2384
G01 X72.7038 Y21.3388
G01 X72.6996 Y21.3422
G01 X72.5795 Y21.4313
G01 X72.5750 Y21.4343
G01 X72.4467 Y21.5112
G01 X72.4419 Y21.5138
G01 X72.3067 Y21.5777
G01 X72.3017 Y21.5798
G01 X72.1609 Y21.6302
G01 X72.1558 Y21.6317
G01 X72.0107 Y21.6681
G01 X72.0054 Y21.6691
G01 X71.8574 Y21.6911
G01 X71.8521 Y21.6916
G01 X71.7027 Y21.6989
G01 X71.6973 Y21.6989
G01 X71.5479 Y21.6916
G01 X71.5426 Y21.6911
G01 X71.3946 Y21.6691
G01 X71.3893 Y21.6681
G01 X71.2442 Y21.6317
G01 X71.2391 Y21.6302
G01 X71.0983 Y21.5798
G01 X71.0933 Y21.5777
G01 X70.9581 Y21.5138
G01 X70.9533 Y21.5112
G01 X70.8250 Y21.4343
G01 X70.8205 Y21.4313
G01 X70.7004 Y21.3422
G01 X70.6962 Y21.3388
G01 X70.5854 Y21.2384
G01 X70.5816 Y21.2346
G01 X70.4812 Y21.1238
G01 X70.4778 Y21.1196
G01 X70.3887 Y20.9995
G01 X70.3857 Y20.9950
G01 X70.3088 Y20.8667
G01 X70.3062 Y20.8619
G01 X70.2423 Y20.7267
G01 X70.2402 Y20.7217
G01 X70.1898 Y20.5809
G01 X70.1883 Y20.5758
G01 X70.1519 Y20.4307
G01 X70.1457 Y20.3903
G01 X53.9715 Y20.3903
G01 X53.9715 Y21.5000
G01 X53.9665 Y21.6023
G01 X53.9660 Y21.6077
G01 X53.9514 Y21.7064
G01 X53.9503 Y21.7117
G01 X53.9261 Y21.8084
G01 X53.9245 Y21.8136
G01 X53.8909 Y21.9075
G01 X53.8889 Y21.9125
G01 X53.8462 Y22.0027
G01 X53.8437 Y22.0075
G01 X53.7924 Y22.0930
G01 X53.7894 Y22.0975
G01 X53.7299 Y22.1776
G01 X53.7265 Y22.1818
G01 X53.6595 Y22.2557
G01 X53.6557 Y22.2595
G01 X53.5818 Y22.3265
G01 X53.5776 Y22.3299
G01 X53.4975 Y22.3894
G01 X53.4930 Y22.3924
G01 X53.4075 Y22.4437
G01 X53.4027 Y22.4462
G01 X53.3125 Y22.4889
G01 X53.3075 Y22.4909
G01 X53.2136 Y22.5245
G01 X53.2084 Y22.5261
G01 X53.1117 Y22.5503
G01 X53.1064 Y22.5514
G01 X53.0077 Y22.5660
G01 X53.0023 Y22.5665
G01 X52.9027 Y22.5714
G01 X52.8973 Y22.5714
G01 X52.7977 Y22.5665
G01 X52.7923 Y22.5660
G01 X52.6936 Y22.5514
G01 X52.6883 Y22.5503
G01 X52.5916 Y22.5261
G01 X52.5864 Y22.5245
G01 X52.4925 Y22.4909
G01 X52.4875 Y22.4889
G01 X52.3973 Y22.4462
G01 X52.3925 Y22.4437
G01 X52.3070 Y22.3924
G01 X52.3025 Y22.3894
G01 X52.2224 Y22.3299
G01 X52.2182 Y22.3265
G01 X52.1443 Y22.2595
G01 X52.1405 Y22.2557
G01 X52.0735 Y22.1818
G01 X52.0701 Y22.1776
G01 X52.0106 Y22.0975
G01 X52.0076 Y22.0930
G01 X51.9563 Y22.0075
G01 X51.9538 Y22.0027
G01 X51.9111 Y21.9125
G01 X51.9091 Y21.9075
G01 X51.8755 Y21.8136
G01 X51.8739 Y21.8084
G01 X51.8497 Y21.7117
G01 X51.8486 Y21.7064
G01 X51.8340 Y21.6077
G01 X51.8335 Y21.6023
G01 X51.8285 Y21.5000
G01 X51.8285 Y20.3691
G01 X41.3715 Y20.3691
G01 X41.3715 Y21.4000
G01 X41.3665 Y21.5023
G01 X41.3660 Y21.5077
G01 X41.3514 Y21.6064
G01 X41.3503 Y21.6117
G01 X41.3261 Y21.7084
G01 X41.3245 Y21.7136
G01 X41.2909 Y21.8075
G01 X41.2889 Y21.8125
G01 X41.2462 Y21.9027
G01 X41.2437 Y21.9075
G01 X41.1924 Y21.9930
G01 X41.1894 Y21.9975
G01 X41.1299 Y22.0776
G01 X41.1265 Y22.0818
G01 X41.0595 Y22.1557
G01 X41.0557 Y22.1595
G01 X40.9818 Y22.2265
G01 X40.9776 Y22.2299
G01 X40.8975 Y22.2894
G01 X40.8930 Y22.2924
G01 X40.8075 Y22.3437
G01 X40.8027 Y22.3462
G01 X40.7125 Y22.3889
G01 X40.7075 Y22.3909
G01 X40.6136 Y22.4245
G01 X40.6084 Y22.4261
G01 X40.5117 Y22.4503
G01 X40.5064 Y22.4514
G01 X40.4077 Y22.4660
G01 X40.4023 Y22.4665
G01 X40.3027 Y22.4714
G01 X40.2973 Y22.4714
G01 X40.1977 Y22.4665
G01 X40.1923 Y22.4660
G01 X40.0936 Y22.4514
G01 X40.0883 Y22.4503
G01 X39.9916 Y22.4261
G01 X39.9864 Y22.4245
G01 X39.8925 Y22.3909
G01 X39.8875 Y22.3889
G01 X39.7973 Y22.3462
G01 X39.7925 Y22.3437
G01 X39.7070 Y22.2924
G01 X39.7025 Y22.2894
G01 X39.6224 Y22.2299
G01 X39.6182 Y22.2265
G01 X39.5443 Y22.1595
G01 X39.5405 Y22.1557
G01 X39.4735 Y22.0818
G01 X39.4701 Y22.0776
G01 X39.4106 Y21.9975
G01 X39.4076 Y21.9930
G01 X39.3563 Y21.9075
G01 X39.3538 Y21.9027
G01 X39.3111 Y21.8125
G01 X39.3091 Y21.8075
G01 X39.2755 Y21.7136
G01 X39.2739 Y21.7084
G01 X39.2497 Y21.6117
G01 X39.2486 Y21.6064
G01 X39.2340 Y21.5077
G01 X39.2335 Y21.5023
G01 X39.2285 Y21.4000
G01 X39.2285 Y20.2420
G01 X28.3715 Y20.2420
G01 X28.3715 Y21.0000
G01 X28.3665 Y21.1023
G01 X28.3660 Y21.1077
G01 X28.3514 Y21.2064
G01 X28.3503 Y21.2117
G01 X28.3261 Y21.3084
G01 X28.3245 Y21.3136
G01 X28.2909 Y21.4075
G01 X28.2889 Y21.4125
G01 X28.2462 Y21.5027
G01 X28.2437 Y21.5075
G01 X28.1924 Y21.5930
G01 X28.1894 Y21.5975
G01 X28.1299 Y21.6776
G01 X28.1265 Y21.6818
G01 X28.0595 Y21.7557
G01 X28.0557 Y21.7595
G01 X27.9818 Y21.8265
G01 X27.9776 Y21.8299
G01 X27.8975 Y21.8894
G01 X27.8930 Y21.8924
G01 X27.8075 Y21.9437
G01 X27.8027 Y21.9462
G01 X27.7125 Y21.9889
G01 X27.7075 Y21.9909
G01 X27.6136 Y22.0245
G01 X27.6084 Y22.0261
G01 X27.5117 Y22.0503
G01 X27.5064 Y22.0514
G01 X27.4077 Y22.0660
G01 X27.4023 Y22.0665
G01 X27.3027 Y22.0714
G01 X27.2973 Y22.0714
G01 X27.1977 Y22.0665
G01 X27.1923 Y22.0660
G01 X27.0936 Y22.0514
G01 X27.0883 Y22.0503
G01 X26.9916 Y22.0261
G01 X26.9864 Y22.0245
G01 X26.8925 Y21.9909
G01 X26.8875 Y21.9889
G01 X26.7973 Y21.9462
G01 X26.7925 Y21.9437
G01 X26.7070 Y21.8924
G01 X26.7025 Y21.8894
G01 X26.6224 Y21.8299
G01 X26.6182 Y21.8265
G01 X26.5443 Y21.7595
G01 X26.5405 Y21.7557
G01 X26.4735 Y21.6818
G01 X26.4701 Y21.6776
G01 X26.4106 Y21.5975
G01 X26.4076 Y21.5930
G01 X26.3563 Y21.5075
G01 X26.3538 Y21.5027
G01 X26.3111 Y21.4125
G01 X26.3091 Y21.4075
G01 X26.2755 Y21.3136
G01 X26.2739 Y21.3084
G01 X26.2497 Y21.2117
G01 X26.2486 Y21.2064
G01 X26.2340 Y21.1077
G01 X26.2335 Y21.1023
G01 X26.2286 Y21.0027
G01 X26.2285 Y20.6232
G01 X16.9469 Y20.6232
G01 X16.9468 Y21.1273
G01 X16.9419 Y21.2270
G01 X16.9414 Y21.2323
G01 X16.9268 Y21.3310
G01 X16.9257 Y21.3363
G01 X16.9015 Y21.4331
G01 X16.8999 Y21.4382
G01 X16.8663 Y21.5322
G01 X16.8642 Y21.5371
G01 X16.8216 Y21.6273
G01 X16.8190 Y21.6321
G01 X16.7677 Y21.7176
G01 X16.7647 Y21.7221
G01 X16.7053 Y21.8023
G01 X16.7019 Y21.8064
G01 X16.6349 Y21.8803
G01 X16.4577 Y22.0577
G01 X16.3818 Y22.1265
G01 X16.3776 Y22.1299
G01 X16.2975 Y22.1894
G01 X16.2930 Y22.1924
G01 X16.2075 Y22.2437
G01 X16.2027 Y22.2462
G01 X16.1125 Y22.2889
G01 X16.1075 Y22.2909
G01 X16.0136 Y22.3245
G01 X16.0084 Y22.3261
G01 X15.9117 Y22.3503
G01 X15.9064 Y22.3514
G01 X15.8077 Y22.3660
G01 X15.8023 Y22.3665
G01 X15.7027 Y22.3714
G01 X15.6973 Y22.3714
G01 X15.5977 Y22.3665
G01 X15.5923 Y22.3660
G01 X15.4936 Y22.3514
G01 X15.4883 Y22.3503
G01 X15.3916 Y22.3261
G01 X15.3864 Y22.3245
G01 X15.2925 Y22.2909
G01 X15.2875 Y22.2889
G01 X15.1973 Y22.2462
G01 X15.1925 Y22.2437
G01 X15.1070 Y22.1924
G01 X15.1025 Y22.1894
G01 X15.0224 Y22.1299
G01 X15.0182 Y22.1265
G01 X14.9443 Y22.0595
G01 X14.9405 Y22.0557
G01 X14.8735 Y21.9818
G01 X14.8701 Y21.9776
G01 X14.8106 Y21.8975
G01 X14.8076 Y21.8930
G01 X14.7563 Y21.8075
G01 X14.7538 Y21.8027
G01 X14.7111 Y21.7125
G01 X14.7091 Y21.7075
G01 X14.6755 Y21.6136
G01 X14.6739 Y21.6084
G01 X14.6497 Y21.5117
G01 X14.6486 Y21.5064
G01 X14.6340 Y21.4077
G01 X14.6335 Y21.4023
G01 X14.6286 Y21.3027
G01 X14.6286 Y21.2973
G01 X14.6335 Y21.1977
G01 X14.6340 Y21.1923
G01 X14.6486 Y21.0936
G01 X14.6497 Y21.0883
G01 X14.6739 Y20.9916
G01 X14.6755 Y20.9864
G01 X14.7091 Y20.8925
G01 X14.7111 Y20.8875
G01 X14.7538 Y20.7973
G01 X14.7563 Y20.7925
G01 X14.8039 Y20.7133
G00 Z2.0000
G00 X52.1290 Y5.9569
G01 F25.00
G01 Z-0.0187
G01 F45.00
G01 X52.1290 Y5.8840
G01 X52.1293 Y5.8786
G01 X52.1301 Y5.8733
G01 X52.1314 Y5.8680
G01 X52.1332 Y5.8630
G01 X52.1355 Y5.8581
G01 X52.1383 Y5.8534
G01 X52.1415 Y5.8491
G01 X52.1451 Y5.8451
G01 X52.1491 Y5.8415
G01 X52.1534 Y5.8383
G01 X52.1581 Y5.8355
G01 X52.1630 Y5.8332
G01 X52.1680 Y5.8314
G01 X52.1733 Y5.8301
G01 X52.1786 Y5.8293
G01 X52.2557 Y5.8290
G01 X52.2994 Y5.7854
G01 X52.3735 Y5.7182
G01 X52.3777 Y5.7148
G01 X52.4580 Y5.6553
G01 X52.4625 Y5.6522
G01 X52.5483 Y5.6009
G01 X52.5531 Y5.5983
G01 X52.6436 Y5.5557
G01 X52.6486 Y5.5536
G01 X52.7428 Y5.5200
G01 X52.7480 Y5.5184
G01 X52.8450 Y5.4943
G01 X52.8503 Y5.4932
G01 X52.9493 Y5.4787
G01 X52.9547 Y5.4782
G01 X53.0546 Y5.4735
G01 X53.0600 Y5.4735
G01 X53.1599 Y5.4786
G01 X53.1653 Y5.4792
G01 X53.2642 Y5.4941
G01 X53.2695 Y5.4952
G01 X53.3664 Y5.5197
G01 X53.3716 Y5.5213
G01 X53.4657 Y5.5553
G01 X53.4707 Y5.5574
G01 X53.5609 Y5.6004
G01 X53.5657 Y5.6030
G01 X53.6513 Y5.6547
G01 X53.6558 Y5.6577
G01 X53.7359 Y5.7176
G01 X53.7401 Y5.7211
G01 X53.8139 Y5.7885
G01 X53.8506 Y5.8290
G01 X54.2160 Y5.8290
G01 X54.2214 Y5.8293
G01 X54.2267 Y5.8301
G01 X54.2320 Y5.8314
G01 X54.2370 Y5.8332
G01 X54.2419 Y5.8355
G01 X54.2466 Y5.8383
G01 X54.2509 Y5.8415
G01 X54.2549 Y5.8451
G01 X54.2585 Y5.8491
G01 X54.2617 Y5.8534
G01 X54.2645 Y5.8581
G01 X54.2668 Y5.8630
G01 X54.2686 Y5.8680
G01 X54.2699 Y5.8733
G01 X54.2707 Y5.8786
G01 X54.2710 Y5.8840
G01 X54.2710 Y6.8928
G01 X54.2714 Y6.9028
G01 X54.2710 Y6.9159
G01 X54.2710 Y7.9160
G01 X54.2707 Y7.9214
G01 X54.2699 Y7.9267
G01 X54.2686 Y7.9320
G01 X54.2668 Y7.9370
G01 X54.2645 Y7.9419
G01 X54.2617 Y7.9466
G01 X54.2585 Y7.9509
G01 X54.2549 Y7.9549
G01 X54.2509 Y7.9585
G01 X54.2466 Y7.9617
G01 X54.2419 Y7.9645
G01 X54.2370 Y7.9668
G01 X54.2320 Y7.9686
G01 X54.2267 Y7.9699
G01 X54.2214 Y7.9707
G01 X54.2160 Y7.9710
G01 X53.9715 Y7.9710
G01 X53.9715 Y11.3400
G01 X53.9665 Y11.4423
G01 X53.9660 Y11.4477
G01 X53.9514 Y11.5464
G01 X53.9503 Y11.5517
G01 X53.9261 Y11.6484
G01 X53.9245 Y11.6536
G01 X53.8909 Y11.7475
G01 X53.8889 Y11.7525
G01 X53.8462 Y11.8427
G01 X53.8437 Y11.8475
G01 X53.7924 Y11.9330
G01 X53.7894 Y11.9375
G01 X53.7299 Y12.0176
G01 X53.7265 Y12.0218
G01 X53.6595 Y12.0957
G01 X53.6557 Y12.0995
G01 X53.5818 Y12.1665
G01 X53.5776 Y12.1699
G01 X53.4975 Y12.2294
G01 X53.4930 Y12.2324
G01 X53.4075 Y12.2837
G01 X53.4027 Y12.2862
G01 X53.3125 Y12.3289
G01 X53.3075 Y12.3309
G01 X53.2136 Y12.3645
G01 X53.2084 Y12.3661
G01 X53.1117 Y12.3903
G01 X53.1064 Y12.3914
G01 X53.0077 Y12.4060
G01 X53.0023 Y12.4065
G01 X52.9027 Y12.4114
G01 X52.8973 Y12.4114
G01 X52.7977 Y12.4065
G01 X52.7923 Y12.4060
G01 X52.6936 Y12.3914
G01 X52.6883 Y12.3903
G01 X52.5916 Y12.3661
G01 X52.5864 Y12.3645
G01 X52.4925 Y12.3309
G01 X52.4875 Y12.3289
G01 X52.3973 Y12.2862
G01 X52.3925 Y12.2837
G01 X52.3070 Y12.2324
G01 X52.3025 Y12.2294
G01 X52.2224 Y12.1699
G01 X52.2182 Y12.1665
G01 X52.1443 Y12.0995
G01 X52.1405 Y12.0957
G01 X52.0735 Y12.0218
G01 X52.0701 Y12.0176
G01 X52.0106 Y11.9375
G01 X52.0076 Y11.9330
G01 X51.9563 Y11.8475
G01 X51.9538 Y11.8427
G01 X51.9111 Y11.7525
G01 X51.9091 Y11.7475
G01 X51.8755 Y11.6536
G01 X51.8739 Y11.6484
G01 X51.8497 Y11.5517
G01 X51.8486 Y11.5464
G01 X51.8340 Y11.4477
G01 X51.8335 Y11.4423
G01 X51.8285 Y11.3400
G01 X51.8285 Y6.7000
G01 X51.8335 Y6.5977
G01 X51.8340 Y6.5923
G01 X51.8486 Y6.4936
G01 X51.8497 Y6.4883
G01 X51.8739 Y6.3916
G01 X51.8755 Y6.3864
G01 X51.9091 Y6.2925
G01 X51.9111 Y6.2875
G01 X51.9538 Y6.1973
G01 X51.9563 Y6.1925
G01 X52.0076 Y6.1070
G01 X52.0106 Y6.1025
G01 X52.0701 Y6.0224
G01 X52.1290 Y5.9569
G00 Z2.0000
G00 X56.8715 Y6.8400
G01 F25.00
G01 Z-0.0187
G01 F45.00
G01 X56.8665 Y6.9423
G01 X56.8660 Y6.9477
G01 X56.8514 Y7.0464
G01 X56.8503 Y7.0517
G01 X56.8261 Y7.1484
G01 X56.8110 Y7.1914
G01 X56.8110 Y7.9160
G01 X56.8107 Y7.9214
G01 X56.8099 Y7.9267
G01 X56.8086 Y7.9320
G01 X56.8068 Y7.9370
G01 X56.8045 Y7.9419
G01 X56.8017 Y7.9466
G01 X56.7985 Y7.9509
G01 X56.7949 Y7.9549
G01 X56.7909 Y7.9585
G01 X56.7866 Y7.9617
G01 X56.7819 Y7.9645
G01 X56.7770 Y7.9668
G01 X56.7720 Y7.9686
G01 X56.7667 Y7.9699
G01 X56.7614 Y7.9707
G01 X56.7560 Y7.9710
G01 X55.7517 Y7.9710
G01 X55.7427 Y7.9714
G01 X55.7283 Y7.9710
G01 X54.7240 Y7.9710
G01 X54.7186 Y7.9707
G01 X54.7133 Y7.9699
G01 X54.7080 Y7.9686
G01 X54.7030 Y7.9668
G01 X54.6981 Y7.9645
G01 X54.6934 Y7.9617
G01 X54.6891 Y7.9585
G01 X54.6851 Y7.9549
G01 X54.6815 Y7.9509
G01 X54.6783 Y7.9466
G01 X54.6755 Y7.9419
G01 X54.6732 Y7.9370
G01 X54.6714 Y7.9320
G01 X54.6701 Y7.9267
G01 X54.6693 Y7.9214
G01 X54.6690 Y7.9160
G01 X54.6690 Y6.9117
G01 X54.6686 Y6.9027
G01 X54.6690 Y6.8883
G01 X54.6690 Y5.8840
G01 X54.6693 Y5.8786
G01 X54.6701 Y5.8733
G01 X54.6714 Y5.8680
G01 X54.6732 Y5.8630
G01 X54.6755 Y5.8581
G01 X54.6783 Y5.8534
G01 X54.6815 Y5.8491
G01 X54.6851 Y5.8451
G01 X54.6891 Y5.8415
G01 X54.6934 Y5.8383
G01 X54.6981 Y5.8355
G01 X54.7030 Y5.8332
G01 X54.7080 Y5.8314
G01 X54.7133 Y5.8301
G01 X54.7186 Y5.8293
G01 X54.7285 Y5.8290
G01 X54.7285 Y4.9715
G01 X44.0115 Y4.9715
G01 X44.0115 Y7.0000
G01 X44.0110 Y7.0117
G01 X44.0110 Y8.0160
G01 X44.0107 Y8.0214
G01 X44.0099 Y8.0267
G01 X44.0086 Y8.0320
G01 X44.0068 Y8.0370
G01 X44.0045 Y8.0419
G01 X44.0017 Y8.0466
G01 X43.9985 Y8.0509
G01 X43.9949 Y8.0549
G01 X43.9909 Y8.0585
G01 X43.9866 Y8.0617
G01 X43.9819 Y8.0645
G01 X43.9770 Y8.0668
G01 X43.9720 Y8.0686
G01 X43.9667 Y8.0699
G01 X43.9614 Y8.0707
G01 X43.9560 Y8.0710
G01 X42.9517 Y8.0710
G01 X42.9373 Y8.0714
G01 X42.9283 Y8.0710
G01 X41.9240 Y8.0710
G01 X41.9186 Y8.0707
G01 X41.9133 Y8.0699
G01 X41.9080 Y8.0686
G01 X41.9030 Y8.0668
G01 X41.8981 Y8.0645
G01 X41.8934 Y8.0617
G01 X41.8891 Y8.0585
G01 X41.8851 Y8.0549
G01 X41.8815 Y8.0509
G01 X41.8783 Y8.0466
G01 X41.8755 Y8.0419
G01 X41.8732 Y8.0370
G01 X41.8714 Y8.0320
G01 X41.8701 Y8.0267
G01 X41.8693 Y8.0214
G01 X41.8690 Y8.0160
G01 X41.8690 Y7.0117
G01 X41.8685 Y7.0000
G01 X41.8685 Y4.9715
G01 X30.9315 Y4.9715
G01 X30.9315 Y7.0000
G01 X30.9310 Y7.0117
G01 X30.9310 Y8.0160
G01 X30.9307 Y8.0214
G01 X30.9299 Y8.0267
G01 X30.9286 Y8.0320
G01 X30.9268 Y8.0370
G01 X30.9245 Y8.0419
G01 X30.9217 Y8.0466
G01 X30.9185 Y8.0509
G01 X30.9149 Y8.0549
G01 X30.9109 Y8.0585
G01 X30.9066 Y8.0617
G01 X30.9019 Y8.0645
G01 X30.8970 Y8.0668
G01 X30.8920 Y8.0686
G01 X30.8867 Y8.0699
G01 X30.8814 Y8.0707
G01 X30.8760 Y8.0710
G01 X29.8717 Y8.0710
G01 X29.8573 Y8.0714
G01 X29.8483 Y8.0710
G01 X28.8440 Y8.0710
G01 X28.8386 Y8.0707
G01 X28.8333 Y8.0699
G01 X28.8280 Y8.0686
G01 X28.8230 Y8.0668
G01 X28.8181 Y8.0645
G01 X28.8134 Y8.0617
G01 X28.8091 Y8.0585
G01 X28.8051 Y8.0549
G01 X28.8015 Y8.0509
G01 X28.7983 Y8.0466
G01 X28.7955 Y8.0419
G01 X28.7932 Y8.0370
G01 X28.7914 Y8.0320
G01 X28.7901 Y8.0267
G01 X28.7893 Y8.0214
G01 X28.7890 Y8.0160
G01 X28.7890 Y7.0117
G01 X28.7885 Y7.0000
G01 X28.7885 Y4.9715
G01 X19.3715 Y4.9715
G01 X19.3715 Y6.9000
G01 X19.3710 Y6.9117
G01 X19.3710 Y7.9160
G01 X19.3707 Y7.9214
G01 X19.3699 Y7.9267
G01 X19.3686 Y7.9320
G01 X19.3668 Y7.9370
G01 X19.3645 Y7.9419
G01 X19.3617 Y7.9466
G01 X19.3585 Y7.9509
G01 X19.3549 Y7.9549
G01 X19.3509 Y7.9585
G01 X19.3466 Y7.9617
G01 X19.3419 Y7.9645
G01 X19.3370 Y7.9668
G01 X19.3320 Y7.9686
G01 X19.3267 Y7.9699
G01 X19.3214 Y7.9707
G01 X19.3160 Y7.9710
G01 X18.3117 Y7.9710
G01 X18.3027 Y7.9714
G01 X18.2883 Y7.9710
G01 X17.2840 Y7.9710
G01 X17.2786 Y7.9707
G01 X17.2733 Y7.9699
G01 X17.2680 Y7.9686
G01 X17.2630 Y7.9668
G01 X17.2581 Y7.9645
G01 X17.2534 Y7.9617
G01 X17.2491 Y7.9585
G01 X17.2451 Y7.9549
G01 X17.2415 Y7.9509
G01 X17.2383 Y7.9466
G01 X17.2355 Y7.9419
G01 X17.2332 Y7.9370
G01 X17.2314 Y7.9320
G01 X17.2301 Y7.9267
G01 X17.2293 Y7.9214
G01 X17.2290 Y7.9160
G01 X17.2290 Y6.9117
G01 X17.2285 Y6.9000
G01 X17.2285 Y4.9715
G01 X13.6438 Y4.9715
G01 X13.2215 Y5.3938
G01 X13.2214 Y9.9727
G01 X13.2165 Y10.0723
G01 X13.2160 Y10.0777
G01 X13.2014 Y10.1764
G01 X13.2003 Y10.1817
G01 X13.1761 Y10.2784
G01 X13.1745 Y10.2836
G01 X13.1409 Y10.3775
G01 X13.1389 Y10.3825
G01 X13.0962 Y10.4727
G01 X13.0937 Y10.4775
G01 X13.0424 Y10.5630
G01 X13.0394 Y10.5675
G01 X12.9799 Y10.6476
G01 X12.9765 Y10.6518
G01 X12.9077 Y10.7277
G01 X8.4761 Y15.1593
G01 X8.4789 Y15.2227
G01 X8.4716 Y15.3721
G01 X8.4711 Y15.3774
G01 X8.4491 Y15.5254
G01 X8.4481 Y15.5307
G01 X8.4117 Y15.6758
G01 X8.4102 Y15.6809
G01 X8.3598 Y15.8217
G01 X8.3577 Y15.8267
G01 X8.2938 Y15.9619
G01 X8.2912 Y15.9667
G01 X8.2143 Y16.0950
G01 X8.2113 Y16.0995
G01 X8.1222 Y16.2196
G01 X8.1188 Y16.2238
G01 X8.0184 Y16.3346
G01 X8.0146 Y16.3384
G01 X7.9038 Y16.4388
G01 X7.8996 Y16.4422
G01 X7.7795 Y16.5313
G01 X7.7750 Y16.5343
G01 X7.6467 Y16.6112
G01 X7.6419 Y16.6138
G01 X7.5067 Y16.6777
G01 X7.5017 Y16.6798
G01 X7.3609 Y16.7302
G01 X7.3558 Y16.7317
G01 X7.2107 Y16.7681
G01 X7.2054 Y16.7691
G01 X7.0574 Y16.7911
G01 X7.0521 Y16.7916
G01 X6.9027 Y16.7989
G01 X6.8973 Y16.7989
G01 X6.7479 Y16.7916
G01 X6.7426 Y16.7911
G01 X6.5946 Y16.7691
G01 X6.5893 Y16.7681
G01 X6.4442 Y16.7317
G01 X6.4391 Y16.7302
G01 X6.2983 Y16.6798
G01 X6.2933 Y16.6777
G01 X6.1581 Y16.6138
G01 X6.1533 Y16.6112
G01 X6.0250 Y16.5343
G01 X6.0205 Y16.5313
G01 X5.9004 Y16.4422
G01 X5.8962 Y16.4388
G01 X5.7854 Y16.3384
G01 X5.7816 Y16.3346
G01 X5.6812 Y16.2238
G01 X5.6778 Y16.2196
G01 X5.5887 Y16.0995
G01 X5.5857 Y16.0950
G01 X5.5088 Y15.9667
G01 X5.5062 Y15.9619
G01 X5.4423 Y15.8267
G01 X5.4402 Y15.8217
G01 X5.3898 Y15.6809
G01 X5.3883 Y15.6758
G01 X5.3519 Y15.5307
G01 X5.3509 Y15.5254
G01 X5.3289 Y15.3774
G01 X5.3284 Y15.3721
G01 X5.3211 Y15.2227
G01 X5.3211 Y15.2173
G01 X5.3284 Y15.0679
G01 X5.3289 Y15.0626
G01 X5.3509 Y14.9146
G01 X5.3519 Y14.9093
G01 X5.3883 Y14.7642
G01 X5.3898 Y14.7591
G01 X5.4402 Y14.6183
G01 X5.4423 Y14.6133
G01 X5.5062 Y14.4781
G01 X5.5088 Y14.4733
G01 X5.5857 Y14.3450
G01 X5.5887 Y14.3405
G01 X5.6778 Y14.2204
G01 X5.6812 Y14.2162
G01 X5.7816 Y14.1054
G01 X5.8285 Y14.0626
G01 X5.8285 Y8.4000
G01 X5.8335 Y8.2977
G01 X5.8340 Y8.2923
G01 X5.8486 Y8.1936
G01 X5.8497 Y8.1883
G01 X5.8739 Y8.0916
G01 X5.8755 Y8.0864
G01 X5.9091 Y7.9925
G01 X5.9111 Y7.9875
G01 X5.9538 Y7.8973
G01 X5.9563 Y7.8925
G01 X6.0076 Y7.8070
G01 X6.0106 Y7.8025
G01 X6.0701 Y7.7224
G01 X6.0735 Y7.7182
G01 X6.1423 Y7.6423
G01 X12.4148 Y1.3699
G01 X12.4907 Y1.3010
G01 X12.4948 Y1.2976
G01 X12.5750 Y1.2382
G01 X12.5794 Y1.2352
G01 X12.6650 Y1.1839
G01 X12.6698 Y1.1813
G01 X12.7599 Y1.1387
G01 X12.7649 Y1.1366
G01 X12.8589 Y1.1030
G01 X12.8640 Y1.1015
G01 X12.9608 Y1.0772
G01 X12.9661 Y1.0762
G01 X13.0648 Y1.0615
G01 X13.0701 Y1.0610
G01 X13.1725 Y1.0560
G01 X55.7275 Y1.0560
G01 X55.8299 Y1.0610
G01 X55.8352 Y1.0615
G01 X55.9339 Y1.0762
G01 X55.9392 Y1.0772
G01 X56.0360 Y1.1015
G01 X56.0411 Y1.1030
G01 X56.1351 Y1.1366
G01 X56.1401 Y1.1387
G01 X56.2302 Y1.1813
G01 X56.2350 Y1.1839
G01 X56.3206 Y1.2352
G01 X56.3250 Y1.2382
G01 X56.4052 Y1.2976
G01 X56.4093 Y1.3010
G01 X56.4833 Y1.3680
G01 X56.5595 Y1.4443
G01 X56.6265 Y1.5182
G01 X56.6299 Y1.5224
G01 X56.6894 Y1.6025
G01 X56.6924 Y1.6070
G01 X56.7437 Y1.6925
G01 X56.7462 Y1.6973
G01 X56.7889 Y1.7875
G01 X56.7909 Y1.7925
G01 X56.8245 Y1.8864
G01 X56.8261 Y1.8916
G01 X56.8503 Y1.9883
G01 X56.8514 Y1.9936
G01 X56.8660 Y2.0923
G01 X56.8665 Y2.0977
G01 X56.8715 Y2.2000
G01 X56.8715 Y6.8400
G00 Z2.0000
G00 X60.0715 Y27.9313
G01 F25.00
G01 Z-0.0187
G01 F45.00
G01 X60.0770 Y27.9332
G01 X60.0819 Y27.9355
G01 X60.0866 Y27.9383
G01 X60.0909 Y27.9415
G01 X60.0949 Y27.9451
G01 X60.0985 Y27.9491
G01 X60.1017 Y27.9534
G01 X60.1045 Y27.9581
G01 X60.1068 Y27.9630
G01 X60.1086 Y27.9680
G01 X60.1099 Y27.9733
G01 X60.1107 Y27.9786
G01 X60.1110 Y27.9840
G01 X60.1110 Y30.0160
G01 X60.1107 Y30.0214
G01 X60.1099 Y30.0267
G01 X60.1086 Y30.0320
G01 X60.1068 Y30.0370
G01 X60.1045 Y30.0419
G01 X60.1017 Y30.0466
G01 X60.0985 Y30.0509
G01 X60.0949 Y30.0549
G01 X60.0909 Y30.0585
G01 X60.0866 Y30.0617
G01 X60.0819 Y30.0645
G01 X60.0770 Y30.0668
G01 X60.0720 Y30.0686
G01 X60.0667 Y30.0699
G01 X60.0614 Y30.0707
G01 X60.0560 Y30.0710
G01 X58.0240 Y30.0710
G01 X58.0186 Y30.0707
G01 X58.0133 Y30.0699
G01 X58.0080 Y30.0686
G01 X58.0030 Y30.0668
G01 X57.9981 Y30.0645
G01 X57.9934 Y30.0617
G01 X57.9891 Y30.0585
G01 X57.9851 Y30.0549
G01 X57.9815 Y30.0509
G01 X57.9783 Y30.0466
G01 X57.9755 Y30.0419
G01 X57.9732 Y30.0370
G01 X57.9714 Y30.0320
G01 X57.9701 Y30.0267
G01 X57.9693 Y30.0214
G01 X57.9690 Y30.0160
G01 X57.9690 Y29.0340
G01 X57.9293 Y28.0262
G01 X57.9285 Y27.9840
G01 X57.9285 Y24.7600
G01 X57.9335 Y24.6577
G01 X57.9340 Y24.6523
G01 X57.9486 Y24.5536
G01 X57.9497 Y24.5483
G01 X57.9739 Y24.4516
G01 X57.9755 Y24.4464
G01 X58.0091 Y24.3525
G01 X58.0111 Y24.3475
G01 X58.0538 Y24.2573
G01 X58.0563 Y24.2525
G01 X58.1076 Y24.1670
G01 X58.1106 Y24.1625
G01 X58.1701 Y24.0824
G01 X58.1735 Y24.0782
G01 X58.2405 Y24.0043
G01 X58.2443 Y24.0005
G01 X58.3182 Y23.9335
G01 X58.3224 Y23.9301
G01 X58.4025 Y23.8706
G01 X58.4070 Y23.8676
G01 X58.4925 Y23.8163
G01 X58.4973 Y23.8138
G01 X58.5875 Y23.7711
G01 X58.5925 Y23.7691
G01 X58.6864 Y23.7355
G01 X58.6916 Y23.7339
G01 X58.7883 Y23.7097
G01 X58.7936 Y23.7086
G01 X58.8923 Y23.6940
G01 X58.8977 Y23.6935
G01 X58.9973 Y23.6886
G01 X59.0027 Y23.6886
G01 X59.1023 Y23.6935
G01 X59.1077 Y23.6940
G01 X59.2064 Y23.7086
G01 X59.2117 Y23.7097
G01 X59.3084 Y23.7339
G01 X59.3136 Y23.7355
G01 X59.4075 Y23.7691
G01 X59.4125 Y23.7711
G01 X59.5027 Y23.8138
G01 X59.5075 Y23.8163
G01 X59.5930 Y23.8676
G01 X59.5975 Y23.8706
G01 X59.6776 Y23.9301
G01 X59.6818 Y23.9335
G01 X59.7557 Y24.0005
G01 X59.7595 Y24.0043
G01 X59.8265 Y24.0782
G01 X59.8299 Y24.0824
G01 X59.8894 Y24.1625
G01 X59.8924 Y24.1670
G01 X59.9437 Y24.2525
G01 X59.9462 Y24.2573
G01 X59.9889 Y24.3475
G01 X59.9909 Y24.3525
G01 X60.0245 Y24.4464
G01 X60.0261 Y24.4516
G01 X60.0503 Y24.5483
G01 X60.0514 Y24.5536
G01 X60.0660 Y24.6523
G01 X60.0665 Y24.6577
G01 X60.0715 Y24.7600
G01 X60.0715 Y27.9313
G00 Z2.0000
G00 X77.3433 Y0.3567
G01 F25.00
G01 Z-0.0187
G01 F45.00
G01 X77.3433 Y36.1433
G01 X0.3567 Y36.1433
G01 X0.3567 Y0.3567
G01 X77.3433 Y0.3567
G00 Z2.0000
M05
G00 Z2.0000
G00 Z15.00
G00 X0.0 Y0.0

