(G-CODE GENERATED BY FLATCAM v8.991 - www.flatcam.org - Version Date: 2019/12/27)

(Name: CNC)
(Type: G-code from Geometry)
(Units: MM)

(Created on Friday, 17 January 2025 at 10:41)

(TOOL DIAMETER: 0.11 mm)
(Feedrate: 45.0 mm/min)
(Feedrate_Z: 25.0 mm/min)
(Feedrate rapids 1500.0 mm/min)

(Z_Cut: -0.0187 mm)
(Z_Move: 2.0 mm)
(Z Toolchange: 15.0 mm)
(X,Y Toolchange: 0.0000, 0.0000 mm)
(Z Start: None mm)
(Z End: 15.0 mm)
(Steps per circle: 64)
(Preprocessor Geometry: default)

(X range:    0.8567 ...   71.4433  mm)
(Y range:    0.6567 ...   33.2433  mm)

(Spindle Speed: None RPM)
G21
G90
G94




G01 F45.00
G00 Z2.0000

M03
G00 X11.9160 Y5.1733
G01 F25.00
G01 Z-0.0187
G01 F45.00
G01 X11.9287 Y5.1739
G01 X11.9439 Y5.1759
G01 X11.9589 Y5.1794
G01 X11.9734 Y5.1843
G01 X11.9784 Y5.1864
G01 X11.9922 Y5.1932
G01 X12.0052 Y5.2013
G01 X12.0174 Y5.2107
G01 X12.0286 Y5.2212
G01 X12.0353 Y5.2286
G01 X12.0447 Y5.2408
G01 X12.0528 Y5.2538
G01 X12.0596 Y5.2676
G01 X12.0617 Y5.2726
G01 X12.0666 Y5.2871
G01 X12.0701 Y5.3021
G01 X12.0721 Y5.3173
G01 X12.0726 Y5.3327
G01 X12.0721 Y5.3427
G01 X12.0701 Y5.3579
G01 X12.0666 Y5.3729
G01 X12.0617 Y5.3874
G01 X12.0596 Y5.3924
G01 X12.0528 Y5.4062
G01 X12.0447 Y5.4192
G01 X12.0353 Y5.4314
G01 X12.0248 Y5.4426
G01 X12.0174 Y5.4493
G01 X12.0052 Y5.4587
G01 X11.9922 Y5.4668
G01 X11.9784 Y5.4736
G01 X11.9734 Y5.4757
G01 X11.9589 Y5.4806
G01 X11.9439 Y5.4841
G01 X11.9287 Y5.4861
G01 X11.9160 Y5.4867
G01 X11.0567 Y5.4867
G01 X11.0567 Y5.9353
G01 X12.4240 Y5.9353
G01 X12.4367 Y5.9359
G01 X12.4519 Y5.9379
G01 X12.4572 Y5.9390
G01 X12.4720 Y5.9429
G01 X12.4864 Y5.9484
G01 X12.4954 Y5.9526
G01 X12.5087 Y5.9603
G01 X12.5132 Y5.9633
G01 X12.5254 Y5.9727
G01 X12.5328 Y5.9794
G01 X12.5366 Y5.9832
G01 X12.5468 Y5.9948
G01 X12.5557 Y6.0073
G01 X12.5608 Y6.0158
G01 X12.5676 Y6.0296
G01 X12.5697 Y6.0346
G01 X12.5746 Y6.0491
G01 X12.5770 Y6.0588
G01 X12.5796 Y6.0740
G01 X12.5801 Y6.0793
G01 X12.5806 Y6.0947
G01 X12.5801 Y6.1047
G01 X12.5781 Y6.1199
G01 X12.5770 Y6.1252
G01 X12.5731 Y6.1400
G01 X12.5676 Y6.1544
G01 X12.5634 Y6.1634
G01 X12.5557 Y6.1767
G01 X12.5527 Y6.1812
G01 X12.5433 Y6.1934
G01 X12.5328 Y6.2046
G01 X12.5254 Y6.2113
G01 X12.5132 Y6.2207
G01 X12.5002 Y6.2288
G01 X12.4864 Y6.2356
G01 X12.4814 Y6.2377
G01 X12.4669 Y6.2426
G01 X12.4519 Y6.2461
G01 X12.4367 Y6.2481
G01 X12.4240 Y6.2487
G01 X10.9000 Y6.2487
G01 X10.8820 Y6.2476
G01 X10.8668 Y6.2450
G01 X10.8520 Y6.2411
G01 X10.8376 Y6.2356
G01 X10.8238 Y6.2288
G01 X10.8108 Y6.2207
G01 X10.7986 Y6.2113
G01 X10.7912 Y6.2046
G01 X10.7807 Y6.1934
G01 X10.7713 Y6.1812
G01 X10.7632 Y6.1682
G01 X10.7564 Y6.1544
G01 X10.7543 Y6.1494
G01 X10.7494 Y6.1349
G01 X10.7459 Y6.1199
G01 X10.7439 Y6.1047
G01 X10.7433 Y6.0920
G01 X10.7433 Y4.5680
G01 X10.7444 Y4.5500
G01 X10.7470 Y4.5348
G01 X10.7509 Y4.5200
G01 X10.7564 Y4.5056
G01 X10.7632 Y4.4918
G01 X10.7713 Y4.4788
G01 X10.7807 Y4.4666
G01 X10.7874 Y4.4592
G01 X10.7986 Y4.4487
G01 X10.8108 Y4.4393
G01 X10.8238 Y4.4312
G01 X10.8376 Y4.4244
G01 X10.8426 Y4.4223
G01 X10.8571 Y4.4174
G01 X10.8721 Y4.4139
G01 X10.8873 Y4.4119
G01 X10.9000 Y4.4113
G01 X12.4240 Y4.4113
G01 X12.4367 Y4.4119
G01 X12.4519 Y4.4139
G01 X12.4669 Y4.4174
G01 X12.4814 Y4.4223
G01 X12.4864 Y4.4244
G01 X12.5002 Y4.4312
G01 X12.5132 Y4.4393
G01 X12.5254 Y4.4487
G01 X12.5366 Y4.4592
G01 X12.5433 Y4.4666
G01 X12.5527 Y4.4788
G01 X12.5557 Y4.4833
G01 X12.5634 Y4.4966
G01 X12.5676 Y4.5056
G01 X12.5731 Y4.5200
G01 X12.5770 Y4.5348
G01 X12.5781 Y4.5401
G01 X12.5801 Y4.5553
G01 X12.5806 Y4.5653
G01 X12.5801 Y4.5807
G01 X12.5796 Y4.5860
G01 X12.5770 Y4.6012
G01 X12.5746 Y4.6109
G01 X12.5697 Y4.6254
G01 X12.5676 Y4.6304
G01 X12.5634 Y4.6394
G01 X12.5557 Y4.6527
G01 X12.5527 Y4.6572
G01 X12.5433 Y4.6694
G01 X12.5328 Y4.6806
G01 X12.5254 Y4.6873
G01 X12.5132 Y4.6967
G01 X12.5087 Y4.6997
G01 X12.4954 Y4.7074
G01 X12.4864 Y4.7116
G01 X12.4720 Y4.7171
G01 X12.4572 Y4.7210
G01 X12.4519 Y4.7221
G01 X12.4367 Y4.7241
G01 X12.4240 Y4.7247
G01 X11.0567 Y4.7247
G01 X11.0567 Y5.1733
G01 X11.9160 Y5.1733
G00 Z2.0000
G00 X13.5049 Y5.9353
G01 F25.00
G01 Z-0.0187
G01 F45.00
G01 X13.0887 Y5.5191
G01 X13.0887 Y5.1409
G01 X13.5049 Y4.7247
G01 X13.8831 Y4.7247
G01 X14.2993 Y5.1409
G01 X14.2993 Y5.5191
G01 X13.8831 Y5.9353
G01 X13.5049 Y5.9353
G00 Z2.0000
G00 X14.5668 Y4.9652
G01 F25.00
G01 Z-0.0187
G01 F45.00
G01 X14.5753 Y4.9746
G01 X14.5847 Y4.9868
G01 X14.5928 Y4.9998
G01 X14.5996 Y5.0136
G01 X14.6051 Y5.0280
G01 X14.6090 Y5.0428
G01 X14.6116 Y5.0580
G01 X14.6126 Y5.0733
G01 X14.6127 Y5.5840
G01 X14.6116 Y5.6020
G01 X14.6090 Y5.6172
G01 X14.6051 Y5.6320
G01 X14.5996 Y5.6464
G01 X14.5928 Y5.6602
G01 X14.5847 Y5.6732
G01 X14.5753 Y5.6854
G01 X14.5668 Y5.6948
G01 X14.0588 Y6.2028
G01 X14.0452 Y6.2148
G01 X14.0327 Y6.2237
G01 X14.0194 Y6.2314
G01 X14.0054 Y6.2377
G01 X13.9909 Y6.2426
G01 X13.9759 Y6.2461
G01 X13.9607 Y6.2481
G01 X13.9480 Y6.2487
G01 X13.4400 Y6.2487
G01 X13.4220 Y6.2476
G01 X13.4068 Y6.2450
G01 X13.3971 Y6.2426
G01 X13.3826 Y6.2377
G01 X13.3686 Y6.2314
G01 X13.3553 Y6.2237
G01 X13.3508 Y6.2207
G01 X13.3386 Y6.2113
G01 X13.3292 Y6.2028
G01 X12.8212 Y5.6948
G01 X12.8092 Y5.6812
G01 X12.8003 Y5.6687
G01 X12.7926 Y5.6554
G01 X12.7863 Y5.6414
G01 X12.7814 Y5.6269
G01 X12.7779 Y5.6119
G01 X12.7759 Y5.5967
G01 X12.7753 Y5.5840
G01 X12.7753 Y5.0760
G01 X12.7764 Y5.0580
G01 X12.7790 Y5.0428
G01 X12.7814 Y5.0331
G01 X12.7863 Y5.0186
G01 X12.7926 Y5.0046
G01 X12.8003 Y4.9913
G01 X12.8033 Y4.9868
G01 X12.8127 Y4.9746
G01 X12.8212 Y4.9652
G01 X13.3292 Y4.4572
G01 X13.3428 Y4.4452
G01 X13.3553 Y4.4363
G01 X13.3686 Y4.4286
G01 X13.3826 Y4.4223
G01 X13.3971 Y4.4174
G01 X13.4121 Y4.4139
G01 X13.4273 Y4.4119
G01 X13.4400 Y4.4113
G01 X13.9480 Y4.4113
G01 X13.9660 Y4.4124
G01 X13.9812 Y4.4150
G01 X13.9960 Y4.4189
G01 X14.0104 Y4.4244
G01 X14.0242 Y4.4312
G01 X14.0372 Y4.4393
G01 X14.0494 Y4.4487
G01 X14.0588 Y4.4572
G01 X14.5668 Y4.9652
G00 Z2.0000
G00 X16.6006 Y4.6768
G01 F25.00
G01 Z-0.0187
G01 F45.00
G01 X15.9475 Y5.3300
G01 X16.5988 Y5.9812
G01 X16.6073 Y5.9906
G01 X16.6167 Y6.0028
G01 X16.6248 Y6.0158
G01 X16.6316 Y6.0296
G01 X16.6371 Y6.0440
G01 X16.6410 Y6.0588
G01 X16.6421 Y6.0641
G01 X16.6441 Y6.0793
G01 X16.6446 Y6.0947
G01 X16.6436 Y6.1100
G01 X16.6410 Y6.1252
G01 X16.6371 Y6.1400
G01 X16.6316 Y6.1544
G01 X16.6274 Y6.1634
G01 X16.6197 Y6.1767
G01 X16.6108 Y6.1892
G01 X16.6006 Y6.2008
G01 X16.5894 Y6.2113
G01 X16.5772 Y6.2207
G01 X16.5642 Y6.2288
G01 X16.5504 Y6.2356
G01 X16.5454 Y6.2377
G01 X16.5309 Y6.2426
G01 X16.5159 Y6.2461
G01 X16.5007 Y6.2481
G01 X16.4907 Y6.2486
G01 X16.4753 Y6.2481
G01 X16.4700 Y6.2476
G01 X16.4548 Y6.2450
G01 X16.4400 Y6.2411
G01 X16.4256 Y6.2356
G01 X16.4166 Y6.2314
G01 X16.4033 Y6.2237
G01 X16.3908 Y6.2148
G01 X16.3772 Y6.2028
G01 X15.6611 Y5.4867
G01 X15.1207 Y5.4867
G01 X15.1207 Y6.0920
G01 X15.1201 Y6.1047
G01 X15.1181 Y6.1199
G01 X15.1146 Y6.1349
G01 X15.1097 Y6.1494
G01 X15.1034 Y6.1634
G01 X15.0957 Y6.1767
G01 X15.0927 Y6.1812
G01 X15.0833 Y6.1934
G01 X15.0766 Y6.2008
G01 X15.0654 Y6.2113
G01 X15.0532 Y6.2207
G01 X15.0487 Y6.2237
G01 X15.0354 Y6.2314
G01 X15.0264 Y6.2356
G01 X15.0120 Y6.2411
G01 X14.9972 Y6.2450
G01 X14.9919 Y6.2461
G01 X14.9767 Y6.2481
G01 X14.9667 Y6.2486
G01 X14.9513 Y6.2481
G01 X14.9361 Y6.2461
G01 X14.9308 Y6.2450
G01 X14.9211 Y6.2426
G01 X14.9066 Y6.2377
G01 X14.8926 Y6.2314
G01 X14.8793 Y6.2237
G01 X14.8748 Y6.2207
G01 X14.8626 Y6.2113
G01 X14.8552 Y6.2046
G01 X14.8447 Y6.1934
G01 X14.8353 Y6.1812
G01 X14.8272 Y6.1682
G01 X14.8204 Y6.1544
G01 X14.8183 Y6.1494
G01 X14.8134 Y6.1349
G01 X14.8099 Y6.1199
G01 X14.8079 Y6.1047
G01 X14.8073 Y6.0920
G01 X14.8073 Y4.5680
G01 X14.8084 Y4.5500
G01 X14.8110 Y4.5348
G01 X14.8149 Y4.5200
G01 X14.8204 Y4.5056
G01 X14.8272 Y4.4918
G01 X14.8353 Y4.4788
G01 X14.8447 Y4.4666
G01 X14.8514 Y4.4592
G01 X14.8626 Y4.4487
G01 X14.8748 Y4.4393
G01 X14.8793 Y4.4363
G01 X14.8926 Y4.4286
G01 X14.9066 Y4.4223
G01 X14.9211 Y4.4174
G01 X14.9308 Y4.4150
G01 X14.9460 Y4.4124
G01 X14.9513 Y4.4119
G01 X14.9667 Y4.4114
G01 X14.9767 Y4.4119
G01 X14.9919 Y4.4139
G01 X15.0069 Y4.4174
G01 X15.0214 Y4.4223
G01 X15.0264 Y4.4244
G01 X15.0402 Y4.4312
G01 X15.0532 Y4.4393
G01 X15.0654 Y4.4487
G01 X15.0728 Y4.4554
G01 X15.0833 Y4.4666
G01 X15.0927 Y4.4788
G01 X15.0957 Y4.4833
G01 X15.1034 Y4.4966
G01 X15.1076 Y4.5056
G01 X15.1131 Y4.5200
G01 X15.1170 Y4.5348
G01 X15.1181 Y4.5401
G01 X15.1201 Y4.5553
G01 X15.1207 Y4.5680
G01 X15.1207 Y5.1733
G01 X15.6611 Y5.1733
G01 X16.3772 Y4.4572
G01 X16.3908 Y4.4452
G01 X16.4033 Y4.4363
G01 X16.4166 Y4.4286
G01 X16.4256 Y4.4244
G01 X16.4400 Y4.4189
G01 X16.4548 Y4.4150
G01 X16.4700 Y4.4124
G01 X16.4753 Y4.4119
G01 X16.4907 Y4.4114
G01 X16.5007 Y4.4119
G01 X16.5159 Y4.4139
G01 X16.5309 Y4.4174
G01 X16.5454 Y4.4223
G01 X16.5504 Y4.4244
G01 X16.5642 Y4.4312
G01 X16.5772 Y4.4393
G01 X16.5852 Y4.4452
G01 X16.5968 Y4.4554
G01 X16.6006 Y4.4592
G01 X16.6108 Y4.4708
G01 X16.6197 Y4.4833
G01 X16.6274 Y4.4966
G01 X16.6316 Y4.5056
G01 X16.6371 Y4.5200
G01 X16.6410 Y4.5348
G01 X16.6421 Y4.5401
G01 X16.6441 Y4.5553
G01 X16.6446 Y4.5707
G01 X16.6436 Y4.5860
G01 X16.6410 Y4.6012
G01 X16.6371 Y4.6160
G01 X16.6316 Y4.6304
G01 X16.6274 Y4.6394
G01 X16.6197 Y4.6527
G01 X16.6167 Y4.6572
G01 X16.6073 Y4.6694
G01 X16.6006 Y4.6768
G00 Z2.0000
G00 X25.5633 Y11.9838
G01 F25.00
G01 Z-0.0187
G01 F45.00
G01 X25.6009 Y12.0120
G01 X25.6656 Y12.0706
G01 X25.7280 Y12.1391
G01 X25.7834 Y12.2133
G01 X25.8312 Y12.2927
G01 X25.8710 Y12.3763
G01 X25.9025 Y12.4634
G01 X25.9253 Y12.5532
G01 X25.9391 Y12.6448
G01 X25.9439 Y12.7373
G01 X25.9397 Y12.8298
G01 X25.9263 Y12.9215
G01 X25.9041 Y13.0114
G01 X25.8731 Y13.0987
G01 X25.8337 Y13.1826
G01 X25.7864 Y13.2622
G01 X25.7314 Y13.3367
G01 X25.6694 Y13.4056
G01 X25.6009 Y13.4680
G01 X25.5267 Y13.5234
G01 X25.4473 Y13.5712
G01 X25.3637 Y13.6110
G01 X25.2766 Y13.6425
G01 X25.1868 Y13.6653
G01 X25.0952 Y13.6791
G01 X25.0027 Y13.6839
G01 X24.9102 Y13.6797
G01 X24.8185 Y13.6663
G01 X24.7286 Y13.6441
G01 X24.6413 Y13.6131
G01 X24.5574 Y13.5737
G01 X24.4778 Y13.5264
G01 X24.4033 Y13.4714
G01 X24.3344 Y13.4094
G01 X24.3306 Y13.4056
G01 X24.2686 Y13.3367
G01 X24.2136 Y13.2622
G01 X24.1663 Y13.1826
G01 X24.1290 Y13.1037
G01 X24.0975 Y13.0166
G01 X24.0747 Y12.9268
G01 X24.0737 Y12.9215
G01 X24.0603 Y12.8298
G01 X24.0561 Y12.7373
G01 X24.0603 Y12.6502
G01 X24.0737 Y12.5585
G01 X24.0959 Y12.4686
G01 X24.1269 Y12.3813
G01 X24.1663 Y12.2974
G01 X24.2136 Y12.2178
G01 X24.2166 Y12.2133
G01 X24.2720 Y12.1391
G01 X24.3344 Y12.0706
G01 X24.3991 Y12.0120
G01 X24.4367 Y11.9838
G01 X24.4367 Y7.5333
G01 X23.1204 Y6.2170
G01 X22.4348 Y6.2170
G01 X22.4294 Y6.2167
G01 X22.4241 Y6.2159
G01 X22.4188 Y6.2146
G01 X22.4138 Y6.2128
G01 X22.4089 Y6.2105
G01 X22.4042 Y6.2077
G01 X22.3999 Y6.2045
G01 X22.3959 Y6.2009
G01 X22.0911 Y5.8961
G01 X22.0875 Y5.8921
G01 X22.0843 Y5.8878
G01 X22.0815 Y5.8831
G01 X22.0792 Y5.8782
G01 X22.0774 Y5.8732
G01 X22.0761 Y5.8679
G01 X22.0753 Y5.8626
G01 X22.0750 Y5.8572
G01 X22.0750 Y4.9428
G01 X22.0753 Y4.9374
G01 X22.0761 Y4.9321
G01 X22.0774 Y4.9268
G01 X22.0792 Y4.9218
G01 X22.0815 Y4.9169
G01 X22.0843 Y4.9122
G01 X22.0875 Y4.9079
G01 X22.0911 Y4.9039
G01 X22.3959 Y4.5991
G01 X22.3999 Y4.5955
G01 X22.4042 Y4.5923
G01 X22.4089 Y4.5895
G01 X22.4138 Y4.5872
G01 X22.4188 Y4.5854
G01 X22.4241 Y4.5841
G01 X22.4294 Y4.5833
G01 X22.4348 Y4.5830
G01 X24.3652 Y4.5830
G01 X24.3706 Y4.5833
G01 X24.3759 Y4.5841
G01 X24.3812 Y4.5854
G01 X24.3862 Y4.5872
G01 X24.3911 Y4.5895
G01 X24.3958 Y4.5923
G01 X24.4001 Y4.5955
G01 X24.4041 Y4.5991
G01 X24.7089 Y4.9039
G01 X24.7125 Y4.9079
G01 X24.7157 Y4.9122
G01 X24.7185 Y4.9169
G01 X24.7208 Y4.9218
G01 X24.7226 Y4.9268
G01 X24.7239 Y4.9321
G01 X24.7247 Y4.9374
G01 X24.7250 Y4.9428
G01 X24.7250 Y5.8572
G01 X24.7247 Y5.8626
G01 X24.7239 Y5.8679
G01 X24.7226 Y5.8732
G01 X24.7208 Y5.8782
G01 X24.7185 Y5.8831
G01 X24.7157 Y5.8878
G01 X24.7125 Y5.8921
G01 X24.7089 Y5.8961
G01 X24.5508 Y6.0542
G01 X25.3983 Y6.9017
G01 X25.4336 Y6.9406
G01 X25.4371 Y6.9448
G01 X25.4698 Y6.9894
G01 X25.4980 Y7.0369
G01 X25.5193 Y7.0820
G01 X25.5382 Y7.1339
G01 X25.5397 Y7.1391
G01 X25.5518 Y7.1875
G01 X25.5602 Y7.2421
G01 X25.5633 Y7.3000
G01 X25.5633 Y11.9838
G00 Z2.0000
G00 X32.9638 Y20.0439
G01 F25.00
G01 Z-0.0187
G01 F45.00
G01 X32.9638 Y7.5807
G01 X31.6193 Y6.2362
G01 X28.8431 Y6.2362
G01 X27.1362 Y7.9431
G01 X27.1362 Y14.5093
G01 X27.1343 Y14.5493
G01 X27.1283 Y14.5917
G01 X27.1272 Y14.5970
G01 X27.1166 Y14.6385
G01 X27.1019 Y14.6787
G01 X27.0859 Y14.7125
G01 X27.0641 Y14.7493
G01 X27.0611 Y14.7538
G01 X27.0354 Y14.7880
G01 X27.0103 Y14.8157
G01 X25.6904 Y16.1357
G01 X25.6566 Y16.1661
G01 X25.6220 Y16.1914
G01 X25.5852 Y16.2132
G01 X25.5514 Y16.2292
G01 X25.5464 Y16.2312
G01 X25.5060 Y16.2454
G01 X25.4697 Y16.2545
G01 X25.4274 Y16.2610
G01 X25.3847 Y16.2634
G01 X23.8617 Y16.2635
G01 X23.8217 Y16.2616
G01 X23.7793 Y16.2556
G01 X23.7740 Y16.2545
G01 X23.7325 Y16.2438
G01 X23.6923 Y16.2292
G01 X23.6585 Y16.2132
G01 X23.6217 Y16.1914
G01 X23.6172 Y16.1884
G01 X23.5830 Y16.1627
G01 X23.5533 Y16.1357
G01 X21.8916 Y14.4740
G01 X21.8646 Y14.4443
G01 X21.8389 Y14.4101
G01 X21.8166 Y14.3735
G01 X21.7981 Y14.3349
G01 X21.7960 Y14.3300
G01 X21.7819 Y14.2896
G01 X21.7728 Y14.2533
G01 X21.7717 Y14.2480
G01 X21.7657 Y14.2056
G01 X21.7638 Y14.1655
G01 X21.7638 Y13.5768
G01 X21.7527 Y13.5712
G01 X21.6778 Y13.5264
G01 X21.6033 Y13.4714
G01 X21.5344 Y13.4094
G01 X21.4720 Y13.3409
G01 X21.4166 Y13.2667
G01 X21.3688 Y13.1873
G01 X21.3290 Y13.1037
G01 X21.2975 Y13.0166
G01 X21.2959 Y13.0114
G01 X21.2747 Y12.9268
G01 X21.2609 Y12.8352
G01 X21.2561 Y12.7427
G01 X21.2561 Y12.7373
G01 X21.2609 Y12.6448
G01 X21.2747 Y12.5532
G01 X21.2959 Y12.4686
G01 X21.3269 Y12.3813
G01 X21.3663 Y12.2974
G01 X21.4136 Y12.2178
G01 X21.4166 Y12.2133
G01 X21.4720 Y12.1391
G01 X21.5344 Y12.0706
G01 X21.5991 Y12.0120
G01 X21.6733 Y11.9566
G01 X21.6778 Y11.9536
G01 X21.7574 Y11.9063
G01 X21.8363 Y11.8690
G01 X21.9234 Y11.8375
G01 X21.9286 Y11.8359
G01 X22.0185 Y11.8137
G01 X22.1102 Y11.8003
G01 X22.1973 Y11.7961
G01 X22.2898 Y11.8003
G01 X22.3815 Y11.8137
G01 X22.3868 Y11.8147
G01 X22.4714 Y11.8359
G01 X22.5587 Y11.8669
G01 X22.6426 Y11.9063
G01 X22.7222 Y11.9536
G01 X22.7267 Y11.9566
G01 X22.8009 Y12.0120
G01 X22.8694 Y12.0744
G01 X22.9280 Y12.1391
G01 X22.9834 Y12.2133
G01 X23.0312 Y12.2927
G01 X23.0337 Y12.2974
G01 X23.0731 Y12.3813
G01 X23.1041 Y12.4686
G01 X23.1263 Y12.5585
G01 X23.1397 Y12.6502
G01 X23.1439 Y12.7373
G01 X23.1397 Y12.8298
G01 X23.1263 Y12.9215
G01 X23.1253 Y12.9268
G01 X23.1025 Y13.0166
G01 X23.0710 Y13.1037
G01 X23.0337 Y13.1826
G01 X22.9864 Y13.2622
G01 X22.9834 Y13.2667
G01 X22.9280 Y13.3409
G01 X22.8694 Y13.4056
G01 X22.8009 Y13.4680
G01 X22.7267 Y13.5234
G01 X22.7222 Y13.5264
G01 X22.6473 Y13.5712
G01 X22.6362 Y13.5768
G01 X22.6362 Y13.9849
G01 X24.0424 Y15.3911
G01 X25.2013 Y15.3911
G01 X26.2638 Y14.3286
G01 X26.2638 Y7.7624
G01 X26.2662 Y7.7169
G01 X26.2728 Y7.6746
G01 X26.2819 Y7.6384
G01 X26.2960 Y7.5980
G01 X26.2981 Y7.5930
G01 X26.3166 Y7.5544
G01 X26.3389 Y7.5178
G01 X26.3612 Y7.4878
G01 X26.3916 Y7.4539
G01 X28.3539 Y5.4916
G01 X28.3878 Y5.4612
G01 X28.4223 Y5.4359
G01 X28.4544 Y5.4166
G01 X28.4930 Y5.3981
G01 X28.4980 Y5.3960
G01 X28.5384 Y5.3819
G01 X28.5746 Y5.3728
G01 X28.6169 Y5.3662
G01 X28.6624 Y5.3638
G01 X31.8000 Y5.3638
G01 X31.8401 Y5.3657
G01 X31.8824 Y5.3717
G01 X31.8877 Y5.3728
G01 X31.9292 Y5.3834
G01 X31.9694 Y5.3981
G01 X32.0032 Y5.4141
G01 X32.0401 Y5.4359
G01 X32.0746 Y5.4612
G01 X32.1084 Y5.4916
G01 X33.7084 Y7.0916
G01 X33.7388 Y7.1254
G01 X33.7641 Y7.1599
G01 X33.7859 Y7.1968
G01 X33.8040 Y7.2356
G01 X33.8181 Y7.2760
G01 X33.8283 Y7.3176
G01 X33.8343 Y7.3599
G01 X33.8362 Y7.4000
G01 X33.8362 Y20.0398
G01 X34.4697 Y20.6733
G01 X35.0019 Y20.6733
G01 X35.0188 Y20.6611
G01 X35.0770 Y20.6265
G01 X35.1334 Y20.5999
G01 X35.1970 Y20.5768
G01 X35.2627 Y20.5601
G01 X35.2680 Y20.5590
G01 X35.3350 Y20.5493
G01 X35.3973 Y20.5463
G01 X39.6388 Y20.5462
G01 X41.4097 Y18.7753
G01 X41.4097 Y16.8357
G01 X41.3783 Y16.7827
G01 X41.3463 Y16.7151
G01 X41.3442 Y16.7101
G01 X41.3175 Y16.6346
G01 X41.2993 Y16.5620
G01 X41.2873 Y16.4828
G01 X41.2831 Y16.4027
G01 X41.2831 Y16.3973
G01 X41.2867 Y16.3226
G01 X41.2982 Y16.2433
G01 X41.2993 Y16.2380
G01 X41.3190 Y16.1603
G01 X41.3463 Y16.0849
G01 X41.3783 Y16.0173
G01 X41.4192 Y15.9484
G01 X41.4222 Y15.9439
G01 X41.4702 Y15.8797
G01 X41.5204 Y15.8242
G01 X41.5242 Y15.8204
G01 X41.5838 Y15.7668
G01 X41.6484 Y15.7192
G01 X41.7173 Y15.6783
G01 X41.7849 Y15.6463
G01 X41.7899 Y15.6442
G01 X41.8654 Y15.6175
G01 X41.9380 Y15.5993
G01 X42.0172 Y15.5873
G01 X42.0973 Y15.5831
G01 X42.1027 Y15.5831
G01 X42.1774 Y15.5867
G01 X42.2567 Y15.5982
G01 X42.2620 Y15.5993
G01 X42.3397 Y15.6190
G01 X42.4151 Y15.6463
G01 X42.4827 Y15.6783
G01 X42.5516 Y15.7192
G01 X42.5561 Y15.7222
G01 X42.6203 Y15.7702
G01 X42.6758 Y15.8204
G01 X42.7298 Y15.8797
G01 X42.7778 Y15.9439
G01 X42.7808 Y15.9484
G01 X42.8217 Y16.0173
G01 X42.8537 Y16.0849
G01 X42.8558 Y16.0899
G01 X42.8825 Y16.1654
G01 X42.9018 Y16.2433
G01 X42.9133 Y16.3226
G01 X42.9169 Y16.4027
G01 X42.9127 Y16.4828
G01 X42.9007 Y16.5620
G01 X42.8810 Y16.6397
G01 X42.8537 Y16.7151
G01 X42.8217 Y16.7827
G01 X42.7903 Y16.8357
G01 X42.7903 Y19.0612
G01 X42.7867 Y19.1316
G01 X42.7765 Y19.1985
G01 X42.7597 Y19.2642
G01 X42.7367 Y19.3279
G01 X42.7075 Y19.3890
G01 X42.6724 Y19.4470
G01 X42.6319 Y19.5012
G01 X42.5881 Y19.5494
G01 X40.4128 Y21.7247
G01 X40.3605 Y21.7718
G01 X40.3059 Y21.8120
G01 X40.2477 Y21.8466
G01 X40.1863 Y21.8753
G01 X40.1225 Y21.8979
G01 X40.0567 Y21.9141
G01 X39.9897 Y21.9237
G01 X39.9247 Y21.9269
G01 X35.4000 Y21.9269
G01 X35.3350 Y21.9237
G01 X35.2680 Y21.9141
G01 X35.2627 Y21.9130
G01 X35.1970 Y21.8963
G01 X35.1334 Y21.8732
G01 X35.0770 Y21.8466
G01 X35.0188 Y21.8120
G01 X35.0019 Y21.7998
G01 X34.2337 Y21.7997
G01 X34.1785 Y21.7968
G01 X34.1239 Y21.7884
G01 X34.0755 Y21.7763
G01 X34.0703 Y21.7747
G01 X34.0184 Y21.7558
G01 X33.9685 Y21.7320
G01 X33.9213 Y21.7033
G01 X33.8812 Y21.6736
G01 X33.8401 Y21.6367
G01 X33.0017 Y20.7984
G01 X32.9629 Y20.7553
G01 X32.9302 Y20.7108
G01 X32.9020 Y20.6632
G01 X32.8807 Y20.6181
G01 X32.8618 Y20.5662
G01 X32.8603 Y20.5610
G01 X32.8471 Y20.5074
G01 X32.8393 Y20.4526
G01 X32.8368 Y20.4028
G01 X32.8393 Y20.3476
G01 X32.8471 Y20.2929
G01 X32.8482 Y20.2876
G01 X32.8603 Y20.2392
G01 X32.8786 Y20.1871
G01 X32.9020 Y20.1370
G01 X32.9046 Y20.1323
G01 X32.9332 Y20.0850
G01 X32.9638 Y20.0439
G00 Z2.0000
G00 X21.4237 Y22.3638
G01 F25.00
G01 Z-0.0187
G01 F45.00
G01 X21.4720 Y22.2991
G01 X21.5306 Y22.2344
G01 X21.5991 Y22.1720
G01 X21.6733 Y22.1166
G01 X21.6778 Y22.1136
G01 X21.7574 Y22.0663
G01 X21.8413 Y22.0269
G01 X21.9286 Y21.9959
G01 X22.0185 Y21.9737
G01 X22.1102 Y21.9603
G01 X22.1973 Y21.9561
G01 X22.2027 Y21.9561
G01 X22.2952 Y21.9609
G01 X22.3868 Y21.9747
G01 X22.4714 Y21.9959
G01 X22.4766 Y21.9975
G01 X22.5637 Y22.0290
G01 X22.6426 Y22.0663
G01 X22.7222 Y22.1136
G01 X22.7267 Y22.1166
G01 X22.8009 Y22.1720
G01 X22.8694 Y22.2344
G01 X22.9280 Y22.2991
G01 X22.9834 Y22.3733
G01 X22.9864 Y22.3778
G01 X23.0312 Y22.4527
G01 X23.0368 Y22.4638
G01 X24.1632 Y22.4638
G01 X24.1688 Y22.4527
G01 X24.2136 Y22.3778
G01 X24.2166 Y22.3733
G01 X24.2720 Y22.2991
G01 X24.3344 Y22.2306
G01 X24.3991 Y22.1720
G01 X24.4733 Y22.1166
G01 X24.4778 Y22.1136
G01 X24.5574 Y22.0663
G01 X24.6363 Y22.0290
G01 X24.7234 Y21.9975
G01 X24.7286 Y21.9959
G01 X24.8185 Y21.9737
G01 X24.9102 Y21.9603
G01 X24.9973 Y21.9561
G01 X25.0898 Y21.9603
G01 X25.1815 Y21.9737
G01 X25.1868 Y21.9747
G01 X25.2714 Y21.9959
G01 X25.3587 Y22.0269
G01 X25.4426 Y22.0663
G01 X25.5222 Y22.1136
G01 X25.5267 Y22.1166
G01 X25.6009 Y22.1720
G01 X25.6694 Y22.2344
G01 X25.7280 Y22.2991
G01 X25.7562 Y22.3367
G01 X26.3210 Y22.3367
G01 X27.5367 Y21.1210
G01 X27.5367 Y8.9702
G01 X27.5393 Y8.9176
G01 X27.5471 Y8.8629
G01 X27.5603 Y8.8093
G01 X27.5618 Y8.8041
G01 X27.5807 Y8.7521
G01 X27.6046 Y8.7023
G01 X27.6332 Y8.6550
G01 X27.6664 Y8.6108
G01 X27.6999 Y8.5738
G01 X28.5037 Y7.7700
G01 X28.5448 Y7.7331
G01 X28.5894 Y7.7004
G01 X28.6321 Y7.6747
G01 X28.6820 Y7.6509
G01 X28.7339 Y7.6320
G01 X28.7391 Y7.6304
G01 X28.7875 Y7.6183
G01 X28.8421 Y7.6099
G01 X28.9000 Y7.6069
G01 X31.2205 Y7.6069
G01 X31.2784 Y7.6099
G01 X31.3330 Y7.6183
G01 X31.3814 Y7.6304
G01 X31.4335 Y7.6488
G01 X31.4836 Y7.6722
G01 X31.4884 Y7.6747
G01 X31.5356 Y7.7034
G01 X31.5757 Y7.7331
G01 X31.6188 Y7.7719
G01 X32.1268 Y8.2799
G01 X32.1621 Y8.3188
G01 X32.1953 Y8.3630
G01 X32.2239 Y8.4103
G01 X32.2478 Y8.4601
G01 X32.2667 Y8.5121
G01 X32.2682 Y8.5173
G01 X32.2814 Y8.5709
G01 X32.2892 Y8.6256
G01 X32.2918 Y8.6782
G01 X32.2918 Y21.3667
G01 X32.5774 Y21.6524
G01 X32.6244 Y21.6457
G01 X32.7169 Y21.6414
G01 X32.8095 Y21.6462
G01 X32.9011 Y21.6600
G01 X32.9858 Y21.6813
G01 X33.0732 Y21.7122
G01 X33.1570 Y21.7516
G01 X33.2367 Y21.7990
G01 X33.3113 Y21.8540
G01 X33.3801 Y21.9161
G01 X33.6759 Y22.2117
G01 X40.6526 Y22.2117
G01 X46.8322 Y16.0322
G01 X46.8988 Y15.9717
G01 X46.9030 Y15.9683
G01 X46.9776 Y15.9133
G01 X47.0524 Y15.8684
G01 X47.1361 Y15.8285
G01 X47.1411 Y15.8265
G01 X47.2284 Y15.7955
G01 X47.3131 Y15.7743
G01 X47.3184 Y15.7732
G01 X47.4101 Y15.7599
G01 X47.5000 Y15.7556
G01 X50.7088 Y15.7556
G01 X56.9522 Y9.5122
G01 X57.0188 Y9.4517
G01 X57.0230 Y9.4483
G01 X57.0976 Y9.3933
G01 X57.1772 Y9.3459
G01 X57.2611 Y9.3065
G01 X57.3484 Y9.2755
G01 X57.4384 Y9.2532
G01 X57.5301 Y9.2399
G01 X57.6200 Y9.2356
G01 X63.6369 Y9.2356
G01 X63.6812 Y9.1762
G01 X63.7816 Y9.0654
G01 X63.7854 Y9.0616
G01 X63.8962 Y8.9612
G01 X63.9004 Y8.9578
G01 X64.0205 Y8.8687
G01 X64.0250 Y8.8657
G01 X64.1533 Y8.7888
G01 X64.1581 Y8.7862
G01 X64.2933 Y8.7223
G01 X64.2983 Y8.7202
G01 X64.4391 Y8.6698
G01 X64.4442 Y8.6683
G01 X64.5893 Y8.6319
G01 X64.5946 Y8.6309
G01 X64.7426 Y8.6089
G01 X64.7479 Y8.6084
G01 X64.8973 Y8.6011
G01 X64.9027 Y8.6011
G01 X65.0521 Y8.6084
G01 X65.0574 Y8.6089
G01 X65.2054 Y8.6309
G01 X65.2107 Y8.6319
G01 X65.3558 Y8.6683
G01 X65.3609 Y8.6698
G01 X65.5017 Y8.7202
G01 X65.5067 Y8.7223
G01 X65.6419 Y8.7862
G01 X65.6467 Y8.7888
G01 X65.7750 Y8.8657
G01 X65.7795 Y8.8687
G01 X65.8996 Y8.9578
G01 X65.9038 Y8.9612
G01 X66.0146 Y9.0616
G01 X66.0184 Y9.0654
G01 X66.1188 Y9.1762
G01 X66.1222 Y9.1804
G01 X66.2113 Y9.3005
G01 X66.2143 Y9.3050
G01 X66.2912 Y9.4333
G01 X66.2938 Y9.4381
G01 X66.3577 Y9.5733
G01 X66.3598 Y9.5783
G01 X66.4102 Y9.7191
G01 X66.4117 Y9.7242
G01 X66.4481 Y9.8693
G01 X66.4491 Y9.8746
G01 X66.4711 Y10.0226
G01 X66.4716 Y10.0279
G01 X66.4789 Y10.1773
G01 X66.4789 Y10.1827
G01 X66.4716 Y10.3321
G01 X66.4711 Y10.3374
G01 X66.4491 Y10.4854
G01 X66.4481 Y10.4907
G01 X66.4117 Y10.6358
G01 X66.4102 Y10.6409
G01 X66.3598 Y10.7817
G01 X66.3577 Y10.7867
G01 X66.2938 Y10.9219
G01 X66.2912 Y10.9267
G01 X66.2143 Y11.0550
G01 X66.2113 Y11.0595
G01 X66.1222 Y11.1796
G01 X66.1188 Y11.1838
G01 X66.0184 Y11.2946
G01 X66.0146 Y11.2984
G01 X65.9038 Y11.3988
G01 X65.8996 Y11.4022
G01 X65.7795 Y11.4913
G01 X65.7750 Y11.4943
G01 X65.6467 Y11.5712
G01 X65.6419 Y11.5738
G01 X65.5067 Y11.6377
G01 X65.5017 Y11.6398
G01 X65.3609 Y11.6902
G01 X65.3558 Y11.6917
G01 X65.2107 Y11.7281
G01 X65.2054 Y11.7291
G01 X65.0574 Y11.7511
G01 X65.0521 Y11.7516
G01 X64.9027 Y11.7589
G01 X64.8973 Y11.7589
G01 X64.7479 Y11.7516
G01 X64.7426 Y11.7511
G01 X64.5946 Y11.7291
G01 X64.5893 Y11.7281
G01 X64.4442 Y11.6917
G01 X64.4391 Y11.6902
G01 X64.2983 Y11.6398
G01 X64.2933 Y11.6377
G01 X64.1581 Y11.5738
G01 X64.1533 Y11.5712
G01 X64.0250 Y11.4943
G01 X64.0205 Y11.4913
G01 X63.9004 Y11.4022
G01 X63.8962 Y11.3988
G01 X63.7854 Y11.2984
G01 X63.7816 Y11.2946
G01 X63.6812 Y11.1838
G01 X63.6369 Y11.1244
G01 X58.0112 Y11.1244
G01 X51.7678 Y17.3678
G01 X51.7012 Y17.4283
G01 X51.6970 Y17.4317
G01 X51.6224 Y17.4867
G01 X51.5476 Y17.5316
G01 X51.4639 Y17.5715
G01 X51.4589 Y17.5735
G01 X51.3716 Y17.6045
G01 X51.2869 Y17.6257
G01 X51.2816 Y17.6268
G01 X51.1899 Y17.6401
G01 X51.1000 Y17.6444
G01 X47.8912 Y17.6444
G01 X41.7117 Y23.8240
G01 X41.6450 Y23.8845
G01 X41.5708 Y23.9399
G01 X41.4914 Y23.9878
G01 X41.4077 Y24.0276
G01 X41.3206 Y24.0591
G01 X41.2307 Y24.0819
G01 X41.1391 Y24.0957
G01 X41.1337 Y24.0963
G01 X41.0438 Y24.1006
G01 X33.2820 Y24.1005
G01 X33.1948 Y24.0963
G01 X33.1031 Y24.0829
G01 X33.0978 Y24.0819
G01 X33.0079 Y24.0591
G01 X32.9208 Y24.0276
G01 X32.8419 Y23.9903
G01 X32.7622 Y23.9429
G01 X32.7577 Y23.9399
G01 X32.6835 Y23.8845
G01 X32.6168 Y23.8240
G01 X32.0464 Y23.2536
G01 X31.9859 Y23.1869
G01 X31.9305 Y23.1127
G01 X31.8827 Y23.0333
G01 X31.8428 Y22.9496
G01 X31.8407 Y22.9447
G01 X31.8098 Y22.8573
G01 X31.7875 Y22.7673
G01 X31.7742 Y22.6756
G01 X31.7699 Y22.5831
G01 X31.7742 Y22.4959
G01 X31.7809 Y22.4489
G01 X31.3302 Y21.9983
G01 X31.2914 Y21.9552
G01 X31.2587 Y21.9106
G01 X31.2331 Y21.8679
G01 X31.2092 Y21.8180
G01 X31.1903 Y21.7661
G01 X31.1888 Y21.7609
G01 X31.1767 Y21.7125
G01 X31.1683 Y21.6579
G01 X31.1652 Y21.6000
G01 X31.1652 Y8.9115
G01 X30.9872 Y8.7334
G01 X29.1333 Y8.7334
G01 X28.6633 Y9.2035
G01 X28.6633 Y21.3543
G01 X28.6602 Y21.4122
G01 X28.6518 Y21.4668
G01 X28.6397 Y21.5152
G01 X28.6382 Y21.5204
G01 X28.6193 Y21.5723
G01 X28.5954 Y21.6222
G01 X28.5668 Y21.6695
G01 X28.5371 Y21.7095
G01 X28.4983 Y21.7526
G01 X26.9526 Y23.2983
G01 X26.9095 Y23.3371
G01 X26.8650 Y23.3698
G01 X26.8174 Y23.3980
G01 X26.7723 Y23.4193
G01 X26.7204 Y23.4382
G01 X26.6668 Y23.4518
G01 X26.6122 Y23.4602
G01 X26.6068 Y23.4607
G01 X26.5543 Y23.4633
G01 X25.7562 Y23.4633
G01 X25.7280 Y23.5009
G01 X25.6656 Y23.5694
G01 X25.5967 Y23.6314
G01 X25.5222 Y23.6864
G01 X25.4426 Y23.7337
G01 X25.3587 Y23.7731
G01 X25.2714 Y23.8041
G01 X25.1815 Y23.8263
G01 X25.0898 Y23.8397
G01 X24.9973 Y23.8439
G01 X24.9102 Y23.8397
G01 X24.8185 Y23.8263
G01 X24.8132 Y23.8253
G01 X24.7234 Y23.8025
G01 X24.6363 Y23.7710
G01 X24.5574 Y23.7337
G01 X24.4778 Y23.6864
G01 X24.4733 Y23.6834
G01 X24.3991 Y23.6280
G01 X24.3306 Y23.5656
G01 X24.2720 Y23.5009
G01 X24.2166 Y23.4267
G01 X24.1688 Y23.3473
G01 X24.1632 Y23.3362
G01 X23.0368 Y23.3362
G01 X23.0312 Y23.3473
G01 X22.9864 Y23.4222
G01 X22.9834 Y23.4267
G01 X22.9280 Y23.5009
G01 X22.8656 Y23.5694
G01 X22.8009 Y23.6280
G01 X22.7267 Y23.6834
G01 X22.7222 Y23.6864
G01 X22.6426 Y23.7337
G01 X22.5637 Y23.7710
G01 X22.4766 Y23.8025
G01 X22.4714 Y23.8041
G01 X22.3815 Y23.8263
G01 X22.2898 Y23.8397
G01 X22.2027 Y23.8439
G01 X22.1973 Y23.8439
G01 X22.1048 Y23.8391
G01 X22.0132 Y23.8253
G01 X21.9286 Y23.8041
G01 X21.9234 Y23.8025
G01 X21.8363 Y23.7710
G01 X21.7527 Y23.7312
G01 X21.6733 Y23.6834
G01 X21.5991 Y23.6280
G01 X21.5344 Y23.5694
G01 X21.5306 Y23.5656
G01 X21.4686 Y23.4967
G01 X21.4136 Y23.4222
G01 X21.3688 Y23.3473
G01 X21.3290 Y23.2637
G01 X21.3260 Y23.2562
G01 X20.1900 Y23.2562
G01 X20.1900 Y23.4550
G01 X20.1897 Y23.4604
G01 X20.1889 Y23.4657
G01 X20.1876 Y23.4710
G01 X20.1858 Y23.4760
G01 X20.1835 Y23.4809
G01 X20.1807 Y23.4856
G01 X20.1775 Y23.4899
G01 X20.1739 Y23.4939
G01 X20.1699 Y23.4975
G01 X20.1656 Y23.5007
G01 X20.1609 Y23.5035
G01 X20.1560 Y23.5058
G01 X20.1510 Y23.5076
G01 X20.1457 Y23.5089
G01 X20.1404 Y23.5097
G01 X20.1350 Y23.5100
G01 X18.8650 Y23.5100
G01 X18.8596 Y23.5097
G01 X18.8543 Y23.5089
G01 X18.8490 Y23.5076
G01 X18.8440 Y23.5058
G01 X18.8391 Y23.5035
G01 X18.8344 Y23.5007
G01 X18.8301 Y23.4975
G01 X18.8261 Y23.4939
G01 X18.8225 Y23.4899
G01 X18.8193 Y23.4856
G01 X18.8165 Y23.4809
G01 X18.8142 Y23.4760
G01 X18.8124 Y23.4710
G01 X18.8111 Y23.4657
G01 X18.8103 Y23.4604
G01 X18.8100 Y23.4550
G01 X18.8100 Y22.1850
G01 X18.8103 Y22.1796
G01 X18.8111 Y22.1743
G01 X18.8124 Y22.1690
G01 X18.8142 Y22.1640
G01 X18.8165 Y22.1591
G01 X18.8193 Y22.1544
G01 X18.8225 Y22.1501
G01 X18.8261 Y22.1461
G01 X18.8301 Y22.1425
G01 X18.8344 Y22.1393
G01 X18.8391 Y22.1365
G01 X18.8440 Y22.1342
G01 X18.8490 Y22.1324
G01 X18.8543 Y22.1311
G01 X18.8596 Y22.1303
G01 X18.8650 Y22.1300
G01 X20.1350 Y22.1300
G01 X20.1404 Y22.1303
G01 X20.1457 Y22.1311
G01 X20.1510 Y22.1324
G01 X20.1560 Y22.1342
G01 X20.1609 Y22.1365
G01 X20.1656 Y22.1393
G01 X20.1699 Y22.1425
G01 X20.1739 Y22.1461
G01 X20.1775 Y22.1501
G01 X20.1807 Y22.1544
G01 X20.1835 Y22.1591
G01 X20.1858 Y22.1640
G01 X20.1876 Y22.1690
G01 X20.1889 Y22.1743
G01 X20.1897 Y22.1796
G01 X20.1900 Y22.1850
G01 X20.1900 Y22.3638
G01 X21.4237 Y22.3638
G00 Z2.0000
G00 X24.9229 Y28.9638
G01 F25.00
G01 Z-0.0187
G01 F45.00
G01 X24.9568 Y28.8928
G01 X25.0081 Y28.8073
G01 X25.0111 Y28.8028
G01 X25.0704 Y28.7227
G01 X25.0739 Y28.7185
G01 X25.1408 Y28.6446
G01 X25.1446 Y28.6408
G01 X25.2185 Y28.5739
G01 X25.2227 Y28.5704
G01 X25.3028 Y28.5111
G01 X25.3073 Y28.5081
G01 X25.3928 Y28.4568
G01 X25.3975 Y28.4542
G01 X25.4877 Y28.4116
G01 X25.4927 Y28.4096
G01 X25.5865 Y28.3760
G01 X25.5917 Y28.3744
G01 X25.6884 Y28.3502
G01 X25.6937 Y28.3491
G01 X25.7923 Y28.3345
G01 X25.7977 Y28.3340
G01 X25.8973 Y28.3291
G01 X25.9027 Y28.3291
G01 X26.0023 Y28.3340
G01 X26.0077 Y28.3345
G01 X26.1063 Y28.3491
G01 X26.1116 Y28.3502
G01 X26.2083 Y28.3744
G01 X26.2135 Y28.3760
G01 X26.3073 Y28.4096
G01 X26.3123 Y28.4116
G01 X26.4025 Y28.4542
G01 X26.4072 Y28.4568
G01 X26.4927 Y28.5081
G01 X26.4972 Y28.5111
G01 X26.5773 Y28.5704
G01 X26.5815 Y28.5739
G01 X26.6554 Y28.6408
G01 X26.6592 Y28.6446
G01 X26.7261 Y28.7185
G01 X26.7296 Y28.7227
G01 X26.7889 Y28.8028
G01 X26.7919 Y28.8073
G01 X26.8432 Y28.8928
G01 X26.8458 Y28.8975
G01 X26.8884 Y28.9877
G01 X26.8904 Y28.9927
G01 X26.9240 Y29.0865
G01 X26.9256 Y29.0917
G01 X26.9498 Y29.1884
G01 X26.9509 Y29.1937
G01 X26.9655 Y29.2923
G01 X26.9660 Y29.2977
G01 X26.9709 Y29.3973
G01 X26.9709 Y29.4027
G01 X26.9660 Y29.5023
G01 X26.9655 Y29.5077
G01 X26.9509 Y29.6063
G01 X26.9415 Y29.6449
G01 X28.1739 Y30.8774
G01 X28.1965 Y30.8765
G01 X28.2712 Y30.8802
G01 X28.3506 Y30.8917
G01 X28.4285 Y30.9109
G01 X28.5041 Y30.9377
G01 X28.5767 Y30.9717
G01 X28.6457 Y31.0127
G01 X28.6501 Y31.0157
G01 X28.7144 Y31.0637
G01 X28.7698 Y31.1140
G01 X28.7852 Y31.1306
G01 X40.0729 Y31.1306
G01 X41.3367 Y29.8667
G01 X41.3367 Y29.3710
G01 X40.8840 Y29.3710
G01 X40.8786 Y29.3707
G01 X40.8733 Y29.3699
G01 X40.8680 Y29.3686
G01 X40.8630 Y29.3668
G01 X40.8581 Y29.3645
G01 X40.8534 Y29.3617
G01 X40.8491 Y29.3585
G01 X40.8451 Y29.3549
G01 X40.8415 Y29.3509
G01 X40.8383 Y29.3466
G01 X40.8355 Y29.3419
G01 X40.8332 Y29.3370
G01 X40.8314 Y29.3320
G01 X40.8301 Y29.3267
G01 X40.8293 Y29.3214
G01 X40.8290 Y29.3160
G01 X40.8290 Y27.2840
G01 X40.8293 Y27.2786
G01 X40.8301 Y27.2733
G01 X40.8314 Y27.2680
G01 X40.8332 Y27.2630
G01 X40.8355 Y27.2581
G01 X40.8383 Y27.2534
G01 X40.8415 Y27.2491
G01 X40.8451 Y27.2451
G01 X40.8491 Y27.2415
G01 X40.8534 Y27.2383
G01 X40.8581 Y27.2355
G01 X40.8630 Y27.2332
G01 X40.8680 Y27.2314
G01 X40.8733 Y27.2301
G01 X40.8786 Y27.2293
G01 X40.8840 Y27.2290
G01 X40.9556 Y27.2290
G01 X40.9556 Y26.0000
G01 X40.9599 Y25.9101
G01 X40.9732 Y25.8184
G01 X40.9955 Y25.7284
G01 X41.0265 Y25.6411
G01 X41.0659 Y25.5572
G01 X41.1133 Y25.4776
G01 X41.1163 Y25.4731
G01 X41.1717 Y25.3988
G01 X41.2322 Y25.3322
G01 X44.0822 Y22.4822
G01 X44.1488 Y22.4217
G01 X44.1530 Y22.4183
G01 X44.2276 Y22.3633
G01 X44.3072 Y22.3159
G01 X44.3861 Y22.2785
G01 X44.3911 Y22.2765
G01 X44.4784 Y22.2455
G01 X44.5631 Y22.2243
G01 X44.6547 Y22.2104
G01 X44.6601 Y22.2099
G01 X44.7500 Y22.2056
G01 X52.5288 Y22.2056
G01 X52.5288 Y20.3935
G01 X52.5349 Y20.2690
G01 X52.5355 Y20.2636
G01 X52.5538 Y20.1402
G01 X52.5548 Y20.1349
G01 X52.5851 Y20.0140
G01 X52.5867 Y20.0088
G01 X52.6287 Y19.8914
G01 X52.6308 Y19.8864
G01 X52.6841 Y19.7737
G01 X52.6866 Y19.7690
G01 X52.7507 Y19.6620
G01 X52.7537 Y19.6575
G01 X52.8280 Y19.5574
G01 X52.8314 Y19.5532
G01 X52.9152 Y19.4608
G01 X52.9190 Y19.4570
G01 X53.0114 Y19.3732
G01 X53.0155 Y19.3698
G01 X53.1157 Y19.2955
G01 X53.1202 Y19.2925
G01 X53.2271 Y19.2284
G01 X53.2319 Y19.2259
G01 X53.3446 Y19.1726
G01 X53.3496 Y19.1705
G01 X53.4670 Y19.1285
G01 X53.4722 Y19.1269
G01 X53.5931 Y19.0966
G01 X53.5984 Y19.0956
G01 X53.7218 Y19.0773
G01 X53.7271 Y19.0767
G01 X53.8544 Y19.0706
G01 X63.5744 Y19.0706
G01 X63.5744 Y16.1161
G01 X63.5088 Y16.0067
G01 X63.5062 Y16.0019
G01 X63.4423 Y15.8667
G01 X63.4402 Y15.8617
G01 X63.3898 Y15.7209
G01 X63.3883 Y15.7158
G01 X63.3519 Y15.5707
G01 X63.3509 Y15.5654
G01 X63.3289 Y15.4174
G01 X63.3284 Y15.4121
G01 X63.3211 Y15.2627
G01 X63.3211 Y15.2573
G01 X63.3284 Y15.1079
G01 X63.3289 Y15.1026
G01 X63.3509 Y14.9546
G01 X63.3519 Y14.9493
G01 X63.3883 Y14.8042
G01 X63.3898 Y14.7991
G01 X63.4402 Y14.6583
G01 X63.4423 Y14.6533
G01 X63.5062 Y14.5181
G01 X63.5088 Y14.5133
G01 X63.5857 Y14.3850
G01 X63.5887 Y14.3805
G01 X63.6778 Y14.2604
G01 X63.6812 Y14.2562
G01 X63.7816 Y14.1454
G01 X63.7854 Y14.1416
G01 X63.8962 Y14.0412
G01 X63.9004 Y14.0378
G01 X64.0205 Y13.9487
G01 X64.0250 Y13.9457
G01 X64.1533 Y13.8688
G01 X64.1581 Y13.8662
G01 X64.2933 Y13.8023
G01 X64.2983 Y13.8002
G01 X64.4391 Y13.7498
G01 X64.4442 Y13.7483
G01 X64.5893 Y13.7119
G01 X64.5946 Y13.7109
G01 X64.7426 Y13.6889
G01 X64.7479 Y13.6884
G01 X64.8973 Y13.6811
G01 X64.9027 Y13.6811
G01 X65.0521 Y13.6884
G01 X65.0574 Y13.6889
G01 X65.2054 Y13.7109
G01 X65.2107 Y13.7119
G01 X65.3558 Y13.7483
G01 X65.3609 Y13.7498
G01 X65.5017 Y13.8002
G01 X65.5067 Y13.8023
G01 X65.6419 Y13.8662
G01 X65.6467 Y13.8688
G01 X65.7750 Y13.9457
G01 X65.7795 Y13.9487
G01 X65.8996 Y14.0378
G01 X65.9038 Y14.0412
G01 X66.0146 Y14.1416
G01 X66.0184 Y14.1454
G01 X66.1188 Y14.2562
G01 X66.1222 Y14.2604
G01 X66.2113 Y14.3805
G01 X66.2143 Y14.3850
G01 X66.2912 Y14.5133
G01 X66.2938 Y14.5181
G01 X66.3577 Y14.6533
G01 X66.3598 Y14.6583
G01 X66.4102 Y14.7991
G01 X66.4117 Y14.8042
G01 X66.4481 Y14.9493
G01 X66.4491 Y14.9546
G01 X66.4711 Y15.1026
G01 X66.4716 Y15.1079
G01 X66.4789 Y15.2573
G01 X66.4789 Y15.2627
G01 X66.4716 Y15.4121
G01 X66.4711 Y15.4174
G01 X66.4491 Y15.5654
G01 X66.4481 Y15.5707
G01 X66.4117 Y15.7158
G01 X66.4102 Y15.7209
G01 X66.3598 Y15.8617
G01 X66.3577 Y15.8667
G01 X66.2938 Y16.0019
G01 X66.2912 Y16.0067
G01 X66.2256 Y16.1161
G01 X66.2256 Y19.4012
G01 X66.3113 Y19.5167
G01 X66.3143 Y19.5212
G01 X66.3912 Y19.6495
G01 X66.3938 Y19.6543
G01 X66.4577 Y19.7895
G01 X66.4598 Y19.7945
G01 X66.5102 Y19.9353
G01 X66.5117 Y19.9404
G01 X66.5481 Y20.0855
G01 X66.5491 Y20.0908
G01 X66.5711 Y20.2388
G01 X66.5716 Y20.2441
G01 X66.5789 Y20.3935
G01 X66.5789 Y20.3989
G01 X66.5716 Y20.5483
G01 X66.5711 Y20.5536
G01 X66.5491 Y20.7016
G01 X66.5481 Y20.7069
G01 X66.5117 Y20.8520
G01 X66.5102 Y20.8571
G01 X66.4598 Y20.9979
G01 X66.4577 Y21.0029
G01 X66.3938 Y21.1381
G01 X66.3912 Y21.1429
G01 X66.3143 Y21.2712
G01 X66.3113 Y21.2757
G01 X66.2222 Y21.3958
G01 X66.2188 Y21.4000
G01 X66.1184 Y21.5108
G01 X66.1146 Y21.5146
G01 X66.0038 Y21.6150
G01 X65.9996 Y21.6184
G01 X65.8795 Y21.7075
G01 X65.8750 Y21.7105
G01 X65.7467 Y21.7874
G01 X65.7419 Y21.7900
G01 X65.6067 Y21.8539
G01 X65.6017 Y21.8560
G01 X65.4609 Y21.9064
G01 X65.4558 Y21.9079
G01 X65.3107 Y21.9443
G01 X65.3054 Y21.9453
G01 X65.1574 Y21.9673
G01 X65.1521 Y21.9678
G01 X65.0027 Y21.9751
G01 X64.9973 Y21.9751
G01 X64.8479 Y21.9678
G01 X64.8426 Y21.9673
G01 X64.6946 Y21.9453
G01 X64.6893 Y21.9443
G01 X64.5442 Y21.9079
G01 X64.5391 Y21.9064
G01 X64.3983 Y21.8560
G01 X64.3933 Y21.8539
G01 X64.2581 Y21.7900
G01 X64.2533 Y21.7874
G01 X64.1439 Y21.7218
G01 X55.1800 Y21.7218
G01 X55.1800 Y23.0456
G01 X55.1738 Y23.1729
G01 X55.1733 Y23.1782
G01 X55.1550 Y23.3016
G01 X55.1540 Y23.3069
G01 X55.1237 Y23.4278
G01 X55.1221 Y23.4330
G01 X55.0801 Y23.5504
G01 X55.0780 Y23.5554
G01 X55.0247 Y23.6681
G01 X55.0222 Y23.6729
G01 X54.9581 Y23.7798
G01 X54.9551 Y23.7843
G01 X54.8808 Y23.8845
G01 X54.8774 Y23.8886
G01 X54.7936 Y23.9810
G01 X54.5354 Y24.2392
G01 X54.4430 Y24.3230
G01 X54.4388 Y24.3264
G01 X54.3387 Y24.4007
G01 X54.3342 Y24.4037
G01 X54.2272 Y24.4678
G01 X54.2225 Y24.4703
G01 X54.1098 Y24.5236
G01 X54.1048 Y24.5257
G01 X53.9874 Y24.5677
G01 X53.9822 Y24.5693
G01 X53.8613 Y24.5996
G01 X53.8560 Y24.6006
G01 X53.7326 Y24.6189
G01 X53.7272 Y24.6195
G01 X53.6027 Y24.6256
G01 X53.5973 Y24.6256
G01 X53.4728 Y24.6195
G01 X53.4674 Y24.6189
G01 X53.3440 Y24.6006
G01 X53.3387 Y24.5996
G01 X53.2178 Y24.5693
G01 X53.2126 Y24.5677
G01 X53.0952 Y24.5257
G01 X53.0902 Y24.5236
G01 X52.9775 Y24.4703
G01 X52.9728 Y24.4678
G01 X52.8658 Y24.4037
G01 X52.8613 Y24.4007
G01 X52.7612 Y24.3264
G01 X52.7570 Y24.3230
G01 X52.6646 Y24.2392
G01 X52.6608 Y24.2354
G01 X52.5770 Y24.1430
G01 X52.5407 Y24.0944
G01 X45.1412 Y24.0944
G01 X42.8444 Y26.3912
G01 X42.8444 Y27.2290
G01 X42.9160 Y27.2290
G01 X42.9214 Y27.2293
G01 X42.9267 Y27.2301
G01 X42.9320 Y27.2314
G01 X42.9370 Y27.2332
G01 X42.9419 Y27.2355
G01 X42.9466 Y27.2383
G01 X42.9509 Y27.2415
G01 X42.9549 Y27.2451
G01 X42.9585 Y27.2491
G01 X42.9617 Y27.2534
G01 X42.9645 Y27.2581
G01 X42.9668 Y27.2630
G01 X42.9686 Y27.2680
G01 X42.9699 Y27.2733
G01 X42.9707 Y27.2786
G01 X42.9710 Y27.2840
G01 X42.9710 Y29.3160
G01 X42.9707 Y29.3214
G01 X42.9699 Y29.3267
G01 X42.9686 Y29.3320
G01 X42.9668 Y29.3370
G01 X42.9645 Y29.3419
G01 X42.9617 Y29.3466
G01 X42.9585 Y29.3509
G01 X42.9549 Y29.3549
G01 X42.9509 Y29.3585
G01 X42.9466 Y29.3617
G01 X42.9419 Y29.3645
G01 X42.9370 Y29.3668
G01 X42.9320 Y29.3686
G01 X42.9267 Y29.3699
G01 X42.9214 Y29.3707
G01 X42.9160 Y29.3710
G01 X42.4633 Y29.3710
G01 X42.4633 Y30.1000
G01 X42.4607 Y30.1525
G01 X42.4529 Y30.2072
G01 X42.4518 Y30.2125
G01 X42.4397 Y30.2609
G01 X42.4214 Y30.3130
G01 X42.3980 Y30.3631
G01 X42.3954 Y30.3679
G01 X42.3668 Y30.4151
G01 X42.3336 Y30.4594
G01 X42.2983 Y30.4983
G01 X40.7045 Y32.0921
G01 X40.6614 Y32.1309
G01 X40.6168 Y32.1636
G01 X40.5740 Y32.1892
G01 X40.5242 Y32.2131
G01 X40.4722 Y32.2320
G01 X40.4671 Y32.2335
G01 X40.4187 Y32.2457
G01 X40.3641 Y32.2540
G01 X40.3062 Y32.2571
G01 X28.7852 Y32.2571
G01 X28.7718 Y32.2718
G01 X28.6922 Y32.3514
G01 X28.6348 Y32.4035
G01 X28.5705 Y32.4515
G01 X28.5660 Y32.4545
G01 X28.4971 Y32.4955
G01 X28.4245 Y32.5296
G01 X28.3489 Y32.5564
G01 X28.2763 Y32.5745
G01 X28.1970 Y32.5866
G01 X28.1916 Y32.5871
G01 X28.1142 Y32.5908
G01 X4.5735 Y32.5908
G01 X4.4960 Y32.5871
G01 X4.4907 Y32.5866
G01 X4.4114 Y32.5745
G01 X4.3388 Y32.5564
G01 X4.2632 Y32.5296
G01 X4.2582 Y32.5275
G01 X4.1858 Y32.4930
G01 X4.1171 Y32.4515
G01 X4.0570 Y32.4070
G01 X3.9974 Y32.3533
G01 X1.9220 Y30.2780
G01 X1.8699 Y30.2206
G01 X1.8219 Y30.1563
G01 X1.8189 Y30.1518
G01 X1.7779 Y30.0829
G01 X1.7459 Y30.0153
G01 X1.7187 Y29.9398
G01 X1.6989 Y29.8621
G01 X1.6869 Y29.7828
G01 X1.6864 Y29.7774
G01 X1.6826 Y29.7000
G01 X1.6826 Y5.4389
G01 X1.6864 Y5.3615
G01 X1.6979 Y5.2821
G01 X1.7171 Y5.2042
G01 X1.7439 Y5.1286
G01 X1.7779 Y5.0560
G01 X1.8189 Y4.9870
G01 X1.8665 Y4.9225
G01 X1.8699 Y4.9183
G01 X1.9220 Y4.8609
G01 X4.6009 Y2.1820
G01 X4.6583 Y2.1299
G01 X4.6625 Y2.1265
G01 X4.7270 Y2.0789
G01 X4.7960 Y2.0379
G01 X4.8636 Y2.0059
G01 X4.9390 Y1.9787
G01 X4.9442 Y1.9771
G01 X5.0221 Y1.9579
G01 X5.1015 Y1.9464
G01 X5.1789 Y1.9426
G01 X23.4000 Y1.9426
G01 X23.4774 Y1.9464
G01 X23.4828 Y1.9469
G01 X23.5621 Y1.9589
G01 X23.6347 Y1.9771
G01 X23.7103 Y2.0039
G01 X23.7153 Y2.0059
G01 X23.7829 Y2.0379
G01 X23.7919 Y2.0430
G01 X24.3652 Y2.0430
G01 X24.3706 Y2.0433
G01 X24.3759 Y2.0441
G01 X24.3812 Y2.0454
G01 X24.3862 Y2.0472
G01 X24.3911 Y2.0495
G01 X24.3958 Y2.0523
G01 X24.4001 Y2.0555
G01 X24.4041 Y2.0591
G01 X24.4876 Y2.1426
G01 X35.3000 Y2.1426
G01 X35.3091 Y2.1430
G01 X36.2652 Y2.1430
G01 X36.2706 Y2.1433
G01 X36.2759 Y2.1441
G01 X36.2812 Y2.1454
G01 X36.2862 Y2.1472
G01 X36.2911 Y2.1495
G01 X36.2958 Y2.1523
G01 X36.3001 Y2.1555
G01 X36.3041 Y2.1591
G01 X36.5130 Y2.3680
G01 X37.3234 Y2.3680
G01 X37.3760 Y2.3705
G01 X37.4307 Y2.3784
G01 X37.4844 Y2.3916
G01 X37.5365 Y2.4099
G01 X37.5866 Y2.4333
G01 X37.5913 Y2.4359
G01 X37.6386 Y2.4645
G01 X37.6828 Y2.4976
G01 X37.7217 Y2.5330
G01 X38.3983 Y3.2095
G01 X38.4371 Y3.2526
G01 X38.4698 Y3.2972
G01 X38.4980 Y3.3447
G01 X38.5193 Y3.3898
G01 X38.5382 Y3.4418
G01 X38.5397 Y3.4469
G01 X38.5529 Y3.5006
G01 X38.5607 Y3.5553
G01 X38.5633 Y3.6078
G01 X38.5633 Y14.4667
G01 X39.7461 Y15.6495
G01 X39.7579 Y15.6442
G01 X39.8334 Y15.6175
G01 X39.9113 Y15.5982
G01 X39.9906 Y15.5867
G01 X40.0707 Y15.5831
G01 X40.1508 Y15.5873
G01 X40.2300 Y15.5993
G01 X40.3077 Y15.6190
G01 X40.3831 Y15.6463
G01 X40.4507 Y15.6783
G01 X40.5196 Y15.7192
G01 X40.5842 Y15.7668
G01 X40.6438 Y15.8204
G01 X40.6978 Y15.8797
G01 X40.7458 Y15.9439
G01 X40.7872 Y16.0125
G01 X40.8217 Y16.0849
G01 X40.8238 Y16.0899
G01 X40.8505 Y16.1654
G01 X40.8698 Y16.2433
G01 X40.8813 Y16.3226
G01 X40.8849 Y16.3973
G01 X40.8849 Y16.4027
G01 X40.8807 Y16.4828
G01 X40.8687 Y16.5620
G01 X40.8505 Y16.6346
G01 X40.8238 Y16.7101
G01 X40.7897 Y16.7827
G01 X40.7488 Y16.8516
G01 X40.7458 Y16.8561
G01 X40.6978 Y16.9203
G01 X40.6438 Y16.9796
G01 X40.5883 Y17.0298
G01 X40.5241 Y17.0778
G01 X40.5196 Y17.0808
G01 X40.4507 Y17.1217
G01 X40.3781 Y17.1558
G01 X40.3026 Y17.1825
G01 X40.2300 Y17.2007
G01 X40.1508 Y17.2127
G01 X40.0707 Y17.2169
G01 X39.9906 Y17.2133
G01 X39.9113 Y17.2018
G01 X39.8334 Y17.1825
G01 X39.7579 Y17.1558
G01 X39.6853 Y17.1217
G01 X39.6164 Y17.0808
G01 X39.6119 Y17.0778
G01 X39.5477 Y17.0298
G01 X39.4884 Y16.9758
G01 X39.4382 Y16.9203
G01 X39.4092 Y16.8817
G01 X39.3849 Y16.8668
G01 X39.3448 Y16.8371
G01 X39.3017 Y16.7983
G01 X37.5999 Y15.0963
G01 X37.5629 Y15.0552
G01 X37.5302 Y15.0106
G01 X37.5046 Y14.9679
G01 X37.5020 Y14.9631
G01 X37.4786 Y14.9130
G01 X37.4603 Y14.8609
G01 X37.4482 Y14.8125
G01 X37.4398 Y14.7579
G01 X37.4367 Y14.7000
G01 X37.4367 Y3.8411
G01 X37.0901 Y3.4945
G01 X36.5704 Y3.4945
G01 X36.3041 Y3.7609
G01 X36.3001 Y3.7645
G01 X36.2958 Y3.7677
G01 X36.2911 Y3.7705
G01 X36.2862 Y3.7728
G01 X36.2812 Y3.7746
G01 X36.2759 Y3.7759
G01 X36.2706 Y3.7767
G01 X36.2652 Y3.7770
G01 X35.3091 Y3.7770
G01 X35.3000 Y3.7774
G01 X23.4000 Y3.7774
G01 X23.3226 Y3.7736
G01 X23.3172 Y3.7731
G01 X23.2379 Y3.7611
G01 X23.1653 Y3.7429
G01 X23.0897 Y3.7161
G01 X23.0847 Y3.7141
G01 X23.0171 Y3.6821
G01 X23.0081 Y3.6770
G01 X22.4348 Y3.6770
G01 X22.4294 Y3.6767
G01 X22.4241 Y3.6759
G01 X22.4188 Y3.6746
G01 X22.4138 Y3.6728
G01 X22.4089 Y3.6705
G01 X22.4042 Y3.6677
G01 X22.3999 Y3.6645
G01 X22.3959 Y3.6609
G01 X22.3124 Y3.5774
G01 X5.5175 Y3.5774
G01 X3.3174 Y5.7775
G01 X3.3174 Y29.3614
G01 X4.9120 Y30.9561
G01 X26.6595 Y30.9561
G01 X26.1449 Y30.4415
G01 X26.1063 Y30.4509
G01 X26.0077 Y30.4655
G01 X26.0023 Y30.4660
G01 X25.9027 Y30.4709
G01 X25.8973 Y30.4709
G01 X25.7977 Y30.4660
G01 X25.7923 Y30.4655
G01 X25.6937 Y30.4509
G01 X25.6884 Y30.4498
G01 X25.5917 Y30.4256
G01 X25.5865 Y30.4240
G01 X25.4927 Y30.3904
G01 X25.4877 Y30.3884
G01 X25.3975 Y30.3458
G01 X25.3928 Y30.3432
G01 X25.3073 Y30.2919
G01 X25.3028 Y30.2889
G01 X25.2227 Y30.2296
G01 X25.2185 Y30.2261
G01 X25.1446 Y30.1592
G01 X25.1408 Y30.1554
G01 X25.0739 Y30.0815
G01 X25.0704 Y30.0773
G01 X25.0111 Y29.9972
G01 X25.0081 Y29.9927
G01 X24.9568 Y29.9072
G01 X24.9229 Y29.8362
G01 X21.0000 Y29.8362
G01 X20.9546 Y29.8338
G01 X20.9123 Y29.8272
G01 X20.8708 Y29.8166
G01 X20.8306 Y29.8019
G01 X20.7920 Y29.7834
G01 X20.7555 Y29.7611
G01 X20.7212 Y29.7354
G01 X20.6916 Y29.7084
G01 X19.7001 Y28.7170
G01 X18.5348 Y28.7170
G01 X18.5294 Y28.7167
G01 X18.5241 Y28.7159
G01 X18.5188 Y28.7146
G01 X18.5138 Y28.7128
G01 X18.5089 Y28.7105
G01 X18.5042 Y28.7077
G01 X18.4999 Y28.7045
G01 X18.4959 Y28.7009
G01 X18.1911 Y28.3961
G01 X18.1875 Y28.3921
G01 X18.1843 Y28.3878
G01 X18.1815 Y28.3831
G01 X18.1792 Y28.3782
G01 X18.1774 Y28.3732
G01 X18.1761 Y28.3679
G01 X18.1753 Y28.3626
G01 X18.1750 Y28.3572
G01 X18.1750 Y27.4428
G01 X18.1753 Y27.4374
G01 X18.1761 Y27.4321
G01 X18.1774 Y27.4268
G01 X18.1792 Y27.4218
G01 X18.1815 Y27.4169
G01 X18.1843 Y27.4122
G01 X18.1875 Y27.4079
G01 X18.1911 Y27.4039
G01 X18.4959 Y27.0991
G01 X18.4999 Y27.0955
G01 X18.5042 Y27.0923
G01 X18.5089 Y27.0895
G01 X18.5138 Y27.0872
G01 X18.5188 Y27.0854
G01 X18.5241 Y27.0841
G01 X18.5294 Y27.0833
G01 X18.5348 Y27.0830
G01 X20.4652 Y27.0830
G01 X20.4706 Y27.0833
G01 X20.4759 Y27.0841
G01 X20.4812 Y27.0854
G01 X20.4862 Y27.0872
G01 X20.4911 Y27.0895
G01 X20.4958 Y27.0923
G01 X20.5001 Y27.0955
G01 X20.5041 Y27.0991
G01 X20.8089 Y27.4039
G01 X20.8125 Y27.4079
G01 X20.8157 Y27.4122
G01 X20.8185 Y27.4169
G01 X20.8208 Y27.4218
G01 X20.8226 Y27.4268
G01 X20.8239 Y27.4321
G01 X20.8247 Y27.4374
G01 X20.8250 Y27.4428
G01 X20.8250 Y28.3572
G01 X20.8247 Y28.3626
G01 X20.8239 Y28.3679
G01 X20.8226 Y28.3732
G01 X20.8208 Y28.3782
G01 X20.8185 Y28.3831
G01 X20.8157 Y28.3878
G01 X20.8125 Y28.3921
G01 X20.8089 Y28.3961
G01 X20.7109 Y28.4941
G01 X21.1807 Y28.9638
G01 X24.9229 Y28.9638
G00 Z2.0000
G00 X13.1841 Y27.3991
G01 F25.00
G01 Z-0.0187
G01 F45.00
G01 X14.8759 Y25.7072
G01 X14.9098 Y25.6768
G01 X14.9443 Y25.6515
G01 X14.9764 Y25.6323
G01 X15.0150 Y25.6137
G01 X15.0200 Y25.6117
G01 X15.0552 Y25.5991
G01 X15.0941 Y25.5891
G01 X16.4638 Y24.2193
G01 X16.4638 Y21.1000
G01 X16.4662 Y21.0546
G01 X16.4728 Y21.0123
G01 X16.4834 Y20.9708
G01 X16.4981 Y20.9306
G01 X16.5166 Y20.8920
G01 X16.5389 Y20.8555
G01 X16.5646 Y20.8212
G01 X16.5916 Y20.7916
G01 X17.4116 Y19.9716
G01 X17.4412 Y19.9446
G01 X17.4755 Y19.9189
G01 X17.5120 Y19.8966
G01 X17.5506 Y19.8781
G01 X17.5556 Y19.8760
G01 X17.5960 Y19.8619
G01 X17.6323 Y19.8528
G01 X17.6746 Y19.8462
G01 X17.7200 Y19.8438
G01 X18.1750 Y19.8438
G01 X18.1753 Y19.8174
G01 X18.1761 Y19.8121
G01 X18.1774 Y19.8068
G01 X18.1792 Y19.8018
G01 X18.1815 Y19.7969
G01 X18.1843 Y19.7922
G01 X18.1875 Y19.7879
G01 X18.1911 Y19.7839
G01 X18.4959 Y19.4791
G01 X18.4999 Y19.4755
G01 X18.5042 Y19.4723
G01 X18.5089 Y19.4695
G01 X18.5138 Y19.4672
G01 X18.5188 Y19.4654
G01 X18.5241 Y19.4641
G01 X18.5294 Y19.4633
G01 X18.5348 Y19.4630
G01 X20.4652 Y19.4630
G01 X20.4706 Y19.4633
G01 X20.4759 Y19.4641
G01 X20.4812 Y19.4654
G01 X20.4862 Y19.4672
G01 X20.4911 Y19.4695
G01 X20.4958 Y19.4723
G01 X20.5001 Y19.4755
G01 X20.5041 Y19.4791
G01 X20.8089 Y19.7839
G01 X20.8125 Y19.7879
G01 X20.8157 Y19.7922
G01 X20.8185 Y19.7969
G01 X20.8208 Y19.8018
G01 X20.8226 Y19.8068
G01 X20.8239 Y19.8121
G01 X20.8247 Y19.8174
G01 X20.8250 Y19.8228
G01 X20.8250 Y20.7372
G01 X20.8247 Y20.7426
G01 X20.8239 Y20.7479
G01 X20.8226 Y20.7532
G01 X20.8208 Y20.7582
G01 X20.8185 Y20.7631
G01 X20.8157 Y20.7678
G01 X20.8125 Y20.7721
G01 X20.8089 Y20.7761
G01 X20.5041 Y21.0809
G01 X20.5001 Y21.0845
G01 X20.4958 Y21.0877
G01 X20.4911 Y21.0905
G01 X20.4862 Y21.0928
G01 X20.4812 Y21.0946
G01 X20.4759 Y21.0959
G01 X20.4706 Y21.0967
G01 X20.4652 Y21.0970
G01 X18.5348 Y21.0970
G01 X18.5294 Y21.0967
G01 X18.5241 Y21.0959
G01 X18.5188 Y21.0946
G01 X18.5138 Y21.0928
G01 X18.5089 Y21.0905
G01 X18.5042 Y21.0877
G01 X18.4999 Y21.0845
G01 X18.4959 Y21.0809
G01 X18.1911 Y20.7761
G01 X18.1875 Y20.7721
G01 X18.1843 Y20.7678
G01 X18.1815 Y20.7631
G01 X18.1792 Y20.7582
G01 X18.1774 Y20.7532
G01 X18.1761 Y20.7479
G01 X18.1753 Y20.7426
G01 X18.1750 Y20.7162
G01 X17.9007 Y20.7162
G01 X17.3362 Y21.2807
G01 X17.3362 Y23.7909
G01 X20.4000 Y23.7909
G01 X20.4276 Y23.7922
G01 X20.4576 Y23.7964
G01 X20.4629 Y23.7974
G01 X20.4871 Y23.8035
G01 X20.5158 Y23.8134
G01 X20.5208 Y23.8155
G01 X20.5481 Y23.8287
G01 X20.5739 Y23.8445
G01 X20.5940 Y23.8594
G01 X20.6186 Y23.8814
G01 X20.8280 Y24.0909
G01 X26.9720 Y24.0909
G01 X27.1814 Y23.8814
G01 X27.2060 Y23.8594
G01 X27.2305 Y23.8415
G01 X27.2519 Y23.8287
G01 X27.2792 Y23.8155
G01 X27.2842 Y23.8134
G01 X27.3129 Y23.8035
G01 X27.3424 Y23.7964
G01 X27.3724 Y23.7922
G01 X27.4000 Y23.7909
G01 X29.3161 Y23.7909
G01 X29.3414 Y23.7683
G01 X29.4116 Y23.7163
G01 X29.4367 Y23.7009
G01 X29.4367 Y12.2562
G01 X29.3991 Y12.2280
G01 X29.3344 Y12.1694
G01 X29.3306 Y12.1656
G01 X29.2686 Y12.0967
G01 X29.2136 Y12.0222
G01 X29.1663 Y11.9426
G01 X29.1290 Y11.8637
G01 X29.0975 Y11.7766
G01 X29.0959 Y11.7714
G01 X29.0737 Y11.6815
G01 X29.0603 Y11.5898
G01 X29.0561 Y11.5027
G01 X29.0603 Y11.4102
G01 X29.0737 Y11.3185
G01 X29.0959 Y11.2286
G01 X29.1269 Y11.1413
G01 X29.1663 Y11.0574
G01 X29.2136 Y10.9778
G01 X29.2686 Y10.9033
G01 X29.3306 Y10.8344
G01 X29.3991 Y10.7720
G01 X29.4733 Y10.7166
G01 X29.5527 Y10.6688
G01 X29.6363 Y10.6290
G01 X29.7234 Y10.5975
G01 X29.8132 Y10.5747
G01 X29.9048 Y10.5609
G01 X29.9973 Y10.5561
G01 X30.0898 Y10.5603
G01 X30.1815 Y10.5737
G01 X30.2714 Y10.5959
G01 X30.2766 Y10.5975
G01 X30.3637 Y10.6290
G01 X30.4426 Y10.6663
G01 X30.5222 Y10.7136
G01 X30.5967 Y10.7686
G01 X30.6656 Y10.8306
G01 X30.7280 Y10.8991
G01 X30.7834 Y10.9733
G01 X30.8312 Y11.0527
G01 X30.8710 Y11.1363
G01 X30.9025 Y11.2234
G01 X30.9041 Y11.2286
G01 X30.9263 Y11.3185
G01 X30.9397 Y11.4102
G01 X30.9439 Y11.5027
G01 X30.9397 Y11.5898
G01 X30.9263 Y11.6815
G01 X30.9041 Y11.7714
G01 X30.9025 Y11.7766
G01 X30.8710 Y11.8637
G01 X30.8337 Y11.9426
G01 X30.7864 Y12.0222
G01 X30.7314 Y12.0967
G01 X30.6694 Y12.1656
G01 X30.6656 Y12.1694
G01 X30.6009 Y12.2280
G01 X30.5633 Y12.2562
G01 X30.5633 Y23.7931
G01 X30.6082 Y23.8341
G01 X30.6702 Y23.9030
G01 X30.7252 Y23.9776
G01 X30.7726 Y24.0572
G01 X30.8099 Y24.1361
G01 X30.8414 Y24.2233
G01 X30.8642 Y24.3131
G01 X30.8780 Y24.4047
G01 X30.8786 Y24.4101
G01 X30.8829 Y24.5000
G01 X30.8829 Y26.5008
G01 X31.0377 Y26.6556
G01 X35.1790 Y26.6556
G01 X35.2411 Y26.6265
G01 X35.3233 Y26.5971
G01 X35.4131 Y26.5743
G01 X35.4184 Y26.5732
G01 X35.5101 Y26.5599
G01 X35.5973 Y26.5556
G01 X35.6027 Y26.5556
G01 X35.6953 Y26.5604
G01 X35.7869 Y26.5743
G01 X35.8716 Y26.5955
G01 X35.9589 Y26.6265
G01 X36.0428 Y26.6659
G01 X36.1224 Y26.7133
G01 X36.1269 Y26.7163
G01 X36.2012 Y26.7717
G01 X36.2678 Y26.8322
G01 X36.7912 Y27.3556
G01 X38.2890 Y27.3556
G01 X38.2890 Y27.2840
G01 X38.2893 Y27.2786
G01 X38.2901 Y27.2733
G01 X38.2914 Y27.2680
G01 X38.2932 Y27.2630
G01 X38.2955 Y27.2581
G01 X38.2983 Y27.2534
G01 X38.3015 Y27.2491
G01 X38.3051 Y27.2451
G01 X38.3091 Y27.2415
G01 X38.3134 Y27.2383
G01 X38.3181 Y27.2355
G01 X38.3230 Y27.2332
G01 X38.3280 Y27.2314
G01 X38.3333 Y27.2301
G01 X38.3386 Y27.2293
G01 X38.3440 Y27.2290
G01 X40.3760 Y27.2290
G01 X40.3814 Y27.2293
G01 X40.3867 Y27.2301
G01 X40.3920 Y27.2314
G01 X40.3970 Y27.2332
G01 X40.4019 Y27.2355
G01 X40.4066 Y27.2383
G01 X40.4109 Y27.2415
G01 X40.4149 Y27.2451
G01 X40.4185 Y27.2491
G01 X40.4217 Y27.2534
G01 X40.4245 Y27.2581
G01 X40.4268 Y27.2630
G01 X40.4286 Y27.2680
G01 X40.4299 Y27.2733
G01 X40.4307 Y27.2786
G01 X40.4310 Y27.2840
G01 X40.4310 Y29.3160
G01 X40.4307 Y29.3214
G01 X40.4299 Y29.3267
G01 X40.4286 Y29.3320
G01 X40.4268 Y29.3370
G01 X40.4245 Y29.3419
G01 X40.4217 Y29.3466
G01 X40.4185 Y29.3509
G01 X40.4149 Y29.3549
G01 X40.4109 Y29.3585
G01 X40.4066 Y29.3617
G01 X40.4019 Y29.3645
G01 X40.3970 Y29.3668
G01 X40.3920 Y29.3686
G01 X40.3867 Y29.3699
G01 X40.3814 Y29.3707
G01 X40.3760 Y29.3710
G01 X38.3440 Y29.3710
G01 X38.3386 Y29.3707
G01 X38.3333 Y29.3699
G01 X38.3280 Y29.3686
G01 X38.3230 Y29.3668
G01 X38.3181 Y29.3645
G01 X38.3134 Y29.3617
G01 X38.3091 Y29.3585
G01 X38.3051 Y29.3549
G01 X38.3015 Y29.3509
G01 X38.2983 Y29.3466
G01 X38.2955 Y29.3419
G01 X38.2932 Y29.3370
G01 X38.2914 Y29.3320
G01 X38.2901 Y29.3267
G01 X38.2893 Y29.3214
G01 X38.2890 Y29.3160
G01 X38.2890 Y29.2444
G01 X36.4000 Y29.2444
G01 X36.3101 Y29.2401
G01 X36.2184 Y29.2268
G01 X36.2131 Y29.2257
G01 X36.1233 Y29.2029
G01 X36.0361 Y29.1715
G01 X35.9572 Y29.1341
G01 X35.8776 Y29.0867
G01 X35.8030 Y29.0317
G01 X35.7988 Y29.0283
G01 X35.7322 Y28.9678
G01 X35.3088 Y28.5444
G01 X30.6465 Y28.5444
G01 X30.5566 Y28.5401
G01 X30.5512 Y28.5396
G01 X30.4596 Y28.5257
G01 X30.3698 Y28.5029
G01 X30.2826 Y28.4715
G01 X30.2037 Y28.4341
G01 X30.1241 Y28.3867
G01 X30.1196 Y28.3837
G01 X30.0453 Y28.3283
G01 X29.9787 Y28.2678
G01 X29.2706 Y27.5598
G01 X29.2102 Y27.4932
G01 X29.2067 Y27.4890
G01 X29.1517 Y27.4144
G01 X29.1043 Y27.3348
G01 X29.0670 Y27.2559
G01 X29.0355 Y27.1687
G01 X29.0128 Y27.0789
G01 X29.0117 Y27.0736
G01 X28.9984 Y26.9818
G01 X28.9940 Y26.8920
G01 X28.9940 Y24.5000
G01 X28.9985 Y24.4091
G01 X27.5280 Y24.4091
G01 X27.3186 Y24.6186
G01 X27.2982 Y24.6372
G01 X27.2739 Y24.6555
G01 X27.2481 Y24.6713
G01 X27.2433 Y24.6738
G01 X27.2208 Y24.6845
G01 X27.1923 Y24.6950
G01 X27.1629 Y24.7026
G01 X27.1576 Y24.7036
G01 X27.1276 Y24.7078
G01 X27.1027 Y24.7091
G01 X20.7000 Y24.7091
G01 X20.6724 Y24.7078
G01 X20.6423 Y24.7036
G01 X20.6370 Y24.7026
G01 X20.6077 Y24.6950
G01 X20.5792 Y24.6845
G01 X20.5567 Y24.6738
G01 X20.5519 Y24.6713
G01 X20.5260 Y24.6555
G01 X20.5018 Y24.6372
G01 X20.4814 Y24.6186
G01 X20.2719 Y24.4091
G01 X17.3358 Y24.4091
G01 X17.3338 Y24.4454
G01 X17.3272 Y24.4877
G01 X17.3166 Y24.5292
G01 X17.3019 Y24.5694
G01 X17.2834 Y24.6080
G01 X17.2611 Y24.6445
G01 X17.2354 Y24.6788
G01 X17.2103 Y24.7065
G01 X15.5928 Y26.3241
G01 X15.5590 Y26.3545
G01 X15.5244 Y26.3798
G01 X15.4923 Y26.3990
G01 X15.4538 Y26.4175
G01 X15.4488 Y26.4196
G01 X15.4136 Y26.4322
G01 X15.3747 Y26.4422
G01 X13.6084 Y28.2084
G01 X13.5788 Y28.2354
G01 X13.5445 Y28.2611
G01 X13.5080 Y28.2834
G01 X13.4694 Y28.3019
G01 X13.4644 Y28.3040
G01 X13.4240 Y28.3181
G01 X13.3824 Y28.3283
G01 X13.3401 Y28.3343
G01 X13.3000 Y28.3362
G01 X13.2050 Y28.3362
G01 X13.2047 Y28.3626
G01 X13.2039 Y28.3679
G01 X13.2026 Y28.3732
G01 X13.2008 Y28.3782
G01 X13.1985 Y28.3831
G01 X13.1957 Y28.3878
G01 X13.1925 Y28.3921
G01 X13.1889 Y28.3961
G01 X12.8841 Y28.7009
G01 X12.8801 Y28.7045
G01 X12.8758 Y28.7077
G01 X12.8711 Y28.7105
G01 X12.8662 Y28.7128
G01 X12.8612 Y28.7146
G01 X12.8559 Y28.7159
G01 X12.8506 Y28.7167
G01 X12.8452 Y28.7170
G01 X10.9148 Y28.7170
G01 X10.9094 Y28.7167
G01 X10.9041 Y28.7159
G01 X10.8988 Y28.7146
G01 X10.8938 Y28.7128
G01 X10.8889 Y28.7105
G01 X10.8842 Y28.7077
G01 X10.8799 Y28.7045
G01 X10.8759 Y28.7009
G01 X10.5711 Y28.3961
G01 X10.5675 Y28.3921
G01 X10.5643 Y28.3878
G01 X10.5615 Y28.3831
G01 X10.5592 Y28.3782
G01 X10.5574 Y28.3732
G01 X10.5561 Y28.3679
G01 X10.5553 Y28.3626
G01 X10.5550 Y28.3362
G01 X8.7368 Y28.3362
G01 X8.7312 Y28.3473
G01 X8.6834 Y28.4267
G01 X8.6280 Y28.5009
G01 X8.5694 Y28.5656
G01 X8.5656 Y28.5694
G01 X8.4967 Y28.6314
G01 X8.4222 Y28.6864
G01 X8.3473 Y28.7312
G01 X8.3426 Y28.7337
G01 X8.2587 Y28.7731
G01 X8.1714 Y28.8041
G01 X8.0868 Y28.8253
G01 X7.9952 Y28.8391
G01 X7.9027 Y28.8439
G01 X7.8973 Y28.8439
G01 X7.8048 Y28.8391
G01 X7.7132 Y28.8253
G01 X7.6234 Y28.8025
G01 X7.5363 Y28.7710
G01 X7.4574 Y28.7337
G01 X7.3778 Y28.6864
G01 X7.3733 Y28.6834
G01 X7.2991 Y28.6280
G01 X7.2306 Y28.5656
G01 X7.1686 Y28.4967
G01 X7.1136 Y28.4222
G01 X7.0663 Y28.3426
G01 X7.0290 Y28.2637
G01 X6.9975 Y28.1766
G01 X6.9959 Y28.1714
G01 X6.9737 Y28.0815
G01 X6.9603 Y27.9898
G01 X6.9561 Y27.8973
G01 X6.9609 Y27.8048
G01 X6.9747 Y27.7132
G01 X6.9975 Y27.6234
G01 X7.0290 Y27.5363
G01 X7.0688 Y27.4527
G01 X7.1166 Y27.3733
G01 X7.1720 Y27.2991
G01 X7.2344 Y27.2306
G01 X7.3033 Y27.1686
G01 X7.3778 Y27.1136
G01 X7.4574 Y27.0663
G01 X7.5413 Y27.0269
G01 X7.6286 Y26.9959
G01 X7.7185 Y26.9737
G01 X7.8102 Y26.9603
G01 X7.8973 Y26.9561
G01 X7.9898 Y26.9603
G01 X8.0815 Y26.9737
G01 X8.0868 Y26.9747
G01 X8.1714 Y26.9959
G01 X8.2587 Y27.0269
G01 X8.2637 Y27.0290
G01 X8.3473 Y27.0688
G01 X8.4267 Y27.1166
G01 X8.4967 Y27.1686
G01 X8.5656 Y27.2306
G01 X8.5694 Y27.2344
G01 X8.6280 Y27.2991
G01 X8.6834 Y27.3733
G01 X8.7312 Y27.4527
G01 X8.7368 Y27.4638
G01 X10.5550 Y27.4638
G01 X10.5553 Y27.4374
G01 X10.5561 Y27.4321
G01 X10.5574 Y27.4268
G01 X10.5592 Y27.4218
G01 X10.5615 Y27.4169
G01 X10.5643 Y27.4122
G01 X10.5675 Y27.4079
G01 X10.5711 Y27.4039
G01 X10.8759 Y27.0991
G01 X10.8799 Y27.0955
G01 X10.8842 Y27.0923
G01 X10.8889 Y27.0895
G01 X10.8938 Y27.0872
G01 X10.8988 Y27.0854
G01 X10.9041 Y27.0841
G01 X10.9094 Y27.0833
G01 X10.9148 Y27.0830
G01 X12.8452 Y27.0830
G01 X12.8506 Y27.0833
G01 X12.8559 Y27.0841
G01 X12.8612 Y27.0854
G01 X12.8662 Y27.0872
G01 X12.8711 Y27.0895
G01 X12.8758 Y27.0923
G01 X12.8801 Y27.0955
G01 X12.8841 Y27.0991
G01 X13.1841 Y27.3991
G00 Z2.0000
G00 X13.2050 Y20.7372
G01 F25.00
G01 Z-0.0187
G01 F45.00
G01 X13.2047 Y20.7426
G01 X13.2039 Y20.7479
G01 X13.2026 Y20.7532
G01 X13.2008 Y20.7582
G01 X13.1985 Y20.7631
G01 X13.1957 Y20.7678
G01 X13.1925 Y20.7721
G01 X13.1889 Y20.7761
G01 X12.8841 Y21.0809
G01 X12.8801 Y21.0845
G01 X12.8758 Y21.0877
G01 X12.8711 Y21.0905
G01 X12.8662 Y21.0928
G01 X12.8612 Y21.0946
G01 X12.8559 Y21.0959
G01 X12.8506 Y21.0967
G01 X12.8452 Y21.0970
G01 X10.9148 Y21.0970
G01 X10.9094 Y21.0967
G01 X10.9041 Y21.0959
G01 X10.8988 Y21.0946
G01 X10.8938 Y21.0928
G01 X10.8889 Y21.0905
G01 X10.8842 Y21.0877
G01 X10.8799 Y21.0845
G01 X10.8759 Y21.0809
G01 X10.5711 Y20.7761
G01 X10.5675 Y20.7721
G01 X10.5643 Y20.7678
G01 X10.5615 Y20.7631
G01 X10.5592 Y20.7582
G01 X10.5574 Y20.7532
G01 X10.5561 Y20.7479
G01 X10.5553 Y20.7426
G01 X10.5550 Y20.7372
G01 X10.5550 Y19.8228
G01 X10.5553 Y19.8174
G01 X10.5561 Y19.8121
G01 X10.5574 Y19.8068
G01 X10.5592 Y19.8018
G01 X10.5615 Y19.7969
G01 X10.5643 Y19.7922
G01 X10.5675 Y19.7879
G01 X10.5711 Y19.7839
G01 X10.8759 Y19.4791
G01 X10.8799 Y19.4755
G01 X10.8842 Y19.4723
G01 X10.8889 Y19.4695
G01 X10.8938 Y19.4672
G01 X10.8988 Y19.4654
G01 X10.9041 Y19.4641
G01 X10.9094 Y19.4633
G01 X10.9148 Y19.4630
G01 X12.8452 Y19.4630
G01 X12.8506 Y19.4633
G01 X12.8559 Y19.4641
G01 X12.8612 Y19.4654
G01 X12.8662 Y19.4672
G01 X12.8711 Y19.4695
G01 X12.8758 Y19.4723
G01 X12.8801 Y19.4755
G01 X12.8841 Y19.4791
G01 X13.1889 Y19.7839
G01 X13.1925 Y19.7879
G01 X13.1957 Y19.7922
G01 X13.1985 Y19.7969
G01 X13.2008 Y19.8018
G01 X13.2026 Y19.8068
G01 X13.2039 Y19.8121
G01 X13.2047 Y19.8174
G01 X13.2050 Y19.8228
G01 X13.2050 Y20.7372
G00 Z2.0000
G00 X13.3685 Y18.5574
G01 F25.00
G01 Z-0.0187
G01 F45.00
G01 X8.3704 Y18.5574
G01 X8.3426 Y18.5737
G01 X8.2587 Y18.6131
G01 X8.1714 Y18.6441
G01 X8.0815 Y18.6663
G01 X7.9898 Y18.6797
G01 X7.8973 Y18.6839
G01 X7.8102 Y18.6797
G01 X7.7185 Y18.6663
G01 X7.6286 Y18.6441
G01 X7.5413 Y18.6131
G01 X7.4574 Y18.5737
G01 X7.3778 Y18.5264
G01 X7.3033 Y18.4714
G01 X7.2344 Y18.4094
G01 X7.1720 Y18.3409
G01 X7.1166 Y18.2667
G01 X7.0688 Y18.1873
G01 X7.0290 Y18.1037
G01 X6.9975 Y18.0166
G01 X6.9747 Y17.9268
G01 X6.9609 Y17.8352
G01 X6.9561 Y17.7427
G01 X6.9603 Y17.6502
G01 X6.9737 Y17.5585
G01 X6.9747 Y17.5532
G01 X6.9975 Y17.4634
G01 X7.0290 Y17.3763
G01 X7.0663 Y17.2974
G01 X7.1136 Y17.2178
G01 X7.1166 Y17.2133
G01 X7.1720 Y17.1391
G01 X7.2344 Y17.0706
G01 X7.3033 Y17.0086
G01 X7.3778 Y16.9536
G01 X7.4574 Y16.9063
G01 X7.5363 Y16.8690
G01 X7.6234 Y16.8375
G01 X7.6286 Y16.8359
G01 X7.7132 Y16.8147
G01 X7.8048 Y16.8009
G01 X7.8973 Y16.7961
G01 X7.9027 Y16.7961
G01 X7.9952 Y16.8009
G01 X8.0868 Y16.8147
G01 X8.1714 Y16.8359
G01 X8.2587 Y16.8669
G01 X8.3426 Y16.9063
G01 X8.3704 Y16.9226
G01 X13.1161 Y16.9226
G01 X13.1161 Y14.8665
G01 X13.1199 Y14.7890
G01 X13.1314 Y14.7097
G01 X13.1324 Y14.7044
G01 X13.1506 Y14.6318
G01 X13.1774 Y14.5562
G01 X13.1795 Y14.5512
G01 X13.2140 Y14.4788
G01 X13.2555 Y14.4102
G01 X13.3000 Y14.3501
G01 X13.3034 Y14.3459
G01 X13.3556 Y14.2885
G01 X17.0894 Y10.5547
G01 X17.0975 Y10.5234
G01 X17.1290 Y10.4363
G01 X17.1663 Y10.3574
G01 X17.2136 Y10.2778
G01 X17.2166 Y10.2733
G01 X17.2720 Y10.1991
G01 X17.3344 Y10.1306
G01 X17.3991 Y10.0720
G01 X17.4733 Y10.0166
G01 X17.4778 Y10.0136
G01 X17.5574 Y9.9663
G01 X17.6413 Y9.9269
G01 X17.7286 Y9.8959
G01 X17.8132 Y9.8747
G01 X17.8185 Y9.8737
G01 X17.9102 Y9.8603
G01 X17.9973 Y9.8561
G01 X18.0898 Y9.8603
G01 X18.1815 Y9.8737
G01 X18.1868 Y9.8747
G01 X18.2714 Y9.8959
G01 X18.3587 Y9.9269
G01 X18.3637 Y9.9290
G01 X18.4473 Y9.9688
G01 X18.5267 Y10.0166
G01 X18.6009 Y10.0720
G01 X18.6656 Y10.1306
G01 X18.7280 Y10.1991
G01 X18.7834 Y10.2733
G01 X18.8312 Y10.3527
G01 X18.8710 Y10.4363
G01 X18.9025 Y10.5234
G01 X18.9253 Y10.6132
G01 X18.9263 Y10.6185
G01 X18.9397 Y10.7102
G01 X18.9439 Y10.8027
G01 X18.9391 Y10.8952
G01 X18.9253 Y10.9868
G01 X18.9025 Y11.0766
G01 X18.8710 Y11.1637
G01 X18.8312 Y11.2473
G01 X18.7834 Y11.3267
G01 X18.7280 Y11.4009
G01 X18.6694 Y11.4656
G01 X18.6009 Y11.5280
G01 X18.5267 Y11.5834
G01 X18.4473 Y11.6312
G01 X18.3637 Y11.6710
G01 X18.2766 Y11.7025
G01 X18.2453 Y11.7106
G01 X14.7509 Y15.2050
G01 X14.7509 Y17.6279
G01 X15.3022 Y18.1792
G01 X15.3544 Y18.2366
G01 X15.3578 Y18.2408
G01 X15.4053 Y18.3054
G01 X15.4438 Y18.3696
G01 X15.4783 Y18.4419
G01 X15.4804 Y18.4469
G01 X15.5072 Y18.5225
G01 X15.5254 Y18.5951
G01 X15.5374 Y18.6744
G01 X15.5379 Y18.6798
G01 X15.5417 Y18.7572
G01 X15.5417 Y23.6757
G01 X15.5379 Y23.7532
G01 X15.5374 Y23.7585
G01 X15.5254 Y23.8378
G01 X15.5056 Y23.9156
G01 X15.4783 Y23.9910
G01 X15.4438 Y24.0634
G01 X15.4023 Y24.1320
G01 X15.3544 Y24.1963
G01 X15.3022 Y24.2537
G01 X13.6180 Y25.9380
G01 X13.5606 Y25.9901
G01 X13.4963 Y26.0381
G01 X13.4918 Y26.0411
G01 X13.4229 Y26.0821
G01 X13.3503 Y26.1161
G01 X13.2747 Y26.1429
G01 X13.2021 Y26.1611
G01 X13.1228 Y26.1731
G01 X13.0427 Y26.1773
G01 X10.9148 Y26.1770
G01 X10.9094 Y26.1767
G01 X10.9041 Y26.1759
G01 X10.8988 Y26.1746
G01 X10.8938 Y26.1728
G01 X10.8889 Y26.1705
G01 X10.8842 Y26.1677
G01 X10.8799 Y26.1645
G01 X10.8759 Y26.1609
G01 X10.5711 Y25.8561
G01 X10.5675 Y25.8521
G01 X10.5643 Y25.8478
G01 X10.5615 Y25.8431
G01 X10.5592 Y25.8382
G01 X10.5574 Y25.8332
G01 X10.5561 Y25.8279
G01 X10.5553 Y25.8226
G01 X10.5550 Y25.8172
G01 X10.5550 Y24.9028
G01 X10.5553 Y24.8974
G01 X10.5561 Y24.8921
G01 X10.5574 Y24.8868
G01 X10.5592 Y24.8818
G01 X10.5615 Y24.8769
G01 X10.5643 Y24.8722
G01 X10.5675 Y24.8679
G01 X10.5711 Y24.8639
G01 X10.8759 Y24.5591
G01 X10.8799 Y24.5555
G01 X10.8842 Y24.5523
G01 X10.8889 Y24.5495
G01 X10.8938 Y24.5472
G01 X10.8988 Y24.5454
G01 X10.9041 Y24.5441
G01 X10.9094 Y24.5433
G01 X10.9148 Y24.5430
G01 X12.7014 Y24.5426
G01 X13.9069 Y23.3372
G01 X13.9069 Y19.0958
G01 X13.3685 Y18.5574
G00 Z2.0000
G00 X4.3638 Y24.9563
G01 F25.00
G01 Z-0.0187
G01 F45.00
G01 X4.3332 Y24.9151
G01 X4.3046 Y24.8679
G01 X4.2807 Y24.8180
G01 X4.2618 Y24.7661
G01 X4.2603 Y24.7609
G01 X4.2471 Y24.7072
G01 X4.2393 Y24.6525
G01 X4.2367 Y24.6000
G01 X4.2367 Y13.8400
G01 X4.2398 Y13.7821
G01 X4.2482 Y13.7275
G01 X4.2603 Y13.6791
G01 X4.2786 Y13.6270
G01 X4.3020 Y13.5769
G01 X4.3046 Y13.5721
G01 X4.3332 Y13.5249
G01 X4.3629 Y13.4848
G01 X4.4017 Y13.4417
G01 X6.9070 Y10.9364
G01 X6.9003 Y10.8898
G01 X6.8961 Y10.8027
G01 X6.9003 Y10.7102
G01 X6.9137 Y10.6185
G01 X6.9147 Y10.6132
G01 X6.9375 Y10.5234
G01 X6.9690 Y10.4363
G01 X7.0063 Y10.3574
G01 X7.0536 Y10.2778
G01 X7.1086 Y10.2033
G01 X7.1706 Y10.1344
G01 X7.2391 Y10.0720
G01 X7.3133 Y10.0166
G01 X7.3178 Y10.0136
G01 X7.3974 Y9.9663
G01 X7.4813 Y9.9269
G01 X7.5686 Y9.8959
G01 X7.6585 Y9.8737
G01 X7.7502 Y9.8603
G01 X7.8373 Y9.8561
G01 X7.9298 Y9.8603
G01 X8.0215 Y9.8737
G01 X8.0268 Y9.8747
G01 X8.1166 Y9.8975
G01 X8.2037 Y9.9290
G01 X8.2826 Y9.9663
G01 X8.3622 Y10.0136
G01 X8.3667 Y10.0166
G01 X8.4409 Y10.0720
G01 X8.5094 Y10.1344
G01 X8.5680 Y10.1991
G01 X8.6234 Y10.2733
G01 X8.6264 Y10.2778
G01 X8.6737 Y10.3574
G01 X8.7110 Y10.4363
G01 X8.7425 Y10.5234
G01 X8.7653 Y10.6132
G01 X8.7663 Y10.6185
G01 X8.7797 Y10.7102
G01 X8.7839 Y10.8027
G01 X8.7797 Y10.8898
G01 X8.7663 Y10.9815
G01 X8.7441 Y11.0714
G01 X8.7425 Y11.0766
G01 X8.7110 Y11.1637
G01 X8.6737 Y11.2426
G01 X8.6264 Y11.3222
G01 X8.6234 Y11.3267
G01 X8.5680 Y11.4009
G01 X8.5056 Y11.4694
G01 X8.4409 Y11.5280
G01 X8.3667 Y11.5834
G01 X8.3622 Y11.5864
G01 X8.2826 Y11.6337
G01 X8.2037 Y11.6710
G01 X8.1166 Y11.7025
G01 X8.1114 Y11.7041
G01 X8.0268 Y11.7253
G01 X7.9352 Y11.7391
G01 X7.8427 Y11.7439
G01 X7.8373 Y11.7439
G01 X7.7502 Y11.7397
G01 X7.7036 Y11.7330
G01 X5.3633 Y14.0733
G01 X5.3633 Y23.2402
G01 X6.1817 Y22.4217
G01 X6.2206 Y22.3864
G01 X6.2248 Y22.3829
G01 X6.2694 Y22.3502
G01 X6.3169 Y22.3220
G01 X6.3620 Y22.3007
G01 X6.4139 Y22.2818
G01 X6.4191 Y22.2803
G01 X6.4728 Y22.2671
G01 X6.5275 Y22.2593
G01 X6.5827 Y22.2568
G01 X6.6325 Y22.2593
G01 X6.6872 Y22.2671
G01 X6.7409 Y22.2803
G01 X6.7930 Y22.2986
G01 X6.8431 Y22.3220
G01 X6.8906 Y22.3502
G01 X6.9363 Y22.3838
G01 X10.5550 Y22.3838
G01 X10.5553 Y22.3574
G01 X10.5561 Y22.3521
G01 X10.5574 Y22.3468
G01 X10.5592 Y22.3418
G01 X10.5615 Y22.3369
G01 X10.5643 Y22.3322
G01 X10.5675 Y22.3279
G01 X10.5711 Y22.3239
G01 X10.8759 Y22.0191
G01 X10.8799 Y22.0155
G01 X10.8842 Y22.0123
G01 X10.8889 Y22.0095
G01 X10.8938 Y22.0072
G01 X10.8988 Y22.0054
G01 X10.9041 Y22.0041
G01 X10.9094 Y22.0033
G01 X10.9148 Y22.0030
G01 X12.8452 Y22.0030
G01 X12.8506 Y22.0033
G01 X12.8559 Y22.0041
G01 X12.8612 Y22.0054
G01 X12.8662 Y22.0072
G01 X12.8711 Y22.0095
G01 X12.8758 Y22.0123
G01 X12.8801 Y22.0155
G01 X12.8841 Y22.0191
G01 X13.1889 Y22.3239
G01 X13.1925 Y22.3279
G01 X13.1957 Y22.3322
G01 X13.1985 Y22.3369
G01 X13.2008 Y22.3418
G01 X13.2026 Y22.3468
G01 X13.2039 Y22.3521
G01 X13.2047 Y22.3574
G01 X13.2050 Y22.3628
G01 X13.2050 Y23.2772
G01 X13.2047 Y23.2826
G01 X13.2039 Y23.2879
G01 X13.2026 Y23.2932
G01 X13.2008 Y23.2982
G01 X13.1985 Y23.3031
G01 X13.1957 Y23.3078
G01 X13.1925 Y23.3121
G01 X13.1889 Y23.3161
G01 X12.8841 Y23.6209
G01 X12.8801 Y23.6245
G01 X12.8758 Y23.6277
G01 X12.8711 Y23.6305
G01 X12.8662 Y23.6328
G01 X12.8612 Y23.6346
G01 X12.8559 Y23.6359
G01 X12.8506 Y23.6367
G01 X12.8452 Y23.6370
G01 X10.9148 Y23.6370
G01 X10.9094 Y23.6367
G01 X10.9041 Y23.6359
G01 X10.8988 Y23.6346
G01 X10.8938 Y23.6328
G01 X10.8889 Y23.6305
G01 X10.8842 Y23.6277
G01 X10.8799 Y23.6245
G01 X10.8759 Y23.6209
G01 X10.5711 Y23.3161
G01 X10.5675 Y23.3121
G01 X10.5643 Y23.3078
G01 X10.5615 Y23.3031
G01 X10.5592 Y23.2982
G01 X10.5574 Y23.2932
G01 X10.5561 Y23.2879
G01 X10.5553 Y23.2826
G01 X10.5550 Y23.2562
G01 X6.9404 Y23.2562
G01 X5.2362 Y24.9604
G01 X5.2362 Y27.4299
G01 X7.5207 Y29.7144
G01 X13.9279 Y29.7144
G01 X15.0638 Y28.5785
G01 X15.0638 Y27.6000
G01 X15.0662 Y27.5546
G01 X15.0728 Y27.5123
G01 X15.0834 Y27.4708
G01 X15.0981 Y27.4306
G01 X15.1141 Y27.3968
G01 X15.1359 Y27.3599
G01 X15.1389 Y27.3555
G01 X15.1646 Y27.3212
G01 X15.1916 Y27.2916
G01 X17.3916 Y25.0916
G01 X17.4212 Y25.0646
G01 X17.4555 Y25.0389
G01 X17.4920 Y25.0166
G01 X17.5306 Y24.9981
G01 X17.5356 Y24.9960
G01 X17.5760 Y24.9819
G01 X17.6123 Y24.9728
G01 X17.6176 Y24.9717
G01 X17.6599 Y24.9657
G01 X17.7000 Y24.9638
G01 X18.8100 Y24.9638
G01 X18.8100 Y24.7250
G01 X18.8103 Y24.7196
G01 X18.8111 Y24.7143
G01 X18.8124 Y24.7090
G01 X18.8142 Y24.7040
G01 X18.8165 Y24.6991
G01 X18.8193 Y24.6944
G01 X18.8225 Y24.6901
G01 X18.8261 Y24.6861
G01 X18.8301 Y24.6825
G01 X18.8344 Y24.6793
G01 X18.8391 Y24.6765
G01 X18.8440 Y24.6742
G01 X18.8490 Y24.6724
G01 X18.8543 Y24.6711
G01 X18.8596 Y24.6703
G01 X18.8650 Y24.6700
G01 X20.1350 Y24.6700
G01 X20.1404 Y24.6703
G01 X20.1457 Y24.6711
G01 X20.1510 Y24.6724
G01 X20.1560 Y24.6742
G01 X20.1609 Y24.6765
G01 X20.1656 Y24.6793
G01 X20.1699 Y24.6825
G01 X20.1739 Y24.6861
G01 X20.1775 Y24.6901
G01 X20.1807 Y24.6944
G01 X20.1835 Y24.6991
G01 X20.1858 Y24.7040
G01 X20.1876 Y24.7090
G01 X20.1889 Y24.7143
G01 X20.1897 Y24.7196
G01 X20.1900 Y24.7250
G01 X20.1900 Y24.9238
G01 X21.2627 Y24.9239
G01 X21.3001 Y24.9257
G01 X21.3424 Y24.9317
G01 X21.3840 Y24.9419
G01 X21.4244 Y24.9560
G01 X21.4632 Y24.9741
G01 X21.5001 Y24.9959
G01 X21.5346 Y25.0212
G01 X21.5684 Y25.0516
G01 X22.6807 Y26.1638
G01 X25.0872 Y26.1638
G01 X25.1446 Y26.1008
G01 X25.2185 Y26.0339
G01 X25.2227 Y26.0304
G01 X25.3028 Y25.9711
G01 X25.3073 Y25.9681
G01 X25.3928 Y25.9168
G01 X25.3975 Y25.9142
G01 X25.4877 Y25.8716
G01 X25.4927 Y25.8696
G01 X25.5865 Y25.8360
G01 X25.5917 Y25.8344
G01 X25.6884 Y25.8102
G01 X25.6937 Y25.8091
G01 X25.7923 Y25.7945
G01 X25.7977 Y25.7940
G01 X25.8973 Y25.7891
G01 X25.9027 Y25.7891
G01 X26.0023 Y25.7940
G01 X26.0077 Y25.7945
G01 X26.1063 Y25.8091
G01 X26.1116 Y25.8102
G01 X26.2083 Y25.8344
G01 X26.2135 Y25.8360
G01 X26.3073 Y25.8696
G01 X26.3123 Y25.8716
G01 X26.4025 Y25.9142
G01 X26.4072 Y25.9168
G01 X26.4927 Y25.9681
G01 X26.4972 Y25.9711
G01 X26.5773 Y26.0304
G01 X26.5815 Y26.0339
G01 X26.6554 Y26.1008
G01 X26.6592 Y26.1046
G01 X26.7261 Y26.1785
G01 X26.7296 Y26.1827
G01 X26.7889 Y26.2628
G01 X26.7919 Y26.2673
G01 X26.8432 Y26.3528
G01 X26.8458 Y26.3575
G01 X26.8884 Y26.4477
G01 X26.8904 Y26.4527
G01 X26.9240 Y26.5465
G01 X26.9256 Y26.5517
G01 X26.9498 Y26.6484
G01 X26.9509 Y26.6537
G01 X26.9655 Y26.7523
G01 X26.9660 Y26.7577
G01 X26.9709 Y26.8573
G01 X26.9709 Y26.8627
G01 X26.9660 Y26.9623
G01 X26.9655 Y26.9677
G01 X26.9509 Y27.0663
G01 X26.9498 Y27.0716
G01 X26.9256 Y27.1683
G01 X26.9240 Y27.1735
G01 X26.8904 Y27.2673
G01 X26.8884 Y27.2723
G01 X26.8458 Y27.3625
G01 X26.8432 Y27.3672
G01 X26.7919 Y27.4527
G01 X26.7889 Y27.4572
G01 X26.7296 Y27.5373
G01 X26.7261 Y27.5415
G01 X26.6592 Y27.6154
G01 X26.6554 Y27.6192
G01 X26.5815 Y27.6861
G01 X26.5773 Y27.6896
G01 X26.4972 Y27.7489
G01 X26.4927 Y27.7519
G01 X26.4072 Y27.8032
G01 X26.4025 Y27.8058
G01 X26.3123 Y27.8484
G01 X26.3073 Y27.8504
G01 X26.2135 Y27.8840
G01 X26.2083 Y27.8856
G01 X26.1116 Y27.9098
G01 X26.1063 Y27.9109
G01 X26.0077 Y27.9255
G01 X26.0023 Y27.9260
G01 X25.9027 Y27.9309
G01 X25.8973 Y27.9309
G01 X25.7977 Y27.9260
G01 X25.7923 Y27.9255
G01 X25.6937 Y27.9109
G01 X25.6884 Y27.9098
G01 X25.5917 Y27.8856
G01 X25.5865 Y27.8840
G01 X25.4927 Y27.8504
G01 X25.4877 Y27.8484
G01 X25.3975 Y27.8058
G01 X25.3928 Y27.8032
G01 X25.3073 Y27.7519
G01 X25.3028 Y27.7489
G01 X25.2227 Y27.6896
G01 X25.2185 Y27.6861
G01 X25.1446 Y27.6192
G01 X25.1408 Y27.6154
G01 X25.0739 Y27.5415
G01 X25.0704 Y27.5373
G01 X25.0111 Y27.4572
G01 X25.0081 Y27.4527
G01 X24.9568 Y27.3672
G01 X24.9542 Y27.3625
G01 X24.9116 Y27.2723
G01 X24.9096 Y27.2673
G01 X24.8760 Y27.1735
G01 X24.8744 Y27.1683
G01 X24.8502 Y27.0716
G01 X24.8447 Y27.0362
G01 X22.5000 Y27.0362
G01 X22.4546 Y27.0338
G01 X22.4123 Y27.0272
G01 X22.3708 Y27.0166
G01 X22.3306 Y27.0019
G01 X22.2920 Y26.9834
G01 X22.2555 Y26.9611
G01 X22.2212 Y26.9354
G01 X22.1916 Y26.9084
G01 X21.0793 Y25.7962
G01 X20.1900 Y25.7962
G01 X20.1900 Y25.9950
G01 X20.1897 Y26.0004
G01 X20.1889 Y26.0057
G01 X20.1876 Y26.0110
G01 X20.1858 Y26.0160
G01 X20.1835 Y26.0209
G01 X20.1807 Y26.0256
G01 X20.1775 Y26.0299
G01 X20.1739 Y26.0339
G01 X20.1699 Y26.0375
G01 X20.1656 Y26.0407
G01 X20.1609 Y26.0435
G01 X20.1560 Y26.0458
G01 X20.1510 Y26.0476
G01 X20.1457 Y26.0489
G01 X20.1404 Y26.0497
G01 X20.1350 Y26.0500
G01 X18.8650 Y26.0500
G01 X18.8596 Y26.0497
G01 X18.8543 Y26.0489
G01 X18.8490 Y26.0476
G01 X18.8440 Y26.0458
G01 X18.8391 Y26.0435
G01 X18.8344 Y26.0407
G01 X18.8301 Y26.0375
G01 X18.8261 Y26.0339
G01 X18.8225 Y26.0299
G01 X18.8193 Y26.0256
G01 X18.8165 Y26.0209
G01 X18.8142 Y26.0160
G01 X18.8124 Y26.0110
G01 X18.8111 Y26.0057
G01 X18.8103 Y26.0004
G01 X18.8100 Y25.9950
G01 X18.8100 Y25.8362
G01 X17.8807 Y25.8362
G01 X15.9362 Y27.7807
G01 X15.9361 Y28.7619
G01 X15.9338 Y28.8046
G01 X15.9272 Y28.8469
G01 X15.9181 Y28.8832
G01 X15.9040 Y28.9236
G01 X15.9019 Y28.9286
G01 X15.8834 Y28.9672
G01 X15.8611 Y29.0037
G01 X15.8388 Y29.0338
G01 X15.8084 Y29.0676
G01 X14.4170 Y30.4590
G01 X14.3873 Y30.4860
G01 X14.3531 Y30.5117
G01 X14.3165 Y30.5340
G01 X14.2780 Y30.5525
G01 X14.2378 Y30.5672
G01 X14.1963 Y30.5778
G01 X14.1540 Y30.5844
G01 X14.1086 Y30.5868
G01 X7.3400 Y30.5868
G01 X7.2999 Y30.5849
G01 X7.2576 Y30.5789
G01 X7.2523 Y30.5778
G01 X7.2108 Y30.5672
G01 X7.1706 Y30.5525
G01 X7.1320 Y30.5340
G01 X7.0955 Y30.5117
G01 X7.0612 Y30.4860
G01 X7.0316 Y30.4590
G01 X4.4916 Y27.9190
G01 X4.4646 Y27.8894
G01 X4.4389 Y27.8552
G01 X4.4359 Y27.8507
G01 X4.4141 Y27.8138
G01 X4.3960 Y27.7750
G01 X4.3819 Y27.7346
G01 X4.3728 Y27.6983
G01 X4.3662 Y27.6560
G01 X4.3638 Y27.6106
G01 X4.3638 Y24.9563
G00 Z2.0000
G00 X36.6089 Y5.0039
G01 F25.00
G01 Z-0.0187
G01 F45.00
G01 X36.6125 Y5.0079
G01 X36.6157 Y5.0122
G01 X36.6185 Y5.0169
G01 X36.6208 Y5.0218
G01 X36.6226 Y5.0268
G01 X36.6239 Y5.0321
G01 X36.6247 Y5.0374
G01 X36.6250 Y5.0428
G01 X36.6250 Y5.9572
G01 X36.6247 Y5.9626
G01 X36.6239 Y5.9679
G01 X36.6226 Y5.9732
G01 X36.6208 Y5.9782
G01 X36.6185 Y5.9831
G01 X36.6157 Y5.9878
G01 X36.6125 Y5.9921
G01 X36.6089 Y5.9961
G01 X36.3041 Y6.3009
G01 X36.3001 Y6.3045
G01 X36.2958 Y6.3077
G01 X36.2911 Y6.3105
G01 X36.2862 Y6.3128
G01 X36.2812 Y6.3146
G01 X36.2759 Y6.3159
G01 X36.2706 Y6.3167
G01 X36.2652 Y6.3170
G01 X35.7633 Y6.3170
G01 X35.7633 Y16.5110
G01 X35.7868 Y16.5147
G01 X35.8766 Y16.5375
G01 X35.9637 Y16.5690
G01 X36.0473 Y16.6088
G01 X36.1267 Y16.6566
G01 X36.2009 Y16.7120
G01 X36.2694 Y16.7744
G01 X36.3314 Y16.8433
G01 X36.3864 Y16.9178
G01 X36.4337 Y16.9974
G01 X36.4731 Y17.0813
G01 X36.5041 Y17.1686
G01 X36.5263 Y17.2585
G01 X36.5397 Y17.3502
G01 X36.5439 Y17.4373
G01 X36.5397 Y17.5298
G01 X36.5263 Y17.6215
G01 X36.5041 Y17.7114
G01 X36.4731 Y17.7987
G01 X36.4337 Y17.8826
G01 X36.3864 Y17.9622
G01 X36.3314 Y18.0367
G01 X36.2694 Y18.1056
G01 X36.2009 Y18.1680
G01 X36.1267 Y18.2234
G01 X36.0473 Y18.2712
G01 X35.9637 Y18.3110
G01 X35.8766 Y18.3425
G01 X35.7868 Y18.3653
G01 X35.6952 Y18.3791
G01 X35.6027 Y18.3839
G01 X35.5102 Y18.3797
G01 X35.4185 Y18.3663
G01 X35.3286 Y18.3441
G01 X35.3234 Y18.3425
G01 X35.2363 Y18.3110
G01 X35.1527 Y18.2712
G01 X35.0733 Y18.2234
G01 X34.9991 Y18.1680
G01 X34.9306 Y18.1056
G01 X34.8720 Y18.0409
G01 X34.8166 Y17.9667
G01 X34.8136 Y17.9622
G01 X34.7663 Y17.8826
G01 X34.7290 Y17.8037
G01 X34.6975 Y17.7166
G01 X34.6846 Y17.6663
G01 X34.6786 Y17.6530
G01 X34.6603 Y17.6009
G01 X34.6482 Y17.5525
G01 X34.6398 Y17.4979
G01 X34.6367 Y17.4400
G01 X34.6367 Y6.3170
G01 X34.3348 Y6.3170
G01 X34.3294 Y6.3167
G01 X34.3241 Y6.3159
G01 X34.3188 Y6.3146
G01 X34.3138 Y6.3128
G01 X34.3089 Y6.3105
G01 X34.3042 Y6.3077
G01 X34.2999 Y6.3045
G01 X34.2959 Y6.3009
G01 X33.9911 Y5.9961
G01 X33.9875 Y5.9921
G01 X33.9843 Y5.9878
G01 X33.9815 Y5.9831
G01 X33.9792 Y5.9782
G01 X33.9774 Y5.9732
G01 X33.9761 Y5.9679
G01 X33.9753 Y5.9626
G01 X33.9750 Y5.9572
G01 X33.9750 Y5.0428
G01 X33.9753 Y5.0374
G01 X33.9761 Y5.0321
G01 X33.9774 Y5.0268
G01 X33.9792 Y5.0218
G01 X33.9815 Y5.0169
G01 X33.9843 Y5.0122
G01 X33.9875 Y5.0079
G01 X33.9911 Y5.0039
G01 X34.2959 Y4.6991
G01 X34.2999 Y4.6955
G01 X34.3042 Y4.6923
G01 X34.3089 Y4.6895
G01 X34.3138 Y4.6872
G01 X34.3188 Y4.6854
G01 X34.3241 Y4.6841
G01 X34.3294 Y4.6833
G01 X34.3348 Y4.6830
G01 X36.2652 Y4.6830
G01 X36.2706 Y4.6833
G01 X36.2759 Y4.6841
G01 X36.2812 Y4.6854
G01 X36.2862 Y4.6872
G01 X36.2911 Y4.6895
G01 X36.2958 Y4.6923
G01 X36.3001 Y4.6955
G01 X36.3041 Y4.6991
G01 X36.6089 Y5.0039
G00 Z2.0000
G00 X64.0439 Y3.7744
G01 F25.00
G01 Z-0.0187
G01 F45.00
G01 X64.1533 Y3.7088
G01 X64.1581 Y3.7062
G01 X64.2933 Y3.6423
G01 X64.2983 Y3.6402
G01 X64.4391 Y3.5898
G01 X64.4442 Y3.5883
G01 X64.5893 Y3.5519
G01 X64.5946 Y3.5509
G01 X64.7426 Y3.5289
G01 X64.7479 Y3.5284
G01 X64.8973 Y3.5211
G01 X64.9027 Y3.5211
G01 X65.0521 Y3.5284
G01 X65.0574 Y3.5289
G01 X65.2054 Y3.5509
G01 X65.2107 Y3.5519
G01 X65.3558 Y3.5883
G01 X65.3609 Y3.5898
G01 X65.5017 Y3.6402
G01 X65.5067 Y3.6423
G01 X65.6419 Y3.7062
G01 X65.6467 Y3.7088
G01 X65.7750 Y3.7857
G01 X65.7795 Y3.7887
G01 X65.8996 Y3.8778
G01 X65.9038 Y3.8812
G01 X66.0146 Y3.9816
G01 X66.0184 Y3.9854
G01 X66.1188 Y4.0962
G01 X66.1222 Y4.1004
G01 X66.2113 Y4.2205
G01 X66.2143 Y4.2250
G01 X66.2912 Y4.3533
G01 X66.2938 Y4.3581
G01 X66.3577 Y4.4933
G01 X66.3598 Y4.4983
G01 X66.4102 Y4.6391
G01 X66.4117 Y4.6442
G01 X66.4481 Y4.7893
G01 X66.4491 Y4.7946
G01 X66.4711 Y4.9426
G01 X66.4716 Y4.9479
G01 X66.4789 Y5.0973
G01 X66.4789 Y5.1027
G01 X66.4716 Y5.2521
G01 X66.4711 Y5.2574
G01 X66.4491 Y5.4054
G01 X66.4481 Y5.4107
G01 X66.4117 Y5.5558
G01 X66.4102 Y5.5609
G01 X66.3598 Y5.7017
G01 X66.3577 Y5.7067
G01 X66.2938 Y5.8419
G01 X66.2912 Y5.8467
G01 X66.2143 Y5.9750
G01 X66.2113 Y5.9795
G01 X66.1222 Y6.0996
G01 X66.1188 Y6.1038
G01 X66.0184 Y6.2146
G01 X66.0146 Y6.2184
G01 X65.9038 Y6.3188
G01 X65.8996 Y6.3222
G01 X65.7795 Y6.4113
G01 X65.7750 Y6.4143
G01 X65.6467 Y6.4912
G01 X65.6419 Y6.4938
G01 X65.5067 Y6.5577
G01 X65.5017 Y6.5598
G01 X65.3609 Y6.6102
G01 X65.3558 Y6.6117
G01 X65.2107 Y6.6481
G01 X65.2054 Y6.6491
G01 X65.0574 Y6.6711
G01 X65.0521 Y6.6716
G01 X64.9027 Y6.6789
G01 X64.8973 Y6.6789
G01 X64.7479 Y6.6716
G01 X64.7426 Y6.6711
G01 X64.5946 Y6.6491
G01 X64.5893 Y6.6481
G01 X64.4442 Y6.6117
G01 X64.4391 Y6.6102
G01 X64.2983 Y6.5598
G01 X64.2933 Y6.5577
G01 X64.1581 Y6.4938
G01 X64.1533 Y6.4912
G01 X64.0439 Y6.4256
G01 X56.9491 Y6.4256
G01 X50.9374 Y12.4374
G01 X50.8430 Y12.5230
G01 X50.8388 Y12.5264
G01 X50.7387 Y12.6007
G01 X50.7342 Y12.6037
G01 X50.6272 Y12.6678
G01 X50.6225 Y12.6703
G01 X50.5098 Y12.7236
G01 X50.5048 Y12.7257
G01 X50.3874 Y12.7677
G01 X50.3822 Y12.7693
G01 X50.2613 Y12.7996
G01 X50.2560 Y12.8006
G01 X50.1326 Y12.8189
G01 X50.1272 Y12.8195
G01 X50.0027 Y12.8256
G01 X44.8223 Y12.8256
G01 X44.8223 Y15.9643
G01 X44.8537 Y16.0173
G01 X44.8878 Y16.0899
G01 X44.9145 Y16.1654
G01 X44.9327 Y16.2380
G01 X44.9447 Y16.3172
G01 X44.9489 Y16.3973
G01 X44.9489 Y16.4027
G01 X44.9447 Y16.4828
G01 X44.9327 Y16.5620
G01 X44.9145 Y16.6346
G01 X44.8878 Y16.7101
G01 X44.8857 Y16.7151
G01 X44.8512 Y16.7875
G01 X44.8098 Y16.8561
G01 X44.7652 Y16.9162
G01 X44.7116 Y16.9758
G01 X44.7078 Y16.9796
G01 X44.6523 Y17.0298
G01 X44.5881 Y17.0778
G01 X44.5836 Y17.0808
G01 X44.5147 Y17.1217
G01 X44.4471 Y17.1537
G01 X44.3717 Y17.1810
G01 X44.2940 Y17.2007
G01 X44.2148 Y17.2127
G01 X44.1347 Y17.2169
G01 X44.1293 Y17.2169
G01 X44.0492 Y17.2127
G01 X43.9700 Y17.2007
G01 X43.8923 Y17.1810
G01 X43.8169 Y17.1537
G01 X43.7445 Y17.1192
G01 X43.6759 Y17.0778
G01 X43.6117 Y17.0298
G01 X43.5562 Y16.9796
G01 X43.5022 Y16.9203
G01 X43.4542 Y16.8561
G01 X43.4128 Y16.7875
G01 X43.3783 Y16.7151
G01 X43.3510 Y16.6397
G01 X43.3313 Y16.5620
G01 X43.3193 Y16.4828
G01 X43.3151 Y16.4027
G01 X43.3187 Y16.3226
G01 X43.3302 Y16.2433
G01 X43.3495 Y16.1654
G01 X43.3762 Y16.0899
G01 X43.4103 Y16.0173
G01 X43.4417 Y15.9643
G01 X43.4417 Y12.6300
G01 X43.3933 Y12.6007
G01 X43.2932 Y12.5264
G01 X43.2890 Y12.5230
G01 X43.1966 Y12.4392
G01 X43.1928 Y12.4354
G01 X43.1090 Y12.3430
G01 X43.1056 Y12.3388
G01 X43.0313 Y12.2387
G01 X43.0020 Y12.1903
G01 X40.8024 Y12.1903
G01 X40.7567 Y12.2314
G01 X40.6867 Y12.2834
G01 X40.6073 Y12.3312
G01 X40.5237 Y12.3710
G01 X40.4366 Y12.4025
G01 X40.4314 Y12.4041
G01 X40.3415 Y12.4263
G01 X40.2498 Y12.4397
G01 X40.1627 Y12.4439
G01 X40.0702 Y12.4397
G01 X39.9785 Y12.4263
G01 X39.9732 Y12.4253
G01 X39.8886 Y12.4041
G01 X39.8013 Y12.3731
G01 X39.7174 Y12.3337
G01 X39.6378 Y12.2864
G01 X39.6333 Y12.2834
G01 X39.5591 Y12.2280
G01 X39.4944 Y12.1694
G01 X39.4320 Y12.1009
G01 X39.3766 Y12.0267
G01 X39.3736 Y12.0222
G01 X39.3263 Y11.9426
G01 X39.2890 Y11.8637
G01 X39.2575 Y11.7766
G01 X39.2347 Y11.6868
G01 X39.2209 Y11.5952
G01 X39.2161 Y11.5027
G01 X39.2161 Y11.4973
G01 X39.2209 Y11.4048
G01 X39.2347 Y11.3132
G01 X39.2575 Y11.2234
G01 X39.2890 Y11.1363
G01 X39.3263 Y11.0574
G01 X39.3736 Y10.9778
G01 X39.4286 Y10.9033
G01 X39.4906 Y10.8344
G01 X39.5591 Y10.7720
G01 X39.6333 Y10.7166
G01 X39.6378 Y10.7136
G01 X39.7174 Y10.6663
G01 X39.8013 Y10.6269
G01 X39.8886 Y10.5959
G01 X39.9785 Y10.5737
G01 X40.0702 Y10.5603
G01 X40.1627 Y10.5561
G01 X40.2498 Y10.5603
G01 X40.3415 Y10.5737
G01 X40.4314 Y10.5959
G01 X40.4366 Y10.5975
G01 X40.5237 Y10.6290
G01 X40.6073 Y10.6688
G01 X40.6867 Y10.7166
G01 X40.7567 Y10.7686
G01 X40.8024 Y10.8097
G01 X43.0020 Y10.8097
G01 X43.0313 Y10.7613
G01 X43.1056 Y10.6612
G01 X43.1090 Y10.6570
G01 X43.1928 Y10.5646
G01 X43.1966 Y10.5608
G01 X43.2890 Y10.4770
G01 X43.2932 Y10.4736
G01 X43.3933 Y10.3993
G01 X43.3978 Y10.3963
G01 X43.5048 Y10.3322
G01 X43.5095 Y10.3297
G01 X43.6222 Y10.2764
G01 X43.6272 Y10.2743
G01 X43.7446 Y10.2323
G01 X43.7498 Y10.2307
G01 X43.8707 Y10.2004
G01 X43.8760 Y10.1994
G01 X43.9994 Y10.1811
G01 X44.0048 Y10.1805
G01 X44.1320 Y10.1744
G01 X49.4509 Y10.1744
G01 X55.4626 Y4.1626
G01 X55.5570 Y4.0770
G01 X55.5612 Y4.0736
G01 X55.6613 Y3.9993
G01 X55.6658 Y3.9963
G01 X55.7728 Y3.9322
G01 X55.7775 Y3.9297
G01 X55.8902 Y3.8764
G01 X55.8952 Y3.8743
G01 X56.0126 Y3.8323
G01 X56.0178 Y3.8307
G01 X56.1387 Y3.8004
G01 X56.1440 Y3.7994
G01 X56.2674 Y3.7811
G01 X56.2728 Y3.7805
G01 X56.4000 Y3.7744
G01 X64.0439 Y3.7744
G00 Z2.0000
G00 X71.4433 Y0.6567
G01 F25.00
G01 Z-0.0187
G01 F45.00
G01 X71.4433 Y33.2433
G01 X0.8567 Y33.2433
G01 X0.8567 Y0.6567
G01 X71.4433 Y0.6567
G00 Z2.0000
G00 X52.8800 Y27.2285
G01 F25.00
G01 Z-0.0187
G01 F45.00
G01 X52.9902 Y27.1764
G01 X52.9952 Y27.1743
G01 X53.1126 Y27.1323
G01 X53.1178 Y27.1307
G01 X53.2387 Y27.1004
G01 X53.2440 Y27.0994
G01 X53.3674 Y27.0811
G01 X53.3728 Y27.0805
G01 X53.4973 Y27.0744
G01 X56.4509 Y27.0744
G01 X59.0626 Y24.4626
G01 X59.1570 Y24.3770
G01 X59.1612 Y24.3736
G01 X59.2613 Y24.2993
G01 X59.2658 Y24.2963
G01 X59.3728 Y24.2322
G01 X59.3775 Y24.2297
G01 X59.4902 Y24.1764
G01 X59.4952 Y24.1743
G01 X59.6126 Y24.1323
G01 X59.6178 Y24.1307
G01 X59.7387 Y24.1004
G01 X59.7440 Y24.0994
G01 X59.8674 Y24.0811
G01 X59.8728 Y24.0805
G01 X60.0000 Y24.0744
G01 X64.1439 Y24.0744
G01 X64.2533 Y24.0088
G01 X64.2581 Y24.0062
G01 X64.3933 Y23.9423
G01 X64.3983 Y23.9402
G01 X64.5391 Y23.8898
G01 X64.5442 Y23.8883
G01 X64.6893 Y23.8519
G01 X64.6946 Y23.8509
G01 X64.8426 Y23.8289
G01 X64.8479 Y23.8284
G01 X64.9973 Y23.8211
G01 X65.0027 Y23.8211
G01 X65.1521 Y23.8284
G01 X65.1574 Y23.8289
G01 X65.3054 Y23.8509
G01 X65.3107 Y23.8519
G01 X65.4558 Y23.8883
G01 X65.4609 Y23.8898
G01 X65.6017 Y23.9402
G01 X65.6067 Y23.9423
G01 X65.7419 Y24.0062
G01 X65.7467 Y24.0088
G01 X65.8750 Y24.0857
G01 X65.8795 Y24.0887
G01 X65.9996 Y24.1778
G01 X66.0038 Y24.1812
G01 X66.1146 Y24.2816
G01 X66.1184 Y24.2854
G01 X66.2188 Y24.3962
G01 X66.2222 Y24.4004
G01 X66.3113 Y24.5205
G01 X66.3143 Y24.5250
G01 X66.3912 Y24.6533
G01 X66.3938 Y24.6581
G01 X66.4577 Y24.7933
G01 X66.4598 Y24.7983
G01 X66.5102 Y24.9391
G01 X66.5117 Y24.9442
G01 X66.5481 Y25.0893
G01 X66.5491 Y25.0946
G01 X66.5711 Y25.2426
G01 X66.5716 Y25.2479
G01 X66.5789 Y25.3973
G01 X66.5789 Y25.4027
G01 X66.5716 Y25.5521
G01 X66.5711 Y25.5574
G01 X66.5491 Y25.7054
G01 X66.5481 Y25.7107
G01 X66.5117 Y25.8558
G01 X66.5102 Y25.8609
G01 X66.4598 Y26.0017
G01 X66.4577 Y26.0067
G01 X66.3938 Y26.1419
G01 X66.3912 Y26.1467
G01 X66.3143 Y26.2750
G01 X66.3113 Y26.2795
G01 X66.2222 Y26.3996
G01 X66.2188 Y26.4038
G01 X66.1184 Y26.5146
G01 X66.1146 Y26.5184
G01 X66.0038 Y26.6188
G01 X65.9996 Y26.6222
G01 X65.8795 Y26.7113
G01 X65.8750 Y26.7143
G01 X65.7467 Y26.7912
G01 X65.7419 Y26.7938
G01 X65.6067 Y26.8577
G01 X65.6017 Y26.8598
G01 X65.4609 Y26.9102
G01 X65.4558 Y26.9117
G01 X65.3107 Y26.9481
G01 X65.3054 Y26.9491
G01 X65.1574 Y26.9711
G01 X65.1521 Y26.9716
G01 X65.0027 Y26.9789
G01 X64.9973 Y26.9789
G01 X64.8479 Y26.9716
G01 X64.8426 Y26.9711
G01 X64.6946 Y26.9491
G01 X64.6893 Y26.9481
G01 X64.5442 Y26.9117
G01 X64.5391 Y26.9102
G01 X64.3983 Y26.8598
G01 X64.3933 Y26.8577
G01 X64.2581 Y26.7938
G01 X64.2533 Y26.7912
G01 X64.1439 Y26.7256
G01 X60.5491 Y26.7256
G01 X57.9374 Y29.3374
G01 X57.8430 Y29.4230
G01 X57.8388 Y29.4264
G01 X57.7387 Y29.5007
G01 X57.7342 Y29.5037
G01 X57.6272 Y29.5678
G01 X57.6225 Y29.5703
G01 X57.5098 Y29.6236
G01 X57.5048 Y29.6257
G01 X57.3874 Y29.6677
G01 X57.3822 Y29.6693
G01 X57.2613 Y29.6996
G01 X57.2560 Y29.7006
G01 X57.1326 Y29.7189
G01 X57.1272 Y29.7195
G01 X57.0000 Y29.7256
G01 X53.5000 Y29.7256
G01 X53.3728 Y29.7195
G01 X53.3674 Y29.7189
G01 X53.2440 Y29.7006
G01 X53.2387 Y29.6996
G01 X53.1178 Y29.6693
G01 X53.1126 Y29.6677
G01 X52.9952 Y29.6257
G01 X52.9902 Y29.6236
G01 X52.8775 Y29.5703
G01 X52.8728 Y29.5678
G01 X52.7658 Y29.5037
G01 X52.7613 Y29.5007
G01 X52.6612 Y29.4264
G01 X52.6002 Y29.3715
G01 X44.4400 Y29.3715
G01 X44.4283 Y29.3710
G01 X43.4240 Y29.3710
G01 X43.4186 Y29.3707
G01 X43.4133 Y29.3699
G01 X43.4080 Y29.3686
G01 X43.4030 Y29.3668
G01 X43.3981 Y29.3645
G01 X43.3934 Y29.3617
G01 X43.3891 Y29.3585
G01 X43.3851 Y29.3549
G01 X43.3815 Y29.3509
G01 X43.3783 Y29.3466
G01 X43.3755 Y29.3419
G01 X43.3732 Y29.3370
G01 X43.3714 Y29.3320
G01 X43.3701 Y29.3267
G01 X43.3693 Y29.3214
G01 X43.3690 Y29.3160
G01 X43.3690 Y28.3117
G01 X43.3686 Y28.3027
G01 X43.3690 Y28.2883
G01 X43.3690 Y27.2840
G01 X43.3693 Y27.2786
G01 X43.3701 Y27.2733
G01 X43.3714 Y27.2680
G01 X43.3732 Y27.2630
G01 X43.3755 Y27.2581
G01 X43.3783 Y27.2534
G01 X43.3815 Y27.2491
G01 X43.3851 Y27.2451
G01 X43.3891 Y27.2415
G01 X43.3934 Y27.2383
G01 X43.3981 Y27.2355
G01 X43.4030 Y27.2332
G01 X43.4080 Y27.2314
G01 X43.4133 Y27.2301
G01 X43.4186 Y27.2293
G01 X43.4240 Y27.2290
G01 X44.4283 Y27.2290
G01 X44.4400 Y27.2285
G01 X52.8800 Y27.2285
G00 Z2.0000
M05
G00 Z2.0000
G00 Z15.00
G00 X0.0 Y0.0

