(G-CODE GENERATED BY FLATCAM v8.991 - www.flatcam.org - Version Date: 2019/12/27)

(Name: cnc_mppt)
(Type: G-code from Geometry)
(Units: MM)

(Created on Saturday, 18 January 2025 at 08:44)

(TOOL DIAMETER: 0.11 mm)
(Feedrate: 45.0 mm/min)
(Feedrate_Z: 25.0 mm/min)
(Feedrate rapids 1500.0 mm/min)

(Z_Cut: -0.0187 mm)
(Z_Move: 2.0 mm)
(Z Toolchange: 15.0 mm)
(X,Y Toolchange: 0.0000, 0.0000 mm)
(Z Start: None mm)
(Z End: 15.0 mm)
(Steps per circle: 64)
(Preprocessor Geometry: default)

(X range:    0.5567 ...  117.3433  mm)
(Y range:    0.5567 ...   61.9433  mm)

(Spindle Speed: None RPM)
G21
G90
G94




G01 F45.00
G00 Z2.0000

M03
G00 X23.2009 Y27.5959
G01 F25.00
G01 Z-0.0187
G01 F45.00
G01 X23.2045 Y27.5999
G01 X23.2077 Y27.6042
G01 X23.2105 Y27.6089
G01 X23.2128 Y27.6138
G01 X23.2146 Y27.6188
G01 X23.2159 Y27.6241
G01 X23.2167 Y27.6294
G01 X23.2170 Y27.6348
G01 X23.2170 Y28.5909
G01 X23.2173 Y28.5973
G01 X23.2170 Y28.6091
G01 X23.2170 Y29.5652
G01 X23.2167 Y29.5706
G01 X23.2159 Y29.5759
G01 X23.2146 Y29.5812
G01 X23.2128 Y29.5862
G01 X23.2105 Y29.5911
G01 X23.2077 Y29.5958
G01 X23.2045 Y29.6001
G01 X23.2009 Y29.6041
G01 X22.8961 Y29.9089
G01 X22.8921 Y29.9125
G01 X22.8878 Y29.9157
G01 X22.8831 Y29.9185
G01 X22.8782 Y29.9208
G01 X22.8732 Y29.9226
G01 X22.8679 Y29.9239
G01 X22.8626 Y29.9247
G01 X22.8572 Y29.9250
G01 X21.9428 Y29.9250
G01 X21.9374 Y29.9247
G01 X21.9321 Y29.9239
G01 X21.9268 Y29.9226
G01 X21.9218 Y29.9208
G01 X21.9169 Y29.9185
G01 X21.9122 Y29.9157
G01 X21.9079 Y29.9125
G01 X21.9039 Y29.9089
G01 X21.5991 Y29.6041
G01 X21.5955 Y29.6001
G01 X21.5923 Y29.5958
G01 X21.5895 Y29.5911
G01 X21.5872 Y29.5862
G01 X21.5854 Y29.5812
G01 X21.5841 Y29.5759
G01 X21.5833 Y29.5706
G01 X21.5830 Y29.5652
G01 X21.5830 Y28.8919
G01 X21.5779 Y28.8829
G01 X21.5459 Y28.8153
G01 X21.5187 Y28.7398
G01 X21.4989 Y28.6621
G01 X21.4979 Y28.6568
G01 X21.4864 Y28.5774
G01 X21.4826 Y28.5000
G01 X21.4826 Y21.5126
G01 X21.4686 Y21.4967
G01 X21.4136 Y21.4222
G01 X21.3663 Y21.3426
G01 X21.3269 Y21.2587
G01 X21.2959 Y21.1714
G01 X21.2737 Y21.0815
G01 X21.2603 Y20.9898
G01 X21.2561 Y20.8973
G01 X21.2609 Y20.8048
G01 X21.2747 Y20.7132
G01 X21.2975 Y20.6234
G01 X21.3269 Y20.5413
G01 X21.3663 Y20.4574
G01 X21.3688 Y20.4527
G01 X21.4166 Y20.3733
G01 X21.4720 Y20.2991
G01 X21.5344 Y20.2306
G01 X21.6033 Y20.1686
G01 X21.6733 Y20.1166
G01 X21.7527 Y20.0688
G01 X21.7574 Y20.0663
G01 X21.8413 Y20.0269
G01 X21.9286 Y19.9959
G01 X22.0185 Y19.9737
G01 X22.1102 Y19.9603
G01 X22.2027 Y19.9561
G01 X22.2952 Y19.9609
G01 X22.3868 Y19.9747
G01 X22.4766 Y19.9975
G01 X22.5637 Y20.0290
G01 X22.6473 Y20.0688
G01 X22.7267 Y20.1166
G01 X22.8009 Y20.1720
G01 X22.8694 Y20.2344
G01 X22.9314 Y20.3033
G01 X22.9864 Y20.3778
G01 X23.0337 Y20.4574
G01 X23.0731 Y20.5413
G01 X23.1041 Y20.6286
G01 X23.1263 Y20.7185
G01 X23.1397 Y20.8102
G01 X23.1439 Y20.9027
G01 X23.1391 Y20.9952
G01 X23.1263 Y21.0815
G01 X23.1174 Y21.1183
G01 X23.1174 Y27.5124
G01 X23.2009 Y27.5959
G00 Z2.0000
G00 X24.5335 Y29.9250
G01 F25.00
G01 Z-0.0187
G01 F45.00
G01 X24.4774 Y29.9247
G01 X24.4721 Y29.9239
G01 X24.4668 Y29.9226
G01 X24.4618 Y29.9208
G01 X24.4569 Y29.9185
G01 X24.4522 Y29.9157
G01 X24.4479 Y29.9125
G01 X24.4439 Y29.9089
G01 X24.3879 Y29.8529
G01 X24.3058 Y29.8037
G01 X24.3013 Y29.8007
G01 X24.2012 Y29.7264
G01 X24.1970 Y29.7230
G01 X24.1026 Y29.6374
G01 X24.0008 Y29.5354
G01 X23.9170 Y29.4430
G01 X23.9136 Y29.4388
G01 X23.8393 Y29.3387
G01 X23.8363 Y29.3342
G01 X23.7722 Y29.2272
G01 X23.7697 Y29.2225
G01 X23.7164 Y29.1098
G01 X23.7143 Y29.1048
G01 X23.6723 Y28.9874
G01 X23.6707 Y28.9822
G01 X23.6404 Y28.8613
G01 X23.6394 Y28.8560
G01 X23.6211 Y28.7326
G01 X23.6205 Y28.7272
G01 X23.6144 Y28.6027
G01 X23.6144 Y28.5973
G01 X23.6205 Y28.4728
G01 X23.6211 Y28.4674
G01 X23.6394 Y28.3440
G01 X23.6404 Y28.3387
G01 X23.6707 Y28.2178
G01 X23.6723 Y28.2126
G01 X23.7143 Y28.0952
G01 X23.7164 Y28.0902
G01 X23.7697 Y27.9775
G01 X23.7722 Y27.9728
G01 X23.8363 Y27.8658
G01 X23.8393 Y27.8613
G01 X23.9136 Y27.7612
G01 X23.9170 Y27.7570
G01 X24.0008 Y27.6646
G01 X24.0046 Y27.6608
G01 X24.0970 Y27.5770
G01 X24.1012 Y27.5736
G01 X24.2013 Y27.4993
G01 X24.2058 Y27.4963
G01 X24.2879 Y27.4471
G01 X24.4439 Y27.2911
G01 X24.4479 Y27.2875
G01 X24.4522 Y27.2843
G01 X24.4569 Y27.2815
G01 X24.4618 Y27.2792
G01 X24.4668 Y27.2774
G01 X24.4721 Y27.2761
G01 X24.4774 Y27.2753
G01 X24.4828 Y27.2750
G01 X24.9257 Y27.2750
G01 X24.9427 Y27.2744
G01 X24.9543 Y27.2750
G01 X25.3972 Y27.2750
G01 X25.4026 Y27.2753
G01 X25.4079 Y27.2761
G01 X25.4132 Y27.2774
G01 X25.4182 Y27.2792
G01 X25.4231 Y27.2815
G01 X25.4278 Y27.2843
G01 X25.4321 Y27.2875
G01 X25.4361 Y27.2911
G01 X25.5193 Y27.3744
G01 X29.5544 Y27.3744
G01 X29.5544 Y20.3000
G01 X29.5605 Y20.1728
G01 X29.5611 Y20.1674
G01 X29.5794 Y20.0440
G01 X29.5804 Y20.0387
G01 X29.6107 Y19.9178
G01 X29.6123 Y19.9126
G01 X29.6543 Y19.7952
G01 X29.6564 Y19.7902
G01 X29.7097 Y19.6775
G01 X29.7285 Y19.6456
G01 X29.7285 Y14.1000
G01 X29.7335 Y13.9977
G01 X29.7340 Y13.9923
G01 X29.7486 Y13.8936
G01 X29.7497 Y13.8883
G01 X29.7739 Y13.7916
G01 X29.7755 Y13.7864
G01 X29.8091 Y13.6925
G01 X29.8111 Y13.6875
G01 X29.8538 Y13.5973
G01 X29.8563 Y13.5925
G01 X29.9076 Y13.5070
G01 X29.9106 Y13.5025
G01 X29.9701 Y13.4224
G01 X29.9735 Y13.4182
G01 X30.0405 Y13.3443
G01 X30.0443 Y13.3405
G01 X30.1182 Y13.2735
G01 X30.1224 Y13.2701
G01 X30.2025 Y13.2106
G01 X30.2070 Y13.2076
G01 X30.2925 Y13.1563
G01 X30.2973 Y13.1538
G01 X30.3875 Y13.1111
G01 X30.3925 Y13.1091
G01 X30.4864 Y13.0755
G01 X30.4916 Y13.0739
G01 X30.5883 Y13.0497
G01 X30.5936 Y13.0486
G01 X30.6923 Y13.0340
G01 X30.6977 Y13.0335
G01 X30.7973 Y13.0286
G01 X30.8027 Y13.0286
G01 X30.9023 Y13.0335
G01 X30.9077 Y13.0340
G01 X31.0064 Y13.0486
G01 X31.0117 Y13.0497
G01 X31.1084 Y13.0739
G01 X31.1136 Y13.0755
G01 X31.2075 Y13.1091
G01 X31.2125 Y13.1111
G01 X31.3027 Y13.1538
G01 X31.3075 Y13.1563
G01 X31.3930 Y13.2076
G01 X31.3975 Y13.2106
G01 X31.4776 Y13.2701
G01 X31.4818 Y13.2735
G01 X31.5557 Y13.3405
G01 X31.5595 Y13.3443
G01 X31.6265 Y13.4182
G01 X31.6299 Y13.4224
G01 X31.6894 Y13.5025
G01 X31.6924 Y13.5070
G01 X31.7437 Y13.5925
G01 X31.7462 Y13.5973
G01 X31.7889 Y13.6875
G01 X31.7909 Y13.6925
G01 X31.8245 Y13.7864
G01 X31.8261 Y13.7916
G01 X31.8503 Y13.8883
G01 X31.8514 Y13.8936
G01 X31.8660 Y13.9923
G01 X31.8665 Y13.9977
G01 X31.8715 Y14.1000
G01 X31.8715 Y19.4223
G01 X31.9064 Y19.4612
G01 X31.9807 Y19.5613
G01 X31.9837 Y19.5658
G01 X32.0478 Y19.6728
G01 X32.0503 Y19.6775
G01 X32.1036 Y19.7902
G01 X32.1057 Y19.7952
G01 X32.1477 Y19.9126
G01 X32.1493 Y19.9178
G01 X32.1796 Y20.0387
G01 X32.1806 Y20.0440
G01 X32.1989 Y20.1674
G01 X32.1995 Y20.1728
G01 X32.2056 Y20.3000
G01 X32.2056 Y28.9056
G01 X35.5744 Y32.2744
G01 X76.4606 Y32.2744
G01 X76.5879 Y32.2805
G01 X76.5932 Y32.2811
G01 X76.7166 Y32.2994
G01 X76.7219 Y32.3004
G01 X76.8428 Y32.3307
G01 X76.8480 Y32.3323
G01 X76.9654 Y32.3743
G01 X76.9704 Y32.3764
G01 X77.0831 Y32.4297
G01 X77.0879 Y32.4322
G01 X77.1948 Y32.4963
G01 X77.1993 Y32.4993
G01 X77.2995 Y32.5736
G01 X77.3036 Y32.5770
G01 X77.3980 Y32.6626
G01 X84.9594 Y40.2240
G01 X85.0450 Y40.3184
G01 X85.0484 Y40.3225
G01 X85.1227 Y40.4227
G01 X85.1257 Y40.4272
G01 X85.1898 Y40.5341
G01 X85.1923 Y40.5389
G01 X85.2456 Y40.6516
G01 X85.2477 Y40.6566
G01 X85.2897 Y40.7740
G01 X85.2913 Y40.7792
G01 X85.3216 Y40.9001
G01 X85.3226 Y40.9054
G01 X85.3409 Y41.0288
G01 X85.3415 Y41.0341
G01 X85.3476 Y41.1587
G01 X85.3476 Y44.0400
G01 X85.9270 Y44.0400
G01 X85.9324 Y44.0403
G01 X85.9377 Y44.0411
G01 X85.9430 Y44.0424
G01 X85.9480 Y44.0442
G01 X85.9529 Y44.0465
G01 X85.9576 Y44.0493
G01 X85.9619 Y44.0525
G01 X85.9659 Y44.0561
G01 X85.9695 Y44.0601
G01 X85.9727 Y44.0644
G01 X85.9755 Y44.0691
G01 X85.9778 Y44.0740
G01 X85.9796 Y44.0790
G01 X85.9809 Y44.0843
G01 X85.9817 Y44.0896
G01 X85.9820 Y44.0950
G01 X85.9820 Y47.9050
G01 X85.9817 Y47.9104
G01 X85.9809 Y47.9157
G01 X85.9796 Y47.9210
G01 X85.9778 Y47.9260
G01 X85.9755 Y47.9309
G01 X85.9727 Y47.9356
G01 X85.9695 Y47.9399
G01 X85.9659 Y47.9439
G01 X85.9619 Y47.9475
G01 X85.9576 Y47.9507
G01 X85.9529 Y47.9535
G01 X85.9480 Y47.9558
G01 X85.9430 Y47.9576
G01 X85.9377 Y47.9589
G01 X85.9324 Y47.9597
G01 X85.9270 Y47.9600
G01 X82.1170 Y47.9600
G01 X82.1116 Y47.9597
G01 X82.1063 Y47.9589
G01 X82.1010 Y47.9576
G01 X82.0960 Y47.9558
G01 X82.0911 Y47.9535
G01 X82.0864 Y47.9507
G01 X82.0821 Y47.9475
G01 X82.0781 Y47.9439
G01 X82.0745 Y47.9399
G01 X82.0713 Y47.9356
G01 X82.0685 Y47.9309
G01 X82.0662 Y47.9260
G01 X82.0644 Y47.9210
G01 X82.0631 Y47.9157
G01 X82.0623 Y47.9104
G01 X82.0620 Y47.9050
G01 X82.0620 Y44.0950
G01 X82.0623 Y44.0896
G01 X82.0631 Y44.0843
G01 X82.0644 Y44.0790
G01 X82.0662 Y44.0740
G01 X82.0685 Y44.0691
G01 X82.0713 Y44.0644
G01 X82.0745 Y44.0601
G01 X82.0781 Y44.0561
G01 X82.0821 Y44.0525
G01 X82.0864 Y44.0493
G01 X82.0911 Y44.0465
G01 X82.0960 Y44.0442
G01 X82.1010 Y44.0424
G01 X82.1063 Y44.0411
G01 X82.1116 Y44.0403
G01 X82.1170 Y44.0400
G01 X82.6964 Y44.0400
G01 X82.6964 Y41.7105
G01 X75.9115 Y34.9256
G01 X35.0253 Y34.9256
G01 X34.8980 Y34.9195
G01 X34.8926 Y34.9189
G01 X34.7693 Y34.9006
G01 X34.7640 Y34.8996
G01 X34.6431 Y34.8693
G01 X34.6379 Y34.8677
G01 X34.5205 Y34.8257
G01 X34.5155 Y34.8236
G01 X34.4028 Y34.7703
G01 X34.3980 Y34.7678
G01 X34.2911 Y34.7037
G01 X34.2866 Y34.7007
G01 X34.1864 Y34.6264
G01 X34.1822 Y34.6230
G01 X34.0898 Y34.5392
G01 X29.9426 Y30.3921
G01 X29.8570 Y30.2978
G01 X29.8536 Y30.2936
G01 X29.7793 Y30.1934
G01 X29.7763 Y30.1889
G01 X29.7122 Y30.0820
G01 X29.6853 Y30.0256
G01 X25.0400 Y30.0256
G01 X24.9128 Y30.0195
G01 X24.9074 Y30.0189
G01 X24.7840 Y30.0006
G01 X24.7787 Y29.9996
G01 X24.6578 Y29.9693
G01 X24.6526 Y29.9677
G01 X24.5335 Y29.9250
G00 Z2.0000
G00 X6.6646 Y55.7744
G01 F25.00
G01 Z-0.0187
G01 F45.00
G01 X26.3134 Y55.7744
G01 X26.3134 Y48.3600
G01 X25.7340 Y48.3600
G01 X25.7286 Y48.3597
G01 X25.7233 Y48.3589
G01 X25.7180 Y48.3576
G01 X25.7130 Y48.3558
G01 X25.7081 Y48.3535
G01 X25.7034 Y48.3507
G01 X25.6991 Y48.3475
G01 X25.6951 Y48.3439
G01 X25.6915 Y48.3399
G01 X25.6883 Y48.3356
G01 X25.6855 Y48.3309
G01 X25.6832 Y48.3260
G01 X25.6814 Y48.3210
G01 X25.6801 Y48.3157
G01 X25.6793 Y48.3104
G01 X25.6790 Y48.3050
G01 X25.6790 Y44.4950
G01 X25.6793 Y44.4896
G01 X25.6801 Y44.4843
G01 X25.6814 Y44.4790
G01 X25.6832 Y44.4740
G01 X25.6855 Y44.4691
G01 X25.6883 Y44.4644
G01 X25.6915 Y44.4601
G01 X25.6951 Y44.4561
G01 X25.6991 Y44.4525
G01 X25.7034 Y44.4493
G01 X25.7081 Y44.4465
G01 X25.7130 Y44.4442
G01 X25.7180 Y44.4424
G01 X25.7233 Y44.4411
G01 X25.7286 Y44.4403
G01 X25.7340 Y44.4400
G01 X29.5440 Y44.4400
G01 X29.5494 Y44.4403
G01 X29.5547 Y44.4411
G01 X29.5600 Y44.4424
G01 X29.5650 Y44.4442
G01 X29.5699 Y44.4465
G01 X29.5746 Y44.4493
G01 X29.5789 Y44.4525
G01 X29.5829 Y44.4561
G01 X29.5865 Y44.4601
G01 X29.5897 Y44.4644
G01 X29.5925 Y44.4691
G01 X29.5948 Y44.4740
G01 X29.5966 Y44.4790
G01 X29.5979 Y44.4843
G01 X29.5987 Y44.4896
G01 X29.5990 Y44.4950
G01 X29.5990 Y48.3050
G01 X29.5987 Y48.3104
G01 X29.5979 Y48.3157
G01 X29.5966 Y48.3210
G01 X29.5948 Y48.3260
G01 X29.5925 Y48.3309
G01 X29.5897 Y48.3356
G01 X29.5865 Y48.3399
G01 X29.5829 Y48.3439
G01 X29.5789 Y48.3475
G01 X29.5746 Y48.3507
G01 X29.5699 Y48.3535
G01 X29.5650 Y48.3558
G01 X29.5600 Y48.3576
G01 X29.5547 Y48.3589
G01 X29.5494 Y48.3597
G01 X29.5440 Y48.3600
G01 X28.9646 Y48.3600
G01 X28.9646 Y55.7744
G01 X49.1134 Y55.7744
G01 X49.1134 Y48.1600
G01 X48.5340 Y48.1600
G01 X48.5286 Y48.1597
G01 X48.5233 Y48.1589
G01 X48.5180 Y48.1576
G01 X48.5130 Y48.1558
G01 X48.5081 Y48.1535
G01 X48.5034 Y48.1507
G01 X48.4991 Y48.1475
G01 X48.4951 Y48.1439
G01 X48.4915 Y48.1399
G01 X48.4883 Y48.1356
G01 X48.4855 Y48.1309
G01 X48.4832 Y48.1260
G01 X48.4814 Y48.1210
G01 X48.4801 Y48.1157
G01 X48.4793 Y48.1104
G01 X48.4790 Y48.1050
G01 X48.4790 Y44.2950
G01 X48.4793 Y44.2896
G01 X48.4801 Y44.2843
G01 X48.4814 Y44.2790
G01 X48.4832 Y44.2740
G01 X48.4855 Y44.2691
G01 X48.4883 Y44.2644
G01 X48.4915 Y44.2601
G01 X48.4951 Y44.2561
G01 X48.4991 Y44.2525
G01 X48.5034 Y44.2493
G01 X48.5081 Y44.2465
G01 X48.5130 Y44.2442
G01 X48.5180 Y44.2424
G01 X48.5233 Y44.2411
G01 X48.5286 Y44.2403
G01 X48.5340 Y44.2400
G01 X52.3440 Y44.2400
G01 X52.3494 Y44.2403
G01 X52.3547 Y44.2411
G01 X52.3600 Y44.2424
G01 X52.3650 Y44.2442
G01 X52.3699 Y44.2465
G01 X52.3746 Y44.2493
G01 X52.3789 Y44.2525
G01 X52.3829 Y44.2561
G01 X52.3865 Y44.2601
G01 X52.3897 Y44.2644
G01 X52.3925 Y44.2691
G01 X52.3948 Y44.2740
G01 X52.3966 Y44.2790
G01 X52.3979 Y44.2843
G01 X52.3987 Y44.2896
G01 X52.3990 Y44.2950
G01 X52.3990 Y48.1050
G01 X52.3987 Y48.1104
G01 X52.3979 Y48.1157
G01 X52.3966 Y48.1210
G01 X52.3948 Y48.1260
G01 X52.3925 Y48.1309
G01 X52.3897 Y48.1356
G01 X52.3865 Y48.1399
G01 X52.3829 Y48.1439
G01 X52.3789 Y48.1475
G01 X52.3746 Y48.1507
G01 X52.3699 Y48.1535
G01 X52.3650 Y48.1558
G01 X52.3600 Y48.1576
G01 X52.3547 Y48.1589
G01 X52.3494 Y48.1597
G01 X52.3440 Y48.1600
G01 X51.7646 Y48.1600
G01 X51.7646 Y55.7744
G01 X71.7744 Y55.7744
G01 X71.7744 Y47.9600
G01 X71.1950 Y47.9600
G01 X71.1896 Y47.9597
G01 X71.1843 Y47.9589
G01 X71.1790 Y47.9576
G01 X71.1740 Y47.9558
G01 X71.1691 Y47.9535
G01 X71.1644 Y47.9507
G01 X71.1601 Y47.9475
G01 X71.1561 Y47.9439
G01 X71.1525 Y47.9399
G01 X71.1493 Y47.9356
G01 X71.1465 Y47.9309
G01 X71.1442 Y47.9260
G01 X71.1424 Y47.9210
G01 X71.1411 Y47.9157
G01 X71.1403 Y47.9104
G01 X71.1400 Y47.9050
G01 X71.1400 Y44.0950
G01 X71.1403 Y44.0896
G01 X71.1411 Y44.0843
G01 X71.1424 Y44.0790
G01 X71.1442 Y44.0740
G01 X71.1465 Y44.0691
G01 X71.1493 Y44.0644
G01 X71.1525 Y44.0601
G01 X71.1561 Y44.0561
G01 X71.1601 Y44.0525
G01 X71.1644 Y44.0493
G01 X71.1691 Y44.0465
G01 X71.1740 Y44.0442
G01 X71.1790 Y44.0424
G01 X71.1843 Y44.0411
G01 X71.1896 Y44.0403
G01 X71.1950 Y44.0400
G01 X75.0050 Y44.0400
G01 X75.0104 Y44.0403
G01 X75.0157 Y44.0411
G01 X75.0210 Y44.0424
G01 X75.0260 Y44.0442
G01 X75.0309 Y44.0465
G01 X75.0356 Y44.0493
G01 X75.0399 Y44.0525
G01 X75.0439 Y44.0561
G01 X75.0475 Y44.0601
G01 X75.0507 Y44.0644
G01 X75.0535 Y44.0691
G01 X75.0558 Y44.0740
G01 X75.0576 Y44.0790
G01 X75.0589 Y44.0843
G01 X75.0597 Y44.0896
G01 X75.0600 Y44.0950
G01 X75.0600 Y47.9050
G01 X75.0597 Y47.9104
G01 X75.0589 Y47.9157
G01 X75.0576 Y47.9210
G01 X75.0558 Y47.9260
G01 X75.0535 Y47.9309
G01 X75.0507 Y47.9356
G01 X75.0475 Y47.9399
G01 X75.0439 Y47.9439
G01 X75.0399 Y47.9475
G01 X75.0356 Y47.9507
G01 X75.0309 Y47.9535
G01 X75.0260 Y47.9558
G01 X75.0210 Y47.9576
G01 X75.0157 Y47.9589
G01 X75.0104 Y47.9597
G01 X75.0050 Y47.9600
G01 X74.4256 Y47.9600
G01 X74.4256 Y55.6740
G01 X89.9703 Y55.6706
G01 X89.9703 Y33.6256
G01 X86.9398 Y33.6256
G01 X86.8387 Y33.7007
G01 X86.8342 Y33.7037
G01 X86.7272 Y33.7678
G01 X86.7225 Y33.7703
G01 X86.6098 Y33.8236
G01 X86.6048 Y33.8257
G01 X86.4874 Y33.8677
G01 X86.4822 Y33.8693
G01 X86.3613 Y33.8996
G01 X86.3560 Y33.9006
G01 X86.2326 Y33.9189
G01 X86.2272 Y33.9195
G01 X86.1027 Y33.9256
G01 X80.5000 Y33.9256
G01 X80.3728 Y33.9195
G01 X80.3674 Y33.9189
G01 X80.2440 Y33.9006
G01 X80.2387 Y33.8996
G01 X80.1178 Y33.8693
G01 X80.1126 Y33.8677
G01 X79.9952 Y33.8257
G01 X79.9902 Y33.8236
G01 X79.8775 Y33.7703
G01 X79.8728 Y33.7678
G01 X79.7658 Y33.7037
G01 X79.7613 Y33.7007
G01 X79.6612 Y33.6264
G01 X79.6570 Y33.6230
G01 X79.5626 Y33.5374
G01 X75.6608 Y29.6354
G01 X75.5770 Y29.5430
G01 X75.5736 Y29.5388
G01 X75.4993 Y29.4387
G01 X75.4963 Y29.4342
G01 X75.4322 Y29.3272
G01 X75.4297 Y29.3225
G01 X75.3764 Y29.2098
G01 X75.3743 Y29.2048
G01 X75.3323 Y29.0874
G01 X75.3307 Y29.0822
G01 X75.3004 Y28.9613
G01 X75.2994 Y28.9560
G01 X75.2811 Y28.8326
G01 X75.2805 Y28.8272
G01 X75.2744 Y28.7000
G01 X75.2744 Y20.3000
G01 X75.2805 Y20.1728
G01 X75.2811 Y20.1674
G01 X75.2994 Y20.0440
G01 X75.3004 Y20.0387
G01 X75.3307 Y19.9178
G01 X75.3323 Y19.9126
G01 X75.3743 Y19.7952
G01 X75.3764 Y19.7902
G01 X75.4297 Y19.6775
G01 X75.4322 Y19.6728
G01 X75.4963 Y19.5658
G01 X75.4993 Y19.5613
G01 X75.5736 Y19.4612
G01 X75.5770 Y19.4570
G01 X75.6608 Y19.3646
G01 X75.6646 Y19.3608
G01 X75.7570 Y19.2770
G01 X75.7612 Y19.2736
G01 X75.8613 Y19.1993
G01 X75.8658 Y19.1963
G01 X75.9728 Y19.1322
G01 X75.9775 Y19.1297
G01 X76.0902 Y19.0764
G01 X76.0952 Y19.0743
G01 X76.2126 Y19.0323
G01 X76.2178 Y19.0307
G01 X76.3387 Y19.0004
G01 X76.3440 Y18.9994
G01 X76.4674 Y18.9811
G01 X76.4728 Y18.9805
G01 X76.5973 Y18.9744
G01 X76.6027 Y18.9744
G01 X76.7272 Y18.9805
G01 X76.7326 Y18.9811
G01 X76.8560 Y18.9994
G01 X76.8613 Y19.0004
G01 X76.9822 Y19.0307
G01 X76.9874 Y19.0323
G01 X77.1048 Y19.0743
G01 X77.1098 Y19.0764
G01 X77.2225 Y19.1297
G01 X77.2272 Y19.1322
G01 X77.3342 Y19.1963
G01 X77.3387 Y19.1993
G01 X77.4388 Y19.2736
G01 X77.4430 Y19.2770
G01 X77.5374 Y19.3626
G01 X79.5069 Y21.3322
G01 X79.5925 Y21.4265
G01 X79.5959 Y21.4307
G01 X79.6702 Y21.5308
G01 X79.6732 Y21.5353
G01 X79.7373 Y21.6423
G01 X79.7398 Y21.6470
G01 X79.7932 Y21.7598
G01 X79.7952 Y21.7648
G01 X79.8372 Y21.8822
G01 X79.8388 Y21.8873
G01 X79.8691 Y22.0083
G01 X79.8702 Y22.0136
G01 X79.8885 Y22.1369
G01 X79.8890 Y22.1423
G01 X79.8951 Y22.2668
G01 X79.8952 Y27.8204
G01 X80.8674 Y28.7926
G01 X88.7631 Y28.7926
G01 X92.0931 Y25.4626
G01 X92.1874 Y25.3770
G01 X92.1916 Y25.3736
G01 X92.2918 Y25.2993
G01 X92.2963 Y25.2963
G01 X92.4032 Y25.2322
G01 X92.4080 Y25.2297
G01 X92.5207 Y25.1764
G01 X92.5257 Y25.1743
G01 X92.6431 Y25.1323
G01 X92.6483 Y25.1307
G01 X92.7692 Y25.1004
G01 X92.7745 Y25.0994
G01 X92.8978 Y25.0811
G01 X92.9032 Y25.0805
G01 X93.0305 Y25.0744
G01 X107.1702 Y25.0744
G01 X107.2975 Y25.0805
G01 X107.3029 Y25.0811
G01 X107.4262 Y25.0994
G01 X107.4315 Y25.1004
G01 X107.5525 Y25.1307
G01 X107.5576 Y25.1323
G01 X107.6750 Y25.1743
G01 X107.6800 Y25.1764
G01 X107.7927 Y25.2297
G01 X107.7975 Y25.2322
G01 X107.9045 Y25.2963
G01 X107.9089 Y25.2993
G01 X108.0091 Y25.3736
G01 X108.0133 Y25.3770
G01 X108.1076 Y25.4626
G01 X108.3374 Y25.6924
G01 X108.4230 Y25.7867
G01 X108.4264 Y25.7909
G01 X108.5007 Y25.8911
G01 X108.5037 Y25.8955
G01 X108.5678 Y26.0025
G01 X108.5703 Y26.0073
G01 X108.6236 Y26.1200
G01 X108.6257 Y26.1250
G01 X108.6677 Y26.2424
G01 X108.6693 Y26.2475
G01 X108.6996 Y26.3685
G01 X108.7006 Y26.3738
G01 X108.7189 Y26.4971
G01 X108.7195 Y26.5025
G01 X108.7256 Y26.6271
G01 X108.7256 Y27.5639
G01 X108.7912 Y27.6733
G01 X108.7938 Y27.6781
G01 X108.8577 Y27.8133
G01 X108.8598 Y27.8183
G01 X108.9102 Y27.9591
G01 X108.9117 Y27.9642
G01 X108.9481 Y28.1093
G01 X108.9491 Y28.1146
G01 X108.9711 Y28.2626
G01 X108.9716 Y28.2679
G01 X108.9789 Y28.4173
G01 X108.9789 Y28.4227
G01 X108.9716 Y28.5721
G01 X108.9711 Y28.5774
G01 X108.9491 Y28.7254
G01 X108.9481 Y28.7307
G01 X108.9117 Y28.8758
G01 X108.9102 Y28.8809
G01 X108.8598 Y29.0217
G01 X108.8577 Y29.0267
G01 X108.7938 Y29.1619
G01 X108.7912 Y29.1667
G01 X108.7143 Y29.2950
G01 X108.7113 Y29.2995
G01 X108.6222 Y29.4196
G01 X108.6188 Y29.4238
G01 X108.5184 Y29.5346
G01 X108.5146 Y29.5384
G01 X108.4038 Y29.6388
G01 X108.3996 Y29.6422
G01 X108.2795 Y29.7313
G01 X108.2750 Y29.7343
G01 X108.1467 Y29.8112
G01 X108.1419 Y29.8138
G01 X108.0067 Y29.8777
G01 X108.0017 Y29.8798
G01 X107.8609 Y29.9302
G01 X107.8558 Y29.9317
G01 X107.7107 Y29.9681
G01 X107.7054 Y29.9691
G01 X107.5574 Y29.9911
G01 X107.5521 Y29.9916
G01 X107.4027 Y29.9989
G01 X107.3973 Y29.9989
G01 X107.2479 Y29.9916
G01 X107.2426 Y29.9911
G01 X107.0946 Y29.9691
G01 X107.0893 Y29.9681
G01 X106.9442 Y29.9317
G01 X106.9391 Y29.9302
G01 X106.7983 Y29.8798
G01 X106.7933 Y29.8777
G01 X106.6581 Y29.8138
G01 X106.6533 Y29.8112
G01 X106.5250 Y29.7343
G01 X106.5205 Y29.7313
G01 X106.4004 Y29.6422
G01 X106.3962 Y29.6388
G01 X106.2854 Y29.5384
G01 X106.2816 Y29.5346
G01 X106.1812 Y29.4238
G01 X106.1778 Y29.4196
G01 X106.1229 Y29.3456
G01 X95.3895 Y29.3456
G01 X92.6216 Y32.1135
G01 X92.6216 Y56.9162
G01 X92.6256 Y57.0000
G01 X92.6256 Y58.8027
G01 X92.6195 Y58.9272
G01 X92.6189 Y58.9326
G01 X92.6006 Y59.0560
G01 X92.5996 Y59.0613
G01 X92.5693 Y59.1822
G01 X92.5677 Y59.1874
G01 X92.5257 Y59.3048
G01 X92.5236 Y59.3098
G01 X92.4703 Y59.4225
G01 X92.4678 Y59.4272
G01 X92.4037 Y59.5342
G01 X92.4007 Y59.5387
G01 X92.3264 Y59.6388
G01 X92.3230 Y59.6430
G01 X92.2374 Y59.7374
G01 X91.8374 Y60.1374
G01 X91.7430 Y60.2230
G01 X91.7388 Y60.2264
G01 X91.6387 Y60.3007
G01 X91.6342 Y60.3037
G01 X91.5272 Y60.3678
G01 X91.5225 Y60.3703
G01 X91.4098 Y60.4236
G01 X91.4048 Y60.4257
G01 X91.2874 Y60.4677
G01 X91.2822 Y60.4693
G01 X91.1613 Y60.4996
G01 X91.1560 Y60.5006
G01 X91.0326 Y60.5189
G01 X91.0272 Y60.5195
G01 X90.9000 Y60.5256
G01 X5.6000 Y60.5256
G01 X5.4728 Y60.5195
G01 X5.4674 Y60.5189
G01 X5.3440 Y60.5006
G01 X5.3387 Y60.4996
G01 X5.2178 Y60.4693
G01 X5.2126 Y60.4677
G01 X5.0952 Y60.4257
G01 X5.0902 Y60.4236
G01 X4.9775 Y60.3703
G01 X4.9728 Y60.3678
G01 X4.8658 Y60.3037
G01 X4.8613 Y60.3007
G01 X4.7612 Y60.2264
G01 X4.7570 Y60.2230
G01 X4.6646 Y60.1392
G01 X4.3998 Y59.8744
G01 X4.3160 Y59.7820
G01 X4.3126 Y59.7778
G01 X4.2383 Y59.6777
G01 X4.2353 Y59.6732
G01 X4.1712 Y59.5662
G01 X4.1687 Y59.5615
G01 X4.1154 Y59.4488
G01 X4.1133 Y59.4438
G01 X4.0713 Y59.3264
G01 X4.0697 Y59.3212
G01 X4.0394 Y59.2003
G01 X4.0384 Y59.1950
G01 X4.0201 Y59.0716
G01 X4.0195 Y59.0662
G01 X4.0134 Y58.9390
G01 X4.0134 Y57.6880
G01 X3.9743 Y57.6048
G01 X3.9323 Y57.4874
G01 X3.9307 Y57.4822
G01 X3.9004 Y57.3613
G01 X3.8994 Y57.3560
G01 X3.8811 Y57.2326
G01 X3.8805 Y57.2272
G01 X3.8744 Y57.1027
G01 X3.8744 Y57.0973
G01 X3.8805 Y56.9728
G01 X3.8811 Y56.9674
G01 X3.8994 Y56.8440
G01 X3.9004 Y56.8387
G01 X3.9307 Y56.7178
G01 X3.9323 Y56.7126
G01 X3.9743 Y56.5952
G01 X3.9764 Y56.5902
G01 X4.0297 Y56.4775
G01 X4.0322 Y56.4728
G01 X4.0963 Y56.3658
G01 X4.1240 Y56.3280
G01 X4.1133 Y56.3048
G01 X4.0713 Y56.1874
G01 X4.0697 Y56.1822
G01 X4.0394 Y56.0613
G01 X4.0384 Y56.0560
G01 X4.0201 Y55.9326
G01 X4.0195 Y55.9272
G01 X4.0134 Y55.8000
G01 X4.0134 Y47.8600
G01 X3.4340 Y47.8600
G01 X3.4286 Y47.8597
G01 X3.4233 Y47.8589
G01 X3.4180 Y47.8576
G01 X3.4130 Y47.8558
G01 X3.4081 Y47.8535
G01 X3.4034 Y47.8507
G01 X3.3991 Y47.8475
G01 X3.3951 Y47.8439
G01 X3.3915 Y47.8399
G01 X3.3883 Y47.8356
G01 X3.3855 Y47.8309
G01 X3.3832 Y47.8260
G01 X3.3814 Y47.8210
G01 X3.3801 Y47.8157
G01 X3.3793 Y47.8104
G01 X3.3790 Y47.8050
G01 X3.3790 Y43.9950
G01 X3.3793 Y43.9896
G01 X3.3801 Y43.9843
G01 X3.3814 Y43.9790
G01 X3.3832 Y43.9740
G01 X3.3855 Y43.9691
G01 X3.3883 Y43.9644
G01 X3.3915 Y43.9601
G01 X3.3951 Y43.9561
G01 X3.3991 Y43.9525
G01 X3.4034 Y43.9493
G01 X3.4081 Y43.9465
G01 X3.4130 Y43.9442
G01 X3.4180 Y43.9424
G01 X3.4233 Y43.9411
G01 X3.4286 Y43.9403
G01 X3.4340 Y43.9400
G01 X7.2440 Y43.9400
G01 X7.2494 Y43.9403
G01 X7.2547 Y43.9411
G01 X7.2600 Y43.9424
G01 X7.2650 Y43.9442
G01 X7.2699 Y43.9465
G01 X7.2746 Y43.9493
G01 X7.2789 Y43.9525
G01 X7.2829 Y43.9561
G01 X7.2865 Y43.9601
G01 X7.2897 Y43.9644
G01 X7.2925 Y43.9691
G01 X7.2948 Y43.9740
G01 X7.2966 Y43.9790
G01 X7.2979 Y43.9843
G01 X7.2987 Y43.9896
G01 X7.2990 Y43.9950
G01 X7.2990 Y47.8050
G01 X7.2987 Y47.8104
G01 X7.2979 Y47.8157
G01 X7.2966 Y47.8210
G01 X7.2948 Y47.8260
G01 X7.2925 Y47.8309
G01 X7.2897 Y47.8356
G01 X7.2865 Y47.8399
G01 X7.2829 Y47.8439
G01 X7.2789 Y47.8475
G01 X7.2746 Y47.8507
G01 X7.2699 Y47.8535
G01 X7.2650 Y47.8558
G01 X7.2600 Y47.8576
G01 X7.2547 Y47.8589
G01 X7.2494 Y47.8597
G01 X7.2440 Y47.8600
G01 X6.6646 Y47.8600
G01 X6.6646 Y55.7744
G00 Z2.0000
G00 X63.2660 Y44.2400
G01 F25.00
G01 Z-0.0187
G01 F45.00
G01 X63.2714 Y44.2403
G01 X63.2767 Y44.2411
G01 X63.2820 Y44.2424
G01 X63.2870 Y44.2442
G01 X63.2919 Y44.2465
G01 X63.2966 Y44.2493
G01 X63.3009 Y44.2525
G01 X63.3049 Y44.2561
G01 X63.3085 Y44.2601
G01 X63.3117 Y44.2644
G01 X63.3145 Y44.2691
G01 X63.3168 Y44.2740
G01 X63.3186 Y44.2790
G01 X63.3199 Y44.2843
G01 X63.3207 Y44.2896
G01 X63.3210 Y44.2950
G01 X63.3210 Y48.1050
G01 X63.3207 Y48.1104
G01 X63.3199 Y48.1157
G01 X63.3186 Y48.1210
G01 X63.3168 Y48.1260
G01 X63.3145 Y48.1309
G01 X63.3117 Y48.1356
G01 X63.3085 Y48.1399
G01 X63.3049 Y48.1439
G01 X63.3009 Y48.1475
G01 X63.2966 Y48.1507
G01 X63.2919 Y48.1535
G01 X63.2870 Y48.1558
G01 X63.2820 Y48.1576
G01 X63.2767 Y48.1589
G01 X63.2714 Y48.1597
G01 X63.2660 Y48.1600
G01 X59.4560 Y48.1600
G01 X59.4506 Y48.1597
G01 X59.4453 Y48.1589
G01 X59.4400 Y48.1576
G01 X59.4350 Y48.1558
G01 X59.4301 Y48.1535
G01 X59.4254 Y48.1507
G01 X59.4211 Y48.1475
G01 X59.4171 Y48.1439
G01 X59.4135 Y48.1399
G01 X59.4103 Y48.1356
G01 X59.4075 Y48.1309
G01 X59.4052 Y48.1260
G01 X59.4034 Y48.1210
G01 X59.4021 Y48.1157
G01 X59.4013 Y48.1104
G01 X59.4010 Y48.1050
G01 X59.4010 Y44.2950
G01 X59.4013 Y44.2896
G01 X59.4021 Y44.2843
G01 X59.4034 Y44.2790
G01 X59.4052 Y44.2740
G01 X59.4075 Y44.2691
G01 X59.4103 Y44.2644
G01 X59.4135 Y44.2601
G01 X59.4171 Y44.2561
G01 X59.4211 Y44.2525
G01 X59.4254 Y44.2493
G01 X59.4301 Y44.2465
G01 X59.4350 Y44.2442
G01 X59.4400 Y44.2424
G01 X59.4453 Y44.2411
G01 X59.4506 Y44.2403
G01 X59.4560 Y44.2400
G01 X60.0354 Y44.2400
G01 X60.0354 Y39.4465
G01 X59.5145 Y38.9256
G01 X40.1158 Y38.9256
G01 X39.8866 Y39.1548
G01 X39.8866 Y44.4400
G01 X40.4660 Y44.4400
G01 X40.4714 Y44.4403
G01 X40.4767 Y44.4411
G01 X40.4820 Y44.4424
G01 X40.4870 Y44.4442
G01 X40.4919 Y44.4465
G01 X40.4966 Y44.4493
G01 X40.5009 Y44.4525
G01 X40.5049 Y44.4561
G01 X40.5085 Y44.4601
G01 X40.5117 Y44.4644
G01 X40.5145 Y44.4691
G01 X40.5168 Y44.4740
G01 X40.5186 Y44.4790
G01 X40.5199 Y44.4843
G01 X40.5207 Y44.4896
G01 X40.5210 Y44.4950
G01 X40.5210 Y48.3050
G01 X40.5207 Y48.3104
G01 X40.5199 Y48.3157
G01 X40.5186 Y48.3210
G01 X40.5168 Y48.3260
G01 X40.5145 Y48.3309
G01 X40.5117 Y48.3356
G01 X40.5085 Y48.3399
G01 X40.5049 Y48.3439
G01 X40.5009 Y48.3475
G01 X40.4966 Y48.3507
G01 X40.4919 Y48.3535
G01 X40.4870 Y48.3558
G01 X40.4820 Y48.3576
G01 X40.4767 Y48.3589
G01 X40.4714 Y48.3597
G01 X40.4660 Y48.3600
G01 X36.6560 Y48.3600
G01 X36.6506 Y48.3597
G01 X36.6453 Y48.3589
G01 X36.6400 Y48.3576
G01 X36.6350 Y48.3558
G01 X36.6301 Y48.3535
G01 X36.6254 Y48.3507
G01 X36.6211 Y48.3475
G01 X36.6171 Y48.3439
G01 X36.6135 Y48.3399
G01 X36.6103 Y48.3356
G01 X36.6075 Y48.3309
G01 X36.6052 Y48.3260
G01 X36.6034 Y48.3210
G01 X36.6021 Y48.3157
G01 X36.6013 Y48.3104
G01 X36.6010 Y48.3050
G01 X36.6010 Y44.4950
G01 X36.6013 Y44.4896
G01 X36.6021 Y44.4843
G01 X36.6034 Y44.4790
G01 X36.6052 Y44.4740
G01 X36.6075 Y44.4691
G01 X36.6103 Y44.4644
G01 X36.6135 Y44.4601
G01 X36.6171 Y44.4561
G01 X36.6211 Y44.4525
G01 X36.6254 Y44.4493
G01 X36.6301 Y44.4465
G01 X36.6350 Y44.4442
G01 X36.6400 Y44.4424
G01 X36.6453 Y44.4411
G01 X36.6506 Y44.4403
G01 X36.6560 Y44.4400
G01 X37.2354 Y44.4400
G01 X37.2354 Y39.4768
G01 X36.4842 Y38.7256
G01 X18.1188 Y38.7256
G01 X17.1438 Y39.7006
G01 X17.1438 Y43.9400
G01 X18.1660 Y43.9400
G01 X18.1714 Y43.9403
G01 X18.1767 Y43.9411
G01 X18.1820 Y43.9424
G01 X18.1870 Y43.9442
G01 X18.1919 Y43.9465
G01 X18.1966 Y43.9493
G01 X18.2009 Y43.9525
G01 X18.2049 Y43.9561
G01 X18.2085 Y43.9601
G01 X18.2117 Y43.9644
G01 X18.2145 Y43.9691
G01 X18.2168 Y43.9740
G01 X18.2186 Y43.9790
G01 X18.2199 Y43.9843
G01 X18.2207 Y43.9896
G01 X18.2210 Y43.9950
G01 X18.2210 Y47.8050
G01 X18.2207 Y47.8104
G01 X18.2199 Y47.8157
G01 X18.2186 Y47.8210
G01 X18.2168 Y47.8260
G01 X18.2145 Y47.8309
G01 X18.2117 Y47.8356
G01 X18.2085 Y47.8399
G01 X18.2049 Y47.8439
G01 X18.2009 Y47.8475
G01 X18.1966 Y47.8507
G01 X18.1919 Y47.8535
G01 X18.1870 Y47.8558
G01 X18.1820 Y47.8576
G01 X18.1767 Y47.8589
G01 X18.1714 Y47.8597
G01 X18.1660 Y47.8600
G01 X14.3560 Y47.8600
G01 X14.3506 Y47.8597
G01 X14.3453 Y47.8589
G01 X14.3400 Y47.8576
G01 X14.3350 Y47.8558
G01 X14.3301 Y47.8535
G01 X14.3254 Y47.8507
G01 X14.3211 Y47.8475
G01 X14.3171 Y47.8439
G01 X14.3135 Y47.8399
G01 X14.3103 Y47.8356
G01 X14.3075 Y47.8309
G01 X14.3052 Y47.8260
G01 X14.3034 Y47.8210
G01 X14.3021 Y47.8157
G01 X14.3013 Y47.8104
G01 X14.3010 Y47.8050
G01 X14.3010 Y43.9950
G01 X14.3013 Y43.9896
G01 X14.3021 Y43.9843
G01 X14.3034 Y43.9790
G01 X14.3052 Y43.9740
G01 X14.3075 Y43.9691
G01 X14.3103 Y43.9644
G01 X14.3135 Y43.9601
G01 X14.3171 Y43.9561
G01 X14.3211 Y43.9525
G01 X14.3254 Y43.9493
G01 X14.3301 Y43.9465
G01 X14.3350 Y43.9442
G01 X14.3400 Y43.9424
G01 X14.3453 Y43.9411
G01 X14.3506 Y43.9403
G01 X14.3560 Y43.9400
G01 X14.4926 Y43.9400
G01 X14.4926 Y39.1515
G01 X14.4987 Y39.0243
G01 X14.4993 Y39.0189
G01 X14.5176 Y38.8956
G01 X14.5186 Y38.8903
G01 X14.5489 Y38.7693
G01 X14.5505 Y38.7641
G01 X14.5925 Y38.6467
G01 X14.5946 Y38.6417
G01 X14.6479 Y38.5290
G01 X14.6504 Y38.5243
G01 X14.7145 Y38.4173
G01 X14.7175 Y38.4128
G01 X14.7918 Y38.3127
G01 X14.7952 Y38.3085
G01 X14.8808 Y38.2141
G01 X16.6343 Y36.4608
G01 X16.7267 Y36.3770
G01 X16.7309 Y36.3736
G01 X16.8310 Y36.2993
G01 X16.8355 Y36.2963
G01 X16.9425 Y36.2322
G01 X16.9472 Y36.2297
G01 X17.0599 Y36.1764
G01 X17.0649 Y36.1743
G01 X17.1823 Y36.1323
G01 X17.1875 Y36.1307
G01 X17.3084 Y36.1004
G01 X17.3137 Y36.0994
G01 X17.4371 Y36.0811
G01 X17.4425 Y36.0805
G01 X17.5697 Y36.0744
G01 X37.0360 Y36.0744
G01 X37.1606 Y36.0805
G01 X37.1660 Y36.0811
G01 X37.2893 Y36.0994
G01 X37.2946 Y36.1004
G01 X37.4155 Y36.1307
G01 X37.4207 Y36.1323
G01 X37.5381 Y36.1743
G01 X37.5431 Y36.1764
G01 X37.6558 Y36.2297
G01 X37.6606 Y36.2322
G01 X37.7675 Y36.2963
G01 X37.7720 Y36.2993
G01 X37.8722 Y36.3736
G01 X37.8764 Y36.3770
G01 X37.9707 Y36.4626
G01 X38.4000 Y36.8919
G01 X38.6293 Y36.6626
G01 X38.7236 Y36.5770
G01 X38.7278 Y36.5736
G01 X38.8280 Y36.4993
G01 X38.8325 Y36.4963
G01 X38.9394 Y36.4322
G01 X38.9442 Y36.4297
G01 X39.0569 Y36.3764
G01 X39.0619 Y36.3743
G01 X39.1793 Y36.3323
G01 X39.1845 Y36.3307
G01 X39.3054 Y36.3004
G01 X39.3107 Y36.2994
G01 X39.4340 Y36.2811
G01 X39.4394 Y36.2805
G01 X39.5640 Y36.2744
G01 X60.0636 Y36.2744
G01 X60.1909 Y36.2805
G01 X60.1963 Y36.2811
G01 X60.3196 Y36.2994
G01 X60.3249 Y36.3004
G01 X60.4458 Y36.3307
G01 X60.4510 Y36.3323
G01 X60.5684 Y36.3743
G01 X60.5734 Y36.3764
G01 X60.6861 Y36.4297
G01 X60.6909 Y36.4322
G01 X60.7978 Y36.4963
G01 X60.8023 Y36.4993
G01 X60.9025 Y36.5736
G01 X60.9067 Y36.5770
G01 X60.9991 Y36.6608
G01 X62.3002 Y37.9619
G01 X62.3840 Y38.0543
G01 X62.3874 Y38.0585
G01 X62.4617 Y38.1587
G01 X62.4647 Y38.1632
G01 X62.5288 Y38.2701
G01 X62.5313 Y38.2749
G01 X62.5846 Y38.3876
G01 X62.5867 Y38.3926
G01 X62.6287 Y38.5100
G01 X62.6303 Y38.5152
G01 X62.6606 Y38.6361
G01 X62.6616 Y38.6414
G01 X62.6799 Y38.7647
G01 X62.6805 Y38.7701
G01 X62.6866 Y38.8974
G01 X62.6866 Y44.2400
G01 X63.2660 Y44.2400
G00 Z2.0000
G00 X80.4660 Y44.0400
G01 F25.00
G01 Z-0.0187
G01 F45.00
G01 X80.4714 Y44.0403
G01 X80.4767 Y44.0411
G01 X80.4820 Y44.0424
G01 X80.4870 Y44.0442
G01 X80.4919 Y44.0465
G01 X80.4966 Y44.0493
G01 X80.5009 Y44.0525
G01 X80.5049 Y44.0561
G01 X80.5085 Y44.0601
G01 X80.5117 Y44.0644
G01 X80.5145 Y44.0691
G01 X80.5168 Y44.0740
G01 X80.5186 Y44.0790
G01 X80.5199 Y44.0843
G01 X80.5207 Y44.0896
G01 X80.5210 Y44.0950
G01 X80.5210 Y47.9050
G01 X80.5207 Y47.9104
G01 X80.5199 Y47.9157
G01 X80.5186 Y47.9210
G01 X80.5168 Y47.9260
G01 X80.5145 Y47.9309
G01 X80.5117 Y47.9356
G01 X80.5085 Y47.9399
G01 X80.5049 Y47.9439
G01 X80.5009 Y47.9475
G01 X80.4966 Y47.9507
G01 X80.4919 Y47.9535
G01 X80.4870 Y47.9558
G01 X80.4820 Y47.9576
G01 X80.4767 Y47.9589
G01 X80.4714 Y47.9597
G01 X80.4660 Y47.9600
G01 X76.6560 Y47.9600
G01 X76.6506 Y47.9597
G01 X76.6453 Y47.9589
G01 X76.6400 Y47.9576
G01 X76.6350 Y47.9558
G01 X76.6301 Y47.9535
G01 X76.6254 Y47.9507
G01 X76.6211 Y47.9475
G01 X76.6171 Y47.9439
G01 X76.6135 Y47.9399
G01 X76.6103 Y47.9356
G01 X76.6075 Y47.9309
G01 X76.6052 Y47.9260
G01 X76.6034 Y47.9210
G01 X76.6021 Y47.9157
G01 X76.6013 Y47.9104
G01 X76.6010 Y47.9050
G01 X76.6010 Y44.0950
G01 X76.6013 Y44.0896
G01 X76.6021 Y44.0843
G01 X76.6034 Y44.0790
G01 X76.6052 Y44.0740
G01 X76.6075 Y44.0691
G01 X76.6103 Y44.0644
G01 X76.6135 Y44.0601
G01 X76.6171 Y44.0561
G01 X76.6211 Y44.0525
G01 X76.6254 Y44.0493
G01 X76.6301 Y44.0465
G01 X76.6350 Y44.0442
G01 X76.6400 Y44.0424
G01 X76.6453 Y44.0411
G01 X76.6506 Y44.0403
G01 X76.6560 Y44.0400
G01 X77.2354 Y44.0400
G01 X77.2354 Y40.7256
G01 X69.2256 Y40.7256
G01 X69.2256 Y50.7027
G01 X69.2195 Y50.8272
G01 X69.2189 Y50.8326
G01 X69.2006 Y50.9560
G01 X69.1996 Y50.9613
G01 X69.1693 Y51.0822
G01 X69.1677 Y51.0874
G01 X69.1257 Y51.2048
G01 X69.1236 Y51.2098
G01 X69.0703 Y51.3225
G01 X69.0678 Y51.3272
G01 X69.0037 Y51.4342
G01 X69.0007 Y51.4387
G01 X68.9264 Y51.5388
G01 X68.9230 Y51.5430
G01 X68.8374 Y51.6374
G01 X66.4011 Y54.0736
G01 X66.3087 Y54.1573
G01 X66.3045 Y54.1607
G01 X66.2044 Y54.2350
G01 X66.1999 Y54.2380
G01 X66.0929 Y54.3021
G01 X66.0881 Y54.3047
G01 X65.9754 Y54.3580
G01 X65.9704 Y54.3600
G01 X65.8530 Y54.4020
G01 X65.8479 Y54.4036
G01 X65.7269 Y54.4339
G01 X65.7216 Y54.4350
G01 X65.5983 Y54.4533
G01 X65.5929 Y54.4538
G01 X65.4657 Y54.4600
G01 X58.2514 Y54.4599
G01 X58.1269 Y54.4538
G01 X58.1215 Y54.4533
G01 X57.9982 Y54.4350
G01 X57.9929 Y54.4339
G01 X57.8719 Y54.4036
G01 X57.8668 Y54.4020
G01 X57.7494 Y54.3600
G01 X57.7444 Y54.3580
G01 X57.6317 Y54.3047
G01 X57.6269 Y54.3021
G01 X57.5199 Y54.2380
G01 X57.5154 Y54.2350
G01 X57.4153 Y54.1607
G01 X57.4111 Y54.1573
G01 X57.3187 Y54.0736
G01 X54.7749 Y51.5298
G01 X54.6912 Y51.4374
G01 X54.6877 Y51.4332
G01 X54.6135 Y51.3330
G01 X54.6105 Y51.3285
G01 X54.5464 Y51.2216
G01 X54.5438 Y51.2168
G01 X54.4905 Y51.1041
G01 X54.4884 Y51.0991
G01 X54.4464 Y50.9817
G01 X54.4449 Y50.9765
G01 X54.4146 Y50.8556
G01 X54.4135 Y50.8503
G01 X54.3952 Y50.7270
G01 X54.3947 Y50.7216
G01 X54.3885 Y50.5943
G01 X54.3885 Y48.1600
G01 X53.9950 Y48.1600
G01 X53.9896 Y48.1597
G01 X53.9843 Y48.1589
G01 X53.9790 Y48.1576
G01 X53.9740 Y48.1558
G01 X53.9691 Y48.1535
G01 X53.9644 Y48.1507
G01 X53.9601 Y48.1475
G01 X53.9561 Y48.1439
G01 X53.9525 Y48.1399
G01 X53.9493 Y48.1356
G01 X53.9465 Y48.1309
G01 X53.9442 Y48.1260
G01 X53.9424 Y48.1210
G01 X53.9411 Y48.1157
G01 X53.9403 Y48.1104
G01 X53.9400 Y48.1050
G01 X53.9400 Y44.2950
G01 X53.9403 Y44.2896
G01 X53.9411 Y44.2843
G01 X53.9424 Y44.2790
G01 X53.9442 Y44.2740
G01 X53.9465 Y44.2691
G01 X53.9493 Y44.2644
G01 X53.9525 Y44.2601
G01 X53.9561 Y44.2561
G01 X53.9601 Y44.2525
G01 X53.9644 Y44.2493
G01 X53.9691 Y44.2465
G01 X53.9740 Y44.2442
G01 X53.9790 Y44.2424
G01 X53.9843 Y44.2411
G01 X53.9896 Y44.2403
G01 X53.9950 Y44.2400
G01 X54.3885 Y44.2400
G01 X54.3885 Y42.5256
G01 X45.2378 Y42.5256
G01 X45.2377 Y52.6239
G01 X45.2316 Y52.7484
G01 X45.2311 Y52.7538
G01 X45.2128 Y52.8772
G01 X45.2117 Y52.8825
G01 X45.1814 Y53.0034
G01 X45.1798 Y53.0086
G01 X45.1378 Y53.1260
G01 X45.1358 Y53.1310
G01 X45.0824 Y53.2437
G01 X45.0799 Y53.2484
G01 X45.0158 Y53.3554
G01 X45.0128 Y53.3599
G01 X44.9385 Y53.4600
G01 X44.9351 Y53.4642
G01 X44.8495 Y53.5586
G01 X44.7212 Y53.6869
G01 X44.6269 Y53.7725
G01 X44.6227 Y53.7759
G01 X44.5225 Y53.8502
G01 X44.5180 Y53.8532
G01 X44.4111 Y53.9173
G01 X44.4063 Y53.9198
G01 X44.2936 Y53.9731
G01 X44.2886 Y53.9752
G01 X44.1712 Y54.0172
G01 X44.1660 Y54.0188
G01 X44.0451 Y54.0491
G01 X44.0398 Y54.0501
G01 X43.9165 Y54.0684
G01 X43.9111 Y54.0689
G01 X43.7865 Y54.0751
G01 X33.7468 Y54.0751
G01 X33.6222 Y54.0689
G01 X33.6169 Y54.0684
G01 X33.4935 Y54.0501
G01 X33.4882 Y54.0491
G01 X33.3673 Y54.0188
G01 X33.3621 Y54.0172
G01 X33.2447 Y53.9752
G01 X33.2397 Y53.9731
G01 X33.1270 Y53.9198
G01 X33.1222 Y53.9173
G01 X33.0153 Y53.8532
G01 X33.0108 Y53.8502
G01 X32.9106 Y53.7759
G01 X32.9065 Y53.7725
G01 X32.8121 Y53.6869
G01 X32.5626 Y53.4374
G01 X32.4770 Y53.3430
G01 X32.4736 Y53.3388
G01 X32.3993 Y53.2387
G01 X32.3963 Y53.2342
G01 X32.3322 Y53.1272
G01 X32.3297 Y53.1225
G01 X32.2764 Y53.0098
G01 X32.2743 Y53.0048
G01 X32.2323 Y52.8874
G01 X32.2307 Y52.8822
G01 X32.2004 Y52.7613
G01 X32.1994 Y52.7560
G01 X32.1811 Y52.6326
G01 X32.1805 Y52.6272
G01 X32.1744 Y52.5000
G01 X32.1744 Y48.3600
G01 X31.1950 Y48.3600
G01 X31.1896 Y48.3597
G01 X31.1843 Y48.3589
G01 X31.1790 Y48.3576
G01 X31.1740 Y48.3558
G01 X31.1691 Y48.3535
G01 X31.1644 Y48.3507
G01 X31.1601 Y48.3475
G01 X31.1561 Y48.3439
G01 X31.1525 Y48.3399
G01 X31.1493 Y48.3356
G01 X31.1465 Y48.3309
G01 X31.1442 Y48.3260
G01 X31.1424 Y48.3210
G01 X31.1411 Y48.3157
G01 X31.1403 Y48.3104
G01 X31.1400 Y48.3050
G01 X31.1400 Y44.4950
G01 X31.1403 Y44.4896
G01 X31.1411 Y44.4843
G01 X31.1424 Y44.4790
G01 X31.1442 Y44.4740
G01 X31.1465 Y44.4691
G01 X31.1493 Y44.4644
G01 X31.1525 Y44.4601
G01 X31.1561 Y44.4561
G01 X31.1601 Y44.4525
G01 X31.1644 Y44.4493
G01 X31.1691 Y44.4465
G01 X31.1740 Y44.4442
G01 X31.1790 Y44.4424
G01 X31.1843 Y44.4411
G01 X31.1896 Y44.4403
G01 X31.1950 Y44.4400
G01 X31.7744 Y44.4400
G01 X31.7744 Y42.4014
G01 X23.0448 Y42.4014
G01 X23.0448 Y52.2390
G01 X23.0387 Y52.3636
G01 X23.0381 Y52.3690
G01 X23.0198 Y52.4923
G01 X23.0188 Y52.4976
G01 X22.9885 Y52.6186
G01 X22.9869 Y52.6237
G01 X22.9449 Y52.7411
G01 X22.9428 Y52.7461
G01 X22.8895 Y52.8588
G01 X22.8870 Y52.8636
G01 X22.8229 Y52.9706
G01 X22.8199 Y52.9750
G01 X22.7456 Y53.0752
G01 X22.7422 Y53.0794
G01 X22.6566 Y53.1737
G01 X22.5263 Y53.3039
G01 X22.4339 Y53.3876
G01 X22.4298 Y53.3910
G01 X22.3296 Y53.4653
G01 X22.3251 Y53.4683
G01 X22.2182 Y53.5324
G01 X22.2134 Y53.5350
G01 X22.1007 Y53.5883
G01 X22.0957 Y53.5903
G01 X21.9783 Y53.6323
G01 X21.9731 Y53.6339
G01 X21.8522 Y53.6642
G01 X21.8469 Y53.6653
G01 X21.7235 Y53.6836
G01 X21.7182 Y53.6841
G01 X21.5936 Y53.6902
G01 X11.2000 Y53.6903
G01 X11.0728 Y53.6841
G01 X11.0674 Y53.6836
G01 X10.9440 Y53.6653
G01 X10.9387 Y53.6642
G01 X10.8178 Y53.6339
G01 X10.8126 Y53.6323
G01 X10.6952 Y53.5903
G01 X10.6902 Y53.5883
G01 X10.5775 Y53.5350
G01 X10.5728 Y53.5324
G01 X10.4658 Y53.4683
G01 X10.4613 Y53.4653
G01 X10.3612 Y53.3910
G01 X10.3570 Y53.3876
G01 X10.2626 Y53.3020
G01 X10.1344 Y53.1737
G01 X10.0488 Y53.0794
G01 X10.0453 Y53.0752
G01 X9.9710 Y52.9751
G01 X9.9681 Y52.9706
G01 X9.9039 Y52.8636
G01 X9.9014 Y52.8588
G01 X9.8481 Y52.7461
G01 X9.8460 Y52.7411
G01 X9.8040 Y52.6237
G01 X9.8024 Y52.6186
G01 X9.7721 Y52.4976
G01 X9.7711 Y52.4923
G01 X9.7528 Y52.3690
G01 X9.7523 Y52.3636
G01 X9.7461 Y52.2364
G01 X9.7461 Y47.8600
G01 X8.8950 Y47.8600
G01 X8.8896 Y47.8597
G01 X8.8843 Y47.8589
G01 X8.8790 Y47.8576
G01 X8.8740 Y47.8558
G01 X8.8691 Y47.8535
G01 X8.8644 Y47.8507
G01 X8.8601 Y47.8475
G01 X8.8561 Y47.8439
G01 X8.8525 Y47.8399
G01 X8.8493 Y47.8356
G01 X8.8465 Y47.8309
G01 X8.8442 Y47.8260
G01 X8.8424 Y47.8210
G01 X8.8411 Y47.8157
G01 X8.8403 Y47.8104
G01 X8.8400 Y47.8050
G01 X8.8400 Y43.9950
G01 X8.8403 Y43.9896
G01 X8.8411 Y43.9843
G01 X8.8424 Y43.9790
G01 X8.8442 Y43.9740
G01 X8.8465 Y43.9691
G01 X8.8493 Y43.9644
G01 X8.8525 Y43.9601
G01 X8.8561 Y43.9561
G01 X8.8601 Y43.9525
G01 X8.8644 Y43.9493
G01 X8.8691 Y43.9465
G01 X8.8740 Y43.9442
G01 X8.8790 Y43.9424
G01 X8.8843 Y43.9411
G01 X8.8896 Y43.9403
G01 X8.8950 Y43.9400
G01 X9.4744 Y43.9400
G01 X9.4744 Y30.3256
G01 X8.5561 Y30.3256
G01 X8.4467 Y30.3912
G01 X8.4419 Y30.3938
G01 X8.3067 Y30.4577
G01 X8.3017 Y30.4598
G01 X8.1609 Y30.5102
G01 X8.1558 Y30.5117
G01 X8.0107 Y30.5481
G01 X8.0054 Y30.5491
G01 X7.8574 Y30.5711
G01 X7.8521 Y30.5716
G01 X7.7027 Y30.5789
G01 X7.6973 Y30.5789
G01 X7.5479 Y30.5716
G01 X7.5426 Y30.5711
G01 X7.3946 Y30.5491
G01 X7.3893 Y30.5481
G01 X7.2442 Y30.5117
G01 X7.2391 Y30.5102
G01 X7.0983 Y30.4598
G01 X7.0933 Y30.4577
G01 X6.9581 Y30.3938
G01 X6.9533 Y30.3912
G01 X6.8250 Y30.3143
G01 X6.8205 Y30.3113
G01 X6.7004 Y30.2222
G01 X6.6962 Y30.2188
G01 X6.5854 Y30.1184
G01 X6.5816 Y30.1146
G01 X6.4812 Y30.0038
G01 X6.4778 Y29.9996
G01 X6.3887 Y29.8795
G01 X6.3857 Y29.8750
G01 X6.3088 Y29.7467
G01 X6.3062 Y29.7419
G01 X6.2423 Y29.6067
G01 X6.2402 Y29.6017
G01 X6.1898 Y29.4609
G01 X6.1883 Y29.4558
G01 X6.1519 Y29.3107
G01 X6.1509 Y29.3054
G01 X6.1289 Y29.1574
G01 X6.1284 Y29.1521
G01 X6.1211 Y29.0027
G01 X6.1211 Y28.9973
G01 X6.1284 Y28.8479
G01 X6.1289 Y28.8426
G01 X6.1509 Y28.6946
G01 X6.1519 Y28.6893
G01 X6.1883 Y28.5442
G01 X6.1898 Y28.5391
G01 X6.2402 Y28.3983
G01 X6.2423 Y28.3933
G01 X6.3062 Y28.2581
G01 X6.3088 Y28.2533
G01 X6.3857 Y28.1250
G01 X6.3887 Y28.1205
G01 X6.4778 Y28.0004
G01 X6.4812 Y27.9962
G01 X6.5816 Y27.8854
G01 X6.5854 Y27.8816
G01 X6.6962 Y27.7812
G01 X6.7004 Y27.7778
G01 X6.8205 Y27.6887
G01 X6.8250 Y27.6857
G01 X6.9533 Y27.6088
G01 X6.9581 Y27.6062
G01 X7.0933 Y27.5423
G01 X7.0983 Y27.5402
G01 X7.2391 Y27.4898
G01 X7.2442 Y27.4883
G01 X7.3893 Y27.4519
G01 X7.3946 Y27.4509
G01 X7.5426 Y27.4289
G01 X7.5479 Y27.4284
G01 X7.6973 Y27.4211
G01 X7.7027 Y27.4211
G01 X7.8521 Y27.4284
G01 X7.8574 Y27.4289
G01 X8.0054 Y27.4509
G01 X8.0107 Y27.4519
G01 X8.1558 Y27.4883
G01 X8.1609 Y27.4898
G01 X8.3017 Y27.5402
G01 X8.3067 Y27.5423
G01 X8.4419 Y27.6062
G01 X8.4467 Y27.6088
G01 X8.5561 Y27.6744
G01 X10.7792 Y27.6744
G01 X10.7929 Y27.6608
G01 X10.8853 Y27.5770
G01 X10.8894 Y27.5736
G01 X10.9896 Y27.4993
G01 X10.9941 Y27.4963
G01 X11.1010 Y27.4322
G01 X11.1058 Y27.4297
G01 X11.2185 Y27.3764
G01 X11.2235 Y27.3743
G01 X11.3409 Y27.3323
G01 X11.3461 Y27.3307
G01 X11.4670 Y27.3004
G01 X11.4723 Y27.2994
G01 X11.5957 Y27.2811
G01 X11.6010 Y27.2805
G01 X11.7256 Y27.2744
G01 X19.8600 Y27.2744
G01 X19.8743 Y27.2750
G01 X20.3172 Y27.2750
G01 X20.3226 Y27.2753
G01 X20.3279 Y27.2761
G01 X20.3332 Y27.2774
G01 X20.3382 Y27.2792
G01 X20.3431 Y27.2815
G01 X20.3478 Y27.2843
G01 X20.3521 Y27.2875
G01 X20.3561 Y27.2911
G01 X20.5121 Y27.4471
G01 X20.5942 Y27.4963
G01 X20.5987 Y27.4993
G01 X20.6988 Y27.5736
G01 X20.7030 Y27.5770
G01 X20.7954 Y27.6608
G01 X20.7992 Y27.6646
G01 X20.8830 Y27.7570
G01 X20.8864 Y27.7612
G01 X20.9607 Y27.8613
G01 X20.9637 Y27.8658
G01 X21.0278 Y27.9728
G01 X21.0303 Y27.9775
G01 X21.0836 Y28.0902
G01 X21.0857 Y28.0952
G01 X21.1277 Y28.2126
G01 X21.1293 Y28.2178
G01 X21.1596 Y28.3387
G01 X21.1606 Y28.3440
G01 X21.1789 Y28.4674
G01 X21.1795 Y28.4728
G01 X21.1856 Y28.5973
G01 X21.1856 Y28.6027
G01 X21.1795 Y28.7272
G01 X21.1789 Y28.7326
G01 X21.1606 Y28.8560
G01 X21.1596 Y28.8613
G01 X21.1293 Y28.9822
G01 X21.1277 Y28.9874
G01 X21.0857 Y29.1048
G01 X21.0836 Y29.1098
G01 X21.0303 Y29.2225
G01 X21.0278 Y29.2272
G01 X20.9637 Y29.3342
G01 X20.9607 Y29.3387
G01 X20.8864 Y29.4388
G01 X20.8830 Y29.4430
G01 X20.7992 Y29.5354
G01 X20.7954 Y29.5392
G01 X20.7030 Y29.6230
G01 X20.6988 Y29.6264
G01 X20.5987 Y29.7007
G01 X20.5942 Y29.7037
G01 X20.5121 Y29.7529
G01 X20.3561 Y29.9089
G01 X20.3521 Y29.9125
G01 X20.3478 Y29.9157
G01 X20.3431 Y29.9185
G01 X20.3382 Y29.9208
G01 X20.3332 Y29.9226
G01 X20.3279 Y29.9239
G01 X20.3226 Y29.9247
G01 X20.3172 Y29.9250
G01 X19.8743 Y29.9250
G01 X19.8600 Y29.9256
G01 X12.2774 Y29.9256
G01 X12.1256 Y30.0774
G01 X12.1256 Y43.9400
G01 X12.7050 Y43.9400
G01 X12.7104 Y43.9403
G01 X12.7157 Y43.9411
G01 X12.7210 Y43.9424
G01 X12.7260 Y43.9442
G01 X12.7309 Y43.9465
G01 X12.7356 Y43.9493
G01 X12.7399 Y43.9525
G01 X12.7439 Y43.9561
G01 X12.7475 Y43.9601
G01 X12.7507 Y43.9644
G01 X12.7535 Y43.9691
G01 X12.7558 Y43.9740
G01 X12.7576 Y43.9790
G01 X12.7589 Y43.9843
G01 X12.7597 Y43.9896
G01 X12.7600 Y43.9950
G01 X12.7600 Y47.8050
G01 X12.7597 Y47.8104
G01 X12.7589 Y47.8157
G01 X12.7576 Y47.8210
G01 X12.7558 Y47.8260
G01 X12.7535 Y47.8309
G01 X12.7507 Y47.8356
G01 X12.7475 Y47.8399
G01 X12.7439 Y47.8439
G01 X12.7399 Y47.8475
G01 X12.7356 Y47.8507
G01 X12.7309 Y47.8535
G01 X12.7260 Y47.8558
G01 X12.7210 Y47.8576
G01 X12.7157 Y47.8589
G01 X12.7104 Y47.8597
G01 X12.7050 Y47.8600
G01 X12.3974 Y47.8600
G01 X12.3974 Y51.0390
G01 X20.3936 Y51.0390
G01 X20.3936 Y41.4606
G01 X20.3997 Y41.3334
G01 X20.4003 Y41.3280
G01 X20.4186 Y41.2046
G01 X20.4196 Y41.1993
G01 X20.4499 Y41.0784
G01 X20.4515 Y41.0732
G01 X20.4935 Y40.9558
G01 X20.4956 Y40.9508
G01 X20.5489 Y40.8381
G01 X20.5514 Y40.8334
G01 X20.6155 Y40.7264
G01 X20.6185 Y40.7219
G01 X20.6928 Y40.6218
G01 X20.6962 Y40.6176
G01 X20.7818 Y40.5232
G01 X21.1686 Y40.1365
G01 X21.2610 Y40.0528
G01 X21.2652 Y40.0494
G01 X21.3654 Y39.9751
G01 X21.3698 Y39.9721
G01 X21.4768 Y39.9080
G01 X21.4816 Y39.9054
G01 X21.5943 Y39.8521
G01 X21.5993 Y39.8501
G01 X21.7167 Y39.8080
G01 X21.7218 Y39.8065
G01 X21.8428 Y39.7762
G01 X21.8481 Y39.7751
G01 X21.9714 Y39.7568
G01 X21.9768 Y39.7563
G01 X22.1041 Y39.7501
G01 X33.1391 Y39.7502
G01 X33.2636 Y39.7563
G01 X33.2690 Y39.7568
G01 X33.3923 Y39.7751
G01 X33.3976 Y39.7762
G01 X33.5186 Y39.8065
G01 X33.5237 Y39.8080
G01 X33.6411 Y39.8501
G01 X33.6461 Y39.8521
G01 X33.7589 Y39.9054
G01 X33.7636 Y39.9080
G01 X33.8706 Y39.9721
G01 X33.8751 Y39.9751
G01 X33.9752 Y40.0494
G01 X33.9794 Y40.0528
G01 X34.0718 Y40.1365
G01 X34.0756 Y40.1403
G01 X34.1593 Y40.2327
G01 X34.1628 Y40.2369
G01 X34.2370 Y40.3371
G01 X34.2400 Y40.3415
G01 X34.3041 Y40.4485
G01 X34.3067 Y40.4533
G01 X34.3600 Y40.5660
G01 X34.3621 Y40.5710
G01 X34.4041 Y40.6884
G01 X34.4056 Y40.6935
G01 X34.4359 Y40.8145
G01 X34.4370 Y40.8198
G01 X34.4553 Y40.9431
G01 X34.4558 Y40.9485
G01 X34.4619 Y41.0731
G01 X34.4619 Y41.0784
G01 X34.4558 Y41.2030
G01 X34.4553 Y41.2084
G01 X34.4370 Y41.3317
G01 X34.4256 Y41.3781
G01 X34.4256 Y44.4400
G01 X35.0050 Y44.4400
G01 X35.0104 Y44.4403
G01 X35.0157 Y44.4411
G01 X35.0210 Y44.4424
G01 X35.0260 Y44.4442
G01 X35.0309 Y44.4465
G01 X35.0356 Y44.4493
G01 X35.0399 Y44.4525
G01 X35.0439 Y44.4561
G01 X35.0475 Y44.4601
G01 X35.0507 Y44.4644
G01 X35.0535 Y44.4691
G01 X35.0558 Y44.4740
G01 X35.0576 Y44.4790
G01 X35.0589 Y44.4843
G01 X35.0597 Y44.4896
G01 X35.0600 Y44.4950
G01 X35.0600 Y48.3050
G01 X35.0597 Y48.3104
G01 X35.0589 Y48.3157
G01 X35.0576 Y48.3210
G01 X35.0558 Y48.3260
G01 X35.0535 Y48.3309
G01 X35.0507 Y48.3356
G01 X35.0475 Y48.3399
G01 X35.0439 Y48.3439
G01 X35.0399 Y48.3475
G01 X35.0356 Y48.3507
G01 X35.0309 Y48.3535
G01 X35.0260 Y48.3558
G01 X35.0210 Y48.3576
G01 X35.0157 Y48.3589
G01 X35.0104 Y48.3597
G01 X35.0050 Y48.3600
G01 X34.8256 Y48.3600
G01 X34.8256 Y51.4239
G01 X42.5865 Y51.4239
G01 X42.5865 Y41.4606
G01 X42.5927 Y41.3334
G01 X42.5932 Y41.3280
G01 X42.6115 Y41.2046
G01 X42.6126 Y41.1993
G01 X42.6429 Y41.0784
G01 X42.6444 Y41.0732
G01 X42.6864 Y40.9558
G01 X42.6885 Y40.9508
G01 X42.7418 Y40.8381
G01 X42.7444 Y40.8334
G01 X42.8085 Y40.7264
G01 X42.8115 Y40.7219
G01 X42.8857 Y40.6218
G01 X42.8892 Y40.6176
G01 X42.9729 Y40.5252
G01 X43.2373 Y40.2608
G01 X43.3297 Y40.1770
G01 X43.3339 Y40.1736
G01 X43.4340 Y40.0993
G01 X43.4385 Y40.0963
G01 X43.5455 Y40.0322
G01 X43.5502 Y40.0297
G01 X43.6630 Y39.9764
G01 X43.6680 Y39.9743
G01 X43.7854 Y39.9323
G01 X43.7905 Y39.9307
G01 X43.9115 Y39.9004
G01 X43.9168 Y39.8994
G01 X44.0401 Y39.8811
G01 X44.0455 Y39.8805
G01 X44.1727 Y39.8744
G01 X55.7000 Y39.8744
G01 X55.8272 Y39.8805
G01 X55.8326 Y39.8811
G01 X55.9560 Y39.8994
G01 X55.9613 Y39.9004
G01 X56.0822 Y39.9307
G01 X56.0874 Y39.9323
G01 X56.2048 Y39.9743
G01 X56.2098 Y39.9764
G01 X56.3225 Y40.0297
G01 X56.3272 Y40.0322
G01 X56.4342 Y40.0963
G01 X56.4387 Y40.0993
G01 X56.5388 Y40.1736
G01 X56.5430 Y40.1770
G01 X56.6374 Y40.2626
G01 X56.6534 Y40.2787
G01 X56.7371 Y40.3711
G01 X56.7405 Y40.3753
G01 X56.8148 Y40.4754
G01 X56.8178 Y40.4799
G01 X56.8819 Y40.5869
G01 X56.8845 Y40.5917
G01 X56.9378 Y40.7044
G01 X56.9398 Y40.7094
G01 X56.9818 Y40.8268
G01 X56.9834 Y40.8319
G01 X57.0137 Y40.9529
G01 X57.0148 Y40.9582
G01 X57.0331 Y41.0815
G01 X57.0336 Y41.0869
G01 X57.0398 Y41.2141
G01 X57.0398 Y44.2400
G01 X57.8050 Y44.2400
G01 X57.8104 Y44.2403
G01 X57.8157 Y44.2411
G01 X57.8210 Y44.2424
G01 X57.8260 Y44.2442
G01 X57.8309 Y44.2465
G01 X57.8356 Y44.2493
G01 X57.8399 Y44.2525
G01 X57.8439 Y44.2561
G01 X57.8475 Y44.2601
G01 X57.8507 Y44.2644
G01 X57.8535 Y44.2691
G01 X57.8558 Y44.2740
G01 X57.8576 Y44.2790
G01 X57.8589 Y44.2843
G01 X57.8597 Y44.2896
G01 X57.8600 Y44.2950
G01 X57.8600 Y48.1050
G01 X57.8597 Y48.1104
G01 X57.8589 Y48.1157
G01 X57.8576 Y48.1210
G01 X57.8558 Y48.1260
G01 X57.8535 Y48.1309
G01 X57.8507 Y48.1356
G01 X57.8475 Y48.1399
G01 X57.8439 Y48.1439
G01 X57.8399 Y48.1475
G01 X57.8356 Y48.1507
G01 X57.8309 Y48.1535
G01 X57.8260 Y48.1558
G01 X57.8210 Y48.1576
G01 X57.8157 Y48.1589
G01 X57.8104 Y48.1597
G01 X57.8050 Y48.1600
G01 X57.0398 Y48.1600
G01 X57.0398 Y50.0452
G01 X58.8032 Y51.8087
G01 X64.9166 Y51.8087
G01 X66.5744 Y50.1509
G01 X66.5744 Y39.8000
G01 X66.5805 Y39.6728
G01 X66.5811 Y39.6674
G01 X66.5994 Y39.5440
G01 X66.6004 Y39.5387
G01 X66.6307 Y39.4178
G01 X66.6323 Y39.4126
G01 X66.6743 Y39.2952
G01 X66.6764 Y39.2902
G01 X66.7297 Y39.1775
G01 X66.7322 Y39.1728
G01 X66.7963 Y39.0658
G01 X66.7993 Y39.0613
G01 X66.8736 Y38.9612
G01 X66.8770 Y38.9570
G01 X66.9626 Y38.8626
G01 X67.3626 Y38.4626
G01 X67.4570 Y38.3770
G01 X67.4612 Y38.3736
G01 X67.5613 Y38.2993
G01 X67.5658 Y38.2963
G01 X67.6728 Y38.2322
G01 X67.6775 Y38.2297
G01 X67.7902 Y38.1764
G01 X67.7952 Y38.1743
G01 X67.9126 Y38.1323
G01 X67.9178 Y38.1307
G01 X68.0387 Y38.1004
G01 X68.0440 Y38.0994
G01 X68.1674 Y38.0811
G01 X68.1728 Y38.0805
G01 X68.3000 Y38.0744
G01 X77.9000 Y38.0744
G01 X78.0272 Y38.0805
G01 X78.0326 Y38.0811
G01 X78.1560 Y38.0994
G01 X78.1613 Y38.1004
G01 X78.2822 Y38.1307
G01 X78.2874 Y38.1323
G01 X78.4048 Y38.1743
G01 X78.4098 Y38.1764
G01 X78.5225 Y38.2297
G01 X78.5272 Y38.2322
G01 X78.6342 Y38.2963
G01 X78.6387 Y38.2993
G01 X78.7388 Y38.3736
G01 X78.7430 Y38.3770
G01 X78.8374 Y38.4626
G01 X79.5002 Y39.1256
G01 X79.5840 Y39.2180
G01 X79.5874 Y39.2222
G01 X79.6617 Y39.3223
G01 X79.6647 Y39.3268
G01 X79.7288 Y39.4338
G01 X79.7313 Y39.4385
G01 X79.7846 Y39.5512
G01 X79.7867 Y39.5562
G01 X79.8287 Y39.6736
G01 X79.8303 Y39.6788
G01 X79.8606 Y39.7997
G01 X79.8616 Y39.8050
G01 X79.8799 Y39.9284
G01 X79.8805 Y39.9338
G01 X79.8866 Y40.0610
G01 X79.8866 Y44.0400
G01 X80.4660 Y44.0400
G00 Z2.0000
G00 X94.9259 Y55.4070
G01 F25.00
G01 Z-0.0187
G01 F45.00
G01 X94.9259 Y33.5071
G01 X94.9321 Y33.3798
G01 X94.9326 Y33.3745
G01 X94.9509 Y33.2511
G01 X94.9519 Y33.2458
G01 X94.9822 Y33.1249
G01 X94.9838 Y33.1197
G01 X95.0258 Y33.0023
G01 X95.0279 Y32.9973
G01 X95.0812 Y32.8846
G01 X95.0837 Y32.8798
G01 X95.1478 Y32.7729
G01 X95.1508 Y32.7684
G01 X95.2251 Y32.6682
G01 X95.2285 Y32.6641
G01 X95.3123 Y32.5717
G01 X95.3232 Y32.5608
G01 X95.4156 Y32.4770
G01 X95.4197 Y32.4736
G01 X95.5199 Y32.3993
G01 X95.5244 Y32.3963
G01 X95.6313 Y32.3322
G01 X95.6361 Y32.3297
G01 X95.7488 Y32.2764
G01 X95.7538 Y32.2743
G01 X95.8712 Y32.2323
G01 X95.8764 Y32.2307
G01 X95.9973 Y32.2004
G01 X96.0026 Y32.1994
G01 X96.1260 Y32.1811
G01 X96.1313 Y32.1805
G01 X96.2559 Y32.1744
G01 X106.5439 Y32.1744
G01 X106.6533 Y32.1088
G01 X106.6581 Y32.1062
G01 X106.7933 Y32.0423
G01 X106.7983 Y32.0402
G01 X106.9391 Y31.9898
G01 X106.9442 Y31.9883
G01 X107.0893 Y31.9519
G01 X107.0946 Y31.9509
G01 X107.2426 Y31.9289
G01 X107.2479 Y31.9284
G01 X107.3973 Y31.9211
G01 X107.4027 Y31.9211
G01 X107.5521 Y31.9284
G01 X107.5574 Y31.9289
G01 X107.7054 Y31.9509
G01 X107.7107 Y31.9519
G01 X107.8558 Y31.9883
G01 X107.8609 Y31.9898
G01 X108.0017 Y32.0402
G01 X108.0067 Y32.0423
G01 X108.1419 Y32.1062
G01 X108.1467 Y32.1088
G01 X108.2679 Y32.1814
G01 X111.9875 Y32.1814
G01 X111.9875 Y7.2827
G01 X111.8715 Y7.1667
G01 X31.8715 Y7.1667
G01 X31.8715 Y11.5600
G01 X31.8665 Y11.6623
G01 X31.8660 Y11.6677
G01 X31.8514 Y11.7664
G01 X31.8503 Y11.7717
G01 X31.8261 Y11.8684
G01 X31.8245 Y11.8736
G01 X31.7909 Y11.9675
G01 X31.7889 Y11.9725
G01 X31.7462 Y12.0627
G01 X31.7437 Y12.0675
G01 X31.6924 Y12.1530
G01 X31.6894 Y12.1575
G01 X31.6299 Y12.2376
G01 X31.6265 Y12.2418
G01 X31.5595 Y12.3157
G01 X31.5557 Y12.3195
G01 X31.4818 Y12.3865
G01 X31.4776 Y12.3899
G01 X31.3975 Y12.4494
G01 X31.3930 Y12.4524
G01 X31.3075 Y12.5037
G01 X31.3027 Y12.5062
G01 X31.2125 Y12.5489
G01 X31.2075 Y12.5509
G01 X31.1136 Y12.5845
G01 X31.1084 Y12.5861
G01 X31.0117 Y12.6103
G01 X31.0064 Y12.6114
G01 X30.9077 Y12.6260
G01 X30.9023 Y12.6265
G01 X30.8027 Y12.6314
G01 X30.7973 Y12.6314
G01 X30.6977 Y12.6265
G01 X30.6923 Y12.6260
G01 X30.5936 Y12.6114
G01 X30.5883 Y12.6103
G01 X30.4916 Y12.5861
G01 X30.4864 Y12.5845
G01 X30.3925 Y12.5509
G01 X30.3875 Y12.5489
G01 X30.2973 Y12.5062
G01 X30.2925 Y12.5037
G01 X30.2070 Y12.4524
G01 X30.2025 Y12.4494
G01 X30.1224 Y12.3899
G01 X30.1182 Y12.3865
G01 X30.0443 Y12.3195
G01 X30.0405 Y12.3157
G01 X29.9735 Y12.2418
G01 X29.9701 Y12.2376
G01 X29.9106 Y12.1575
G01 X29.9076 Y12.1530
G01 X29.8563 Y12.0675
G01 X29.8538 Y12.0627
G01 X29.8111 Y11.9725
G01 X29.8091 Y11.9675
G01 X29.7755 Y11.8736
G01 X29.7739 Y11.8684
G01 X29.7497 Y11.7717
G01 X29.7486 Y11.7664
G01 X29.7340 Y11.6677
G01 X29.7335 Y11.6623
G01 X29.7285 Y11.5600
G01 X29.7285 Y7.1667
G01 X23.5256 Y7.1667
G01 X23.5256 Y10.7400
G01 X23.5195 Y10.8672
G01 X23.5189 Y10.8726
G01 X23.5006 Y10.9960
G01 X23.4996 Y11.0013
G01 X23.4693 Y11.1222
G01 X23.4677 Y11.1274
G01 X23.4257 Y11.2448
G01 X23.4236 Y11.2498
G01 X23.3703 Y11.3625
G01 X23.3678 Y11.3672
G01 X23.3037 Y11.4742
G01 X23.3007 Y11.4787
G01 X23.2264 Y11.5788
G01 X23.2230 Y11.5830
G01 X23.1392 Y11.6754
G01 X23.1354 Y11.6792
G01 X23.0430 Y11.7630
G01 X23.0388 Y11.7664
G01 X22.9387 Y11.8407
G01 X22.9342 Y11.8437
G01 X22.8272 Y11.9078
G01 X22.8225 Y11.9103
G01 X22.7098 Y11.9636
G01 X22.7048 Y11.9657
G01 X22.5874 Y12.0077
G01 X22.5822 Y12.0093
G01 X22.4613 Y12.0396
G01 X22.4560 Y12.0406
G01 X22.3326 Y12.0589
G01 X22.3272 Y12.0595
G01 X22.2027 Y12.0656
G01 X22.1973 Y12.0656
G01 X22.0728 Y12.0595
G01 X22.0674 Y12.0589
G01 X21.9440 Y12.0406
G01 X21.9387 Y12.0396
G01 X21.8178 Y12.0093
G01 X21.8126 Y12.0077
G01 X21.6952 Y11.9657
G01 X21.6902 Y11.9636
G01 X21.5775 Y11.9103
G01 X21.5728 Y11.9078
G01 X21.4658 Y11.8437
G01 X21.4613 Y11.8407
G01 X21.3612 Y11.7664
G01 X21.3570 Y11.7630
G01 X21.2646 Y11.6792
G01 X21.2608 Y11.6754
G01 X21.1770 Y11.5830
G01 X21.1736 Y11.5788
G01 X21.0993 Y11.4787
G01 X21.0963 Y11.4742
G01 X21.0322 Y11.3672
G01 X21.0297 Y11.3625
G01 X20.9764 Y11.2498
G01 X20.9743 Y11.2448
G01 X20.9323 Y11.1274
G01 X20.9307 Y11.1222
G01 X20.9004 Y11.0013
G01 X20.8994 Y10.9960
G01 X20.8811 Y10.8726
G01 X20.8805 Y10.8672
G01 X20.8744 Y10.7400
G01 X20.8744 Y7.1667
G01 X18.4081 Y7.1667
G01 X8.7256 Y16.8491
G01 X8.7256 Y21.3823
G01 X8.8127 Y21.4695
G01 X8.8499 Y21.5114
G01 X8.8876 Y21.5530
G01 X8.8989 Y21.5669
G01 X8.9683 Y21.6618
G01 X8.9752 Y21.6723
G01 X9.0036 Y21.7206
G01 X9.0324 Y21.7688
G01 X9.0408 Y21.7846
G01 X9.0643 Y21.8355
G01 X9.0883 Y21.8862
G01 X9.0951 Y21.9028
G01 X9.1135 Y21.9558
G01 X9.1324 Y22.0086
G01 X9.1360 Y22.0206
G01 X9.1642 Y22.1347
G01 X9.1676 Y22.1523
G01 X9.1753 Y22.2079
G01 X9.1836 Y22.2634
G01 X9.1848 Y22.2758
G01 X9.1902 Y22.3933
G01 X9.1901 Y22.4112
G01 X9.1869 Y22.4672
G01 X9.1841 Y22.5232
G01 X9.1826 Y22.5384
G01 X9.1098 Y23.2120
G01 X9.1577 Y23.3133
G01 X9.1598 Y23.3183
G01 X9.2102 Y23.4591
G01 X9.2117 Y23.4642
G01 X9.2481 Y23.6093
G01 X9.2491 Y23.6146
G01 X9.2711 Y23.7626
G01 X9.2716 Y23.7679
G01 X9.2789 Y23.9173
G01 X9.2789 Y23.9227
G01 X9.2716 Y24.0721
G01 X9.2711 Y24.0774
G01 X9.2491 Y24.2254
G01 X9.2481 Y24.2307
G01 X9.2117 Y24.3758
G01 X9.2102 Y24.3809
G01 X9.1598 Y24.5217
G01 X9.1577 Y24.5267
G01 X9.0938 Y24.6619
G01 X9.0912 Y24.6667
G01 X9.0143 Y24.7950
G01 X9.0113 Y24.7995
G01 X8.9222 Y24.9196
G01 X8.9188 Y24.9238
G01 X8.8184 Y25.0346
G01 X8.8146 Y25.0384
G01 X8.7038 Y25.1388
G01 X8.6996 Y25.1422
G01 X8.5795 Y25.2313
G01 X8.5750 Y25.2343
G01 X8.4467 Y25.3112
G01 X8.4419 Y25.3138
G01 X8.3067 Y25.3777
G01 X8.3017 Y25.3798
G01 X8.1609 Y25.4302
G01 X8.1558 Y25.4317
G01 X8.0107 Y25.4681
G01 X8.0054 Y25.4691
G01 X7.8574 Y25.4911
G01 X7.8521 Y25.4916
G01 X7.7027 Y25.4989
G01 X7.6973 Y25.4989
G01 X7.5479 Y25.4916
G01 X7.5426 Y25.4911
G01 X7.3946 Y25.4691
G01 X7.3893 Y25.4681
G01 X7.2442 Y25.4317
G01 X7.2391 Y25.4302
G01 X7.0983 Y25.3798
G01 X7.0933 Y25.3777
G01 X6.9581 Y25.3138
G01 X6.9533 Y25.3112
G01 X6.8250 Y25.2343
G01 X6.8205 Y25.2313
G01 X6.7004 Y25.1422
G01 X6.6962 Y25.1388
G01 X6.5854 Y25.0384
G01 X6.5816 Y25.0346
G01 X6.4812 Y24.9238
G01 X6.4778 Y24.9196
G01 X6.3887 Y24.7995
G01 X6.3857 Y24.7950
G01 X6.3088 Y24.6667
G01 X6.3062 Y24.6619
G01 X6.2423 Y24.5267
G01 X6.2402 Y24.5217
G01 X6.1898 Y24.3809
G01 X6.1883 Y24.3758
G01 X6.1573 Y24.2520
G01 X5.2626 Y23.3574
G01 X5.1770 Y23.2630
G01 X5.1736 Y23.2588
G01 X5.0993 Y23.1587
G01 X5.0963 Y23.1542
G01 X5.0322 Y23.0472
G01 X5.0297 Y23.0425
G01 X4.9764 Y22.9298
G01 X4.9743 Y22.9248
G01 X4.9323 Y22.8074
G01 X4.9307 Y22.8022
G01 X4.9004 Y22.6813
G01 X4.8994 Y22.6760
G01 X4.8811 Y22.5526
G01 X4.8805 Y22.5472
G01 X4.8744 Y22.4200
G01 X4.8744 Y14.7496
G01 X4.8805 Y14.6224
G01 X4.8811 Y14.6170
G01 X4.8994 Y14.4937
G01 X4.9004 Y14.4884
G01 X4.9307 Y14.3674
G01 X4.9323 Y14.3623
G01 X4.9743 Y14.2449
G01 X4.9764 Y14.2399
G01 X5.0297 Y14.1271
G01 X5.0322 Y14.1224
G01 X5.0963 Y14.0154
G01 X5.0993 Y14.0109
G01 X5.1736 Y13.9108
G01 X5.1770 Y13.9066
G01 X5.2626 Y13.8123
G01 X16.2087 Y2.8662
G01 X16.3031 Y2.7806
G01 X16.3073 Y2.7771
G01 X16.4074 Y2.7028
G01 X16.4119 Y2.6999
G01 X16.5189 Y2.6357
G01 X16.5236 Y2.6332
G01 X16.6363 Y2.5799
G01 X16.6413 Y2.5778
G01 X16.7587 Y2.5358
G01 X16.7639 Y2.5342
G01 X16.8849 Y2.5039
G01 X16.8902 Y2.5029
G01 X17.0135 Y2.4846
G01 X17.0189 Y2.4841
G01 X17.1461 Y2.4779
G01 X113.4819 Y2.4779
G01 X113.6091 Y2.4841
G01 X113.6145 Y2.4846
G01 X113.7378 Y2.5029
G01 X113.7431 Y2.5039
G01 X113.8641 Y2.5342
G01 X113.8692 Y2.5358
G01 X113.9866 Y2.5778
G01 X113.9916 Y2.5799
G01 X114.1043 Y2.6332
G01 X114.1091 Y2.6357
G01 X114.2161 Y2.6999
G01 X114.2206 Y2.7028
G01 X114.3207 Y2.7771
G01 X114.3249 Y2.7806
G01 X114.4173 Y2.8643
G01 X116.2617 Y4.7086
G01 X116.3473 Y4.8030
G01 X116.3507 Y4.8072
G01 X116.4250 Y4.9073
G01 X116.4280 Y4.9118
G01 X116.4921 Y5.0188
G01 X116.4947 Y5.0235
G01 X116.5480 Y5.1362
G01 X116.5500 Y5.1412
G01 X116.5921 Y5.2586
G01 X116.5936 Y5.2638
G01 X116.6239 Y5.3848
G01 X116.6250 Y5.3901
G01 X116.6433 Y5.5134
G01 X116.6438 Y5.5188
G01 X116.6500 Y5.6460
G01 X116.6500 Y32.8885
G01 X116.6438 Y33.0157
G01 X116.6433 Y33.0211
G01 X116.6250 Y33.1444
G01 X116.6239 Y33.1497
G01 X116.5936 Y33.2707
G01 X116.5921 Y33.2759
G01 X116.5500 Y33.3933
G01 X116.5480 Y33.3983
G01 X116.4947 Y33.5110
G01 X116.4921 Y33.5157
G01 X116.4280 Y33.6227
G01 X116.4250 Y33.6272
G01 X116.3507 Y33.7273
G01 X116.3473 Y33.7315
G01 X116.2636 Y33.8239
G01 X115.8938 Y34.1938
G01 X115.7994 Y34.2794
G01 X115.7590 Y34.3097
G01 X115.7287 Y34.3501
G01 X115.6431 Y34.4444
G01 X113.7760 Y36.3115
G01 X113.6836 Y36.3952
G01 X113.6794 Y36.3986
G01 X113.5793 Y36.4729
G01 X113.5748 Y36.4759
G01 X113.4678 Y36.5400
G01 X113.4631 Y36.5426
G01 X113.3504 Y36.5959
G01 X113.3454 Y36.5979
G01 X113.2280 Y36.6400
G01 X113.2228 Y36.6415
G01 X113.1018 Y36.6718
G01 X113.0965 Y36.6729
G01 X112.9732 Y36.6912
G01 X112.9678 Y36.6917
G01 X112.8406 Y36.6979
G01 X99.6859 Y36.6979
G01 X99.6859 Y53.7597
G01 X99.6797 Y53.8870
G01 X99.6792 Y53.8923
G01 X99.6609 Y54.0157
G01 X99.6599 Y54.0210
G01 X99.6296 Y54.1419
G01 X99.6280 Y54.1471
G01 X99.5860 Y54.2645
G01 X99.5839 Y54.2695
G01 X99.5306 Y54.3822
G01 X99.5281 Y54.3870
G01 X99.4639 Y54.4939
G01 X99.4610 Y54.4984
G01 X99.3867 Y54.5986
G01 X99.3832 Y54.6027
G01 X99.2995 Y54.6951
G01 X97.1889 Y56.8059
G01 X97.1046 Y56.8823
G01 X97.0388 Y56.9550
G01 X97.0350 Y56.9588
G01 X96.9426 Y57.0425
G01 X96.9384 Y57.0459
G01 X96.8383 Y57.1201
G01 X96.8338 Y57.1231
G01 X96.7269 Y57.1872
G01 X96.7222 Y57.1898
G01 X96.6095 Y57.2430
G01 X96.6045 Y57.2451
G01 X96.4872 Y57.2871
G01 X96.4820 Y57.2887
G01 X96.3611 Y57.3189
G01 X96.3558 Y57.3200
G01 X96.2326 Y57.3383
G01 X96.2272 Y57.3388
G01 X96.1027 Y57.3449
G01 X96.0973 Y57.3449
G01 X95.9728 Y57.3388
G01 X95.9674 Y57.3383
G01 X95.8442 Y57.3200
G01 X95.8389 Y57.3189
G01 X95.7180 Y57.2887
G01 X95.7128 Y57.2871
G01 X95.5955 Y57.2451
G01 X95.5905 Y57.2430
G01 X95.4778 Y57.1898
G01 X95.4731 Y57.1872
G01 X95.3662 Y57.1231
G01 X95.3617 Y57.1201
G01 X95.2616 Y57.0459
G01 X95.2574 Y57.0425
G01 X95.1650 Y56.9588
G01 X95.1612 Y56.9550
G01 X95.0775 Y56.8626
G01 X95.0741 Y56.8584
G01 X94.9999 Y56.7583
G01 X94.9969 Y56.7538
G01 X94.9328 Y56.6469
G01 X94.9302 Y56.6422
G01 X94.8770 Y56.5295
G01 X94.8749 Y56.5245
G01 X94.8329 Y56.4072
G01 X94.8313 Y56.4020
G01 X94.8011 Y56.2811
G01 X94.8000 Y56.2758
G01 X94.7817 Y56.1526
G01 X94.7812 Y56.1472
G01 X94.7751 Y56.0227
G01 X94.7751 Y56.0173
G01 X94.7812 Y55.8928
G01 X94.7817 Y55.8874
G01 X94.8000 Y55.7642
G01 X94.8011 Y55.7589
G01 X94.8313 Y55.6380
G01 X94.8329 Y55.6328
G01 X94.8749 Y55.5155
G01 X94.8770 Y55.5105
G01 X94.9259 Y55.4070
G00 Z2.0000
G00 X87.4010 Y21.4824
G01 F25.00
G01 Z-0.0187
G01 F45.00
G01 X87.4552 Y21.5729
G01 X87.4578 Y21.5777
G01 X87.5057 Y21.6791
G01 X87.5078 Y21.6841
G01 X87.5456 Y21.7897
G01 X87.5471 Y21.7948
G01 X87.5744 Y21.9036
G01 X87.5754 Y21.9089
G01 X87.5919 Y22.0199
G01 X87.5924 Y22.0253
G01 X87.5979 Y22.1373
G01 X87.5979 Y22.1427
G01 X87.5924 Y22.2547
G01 X87.5919 Y22.2601
G01 X87.5754 Y22.3711
G01 X87.5744 Y22.3764
G01 X87.5471 Y22.4852
G01 X87.5456 Y22.4903
G01 X87.5078 Y22.5959
G01 X87.5057 Y22.6009
G01 X87.4578 Y22.7023
G01 X87.4552 Y22.7071
G01 X87.3975 Y22.8033
G01 X87.3945 Y22.8078
G01 X87.3277 Y22.8979
G01 X87.3243 Y22.9020
G01 X87.2490 Y22.9852
G01 X87.2452 Y22.9890
G01 X87.1620 Y23.0643
G01 X87.1579 Y23.0677
G01 X87.0678 Y23.1345
G01 X87.0633 Y23.1375
G01 X86.9671 Y23.1952
G01 X86.9623 Y23.1978
G01 X86.8609 Y23.2457
G01 X86.8559 Y23.2478
G01 X86.7503 Y23.2856
G01 X86.7452 Y23.2871
G01 X86.6364 Y23.3144
G01 X86.6311 Y23.3154
G01 X86.5201 Y23.3319
G01 X86.5147 Y23.3324
G01 X86.4027 Y23.3379
G01 X86.3973 Y23.3379
G01 X86.2853 Y23.3324
G01 X86.2799 Y23.3319
G01 X86.1689 Y23.3154
G01 X86.1636 Y23.3144
G01 X86.0548 Y23.2871
G01 X86.0497 Y23.2856
G01 X85.9441 Y23.2478
G01 X85.9391 Y23.2457
G01 X85.8377 Y23.1978
G01 X85.8329 Y23.1952
G01 X85.7367 Y23.1375
G01 X85.7322 Y23.1345
G01 X85.6421 Y23.0677
G01 X85.6380 Y23.0643
G01 X85.5548 Y22.9890
G01 X85.5510 Y22.9852
G01 X85.4757 Y22.9020
G01 X85.4723 Y22.8979
G01 X85.4055 Y22.8078
G01 X85.4025 Y22.8033
G01 X85.3448 Y22.7071
G01 X85.3422 Y22.7023
G01 X85.2943 Y22.6009
G01 X85.2922 Y22.5959
G01 X85.2544 Y22.4903
G01 X85.2529 Y22.4852
G01 X85.2256 Y22.3764
G01 X85.2246 Y22.3711
G01 X85.2081 Y22.2601
G01 X85.2076 Y22.2547
G01 X85.2021 Y22.1427
G01 X85.2021 Y22.1373
G01 X85.2076 Y22.0253
G01 X85.2081 Y22.0199
G01 X85.2246 Y21.9089
G01 X85.2256 Y21.9036
G01 X85.2529 Y21.7948
G01 X85.2544 Y21.7897
G01 X85.2922 Y21.6841
G01 X85.2943 Y21.6791
G01 X85.3422 Y21.5777
G01 X85.3448 Y21.5729
G01 X85.4025 Y21.4767
G01 X85.4055 Y21.4722
G01 X85.4723 Y21.3821
G01 X85.4757 Y21.3780
G01 X85.5510 Y21.2948
G01 X85.5548 Y21.2910
G01 X85.6380 Y21.2157
G01 X85.6421 Y21.2123
G01 X85.7322 Y21.1455
G01 X85.8123 Y21.0972
G01 X85.8604 Y20.8991
G01 X85.8604 Y13.7710
G01 X85.2840 Y13.7710
G01 X85.2786 Y13.7707
G01 X85.2733 Y13.7699
G01 X85.2680 Y13.7686
G01 X85.2630 Y13.7668
G01 X85.2581 Y13.7645
G01 X85.2534 Y13.7617
G01 X85.2491 Y13.7585
G01 X85.2451 Y13.7549
G01 X85.2415 Y13.7509
G01 X85.2383 Y13.7466
G01 X85.2355 Y13.7419
G01 X85.2332 Y13.7370
G01 X85.2314 Y13.7320
G01 X85.2301 Y13.7267
G01 X85.2293 Y13.7214
G01 X85.2290 Y13.7160
G01 X85.2290 Y11.6840
G01 X85.2293 Y11.6786
G01 X85.2301 Y11.6733
G01 X85.2314 Y11.6680
G01 X85.2332 Y11.6630
G01 X85.2355 Y11.6581
G01 X85.2383 Y11.6534
G01 X85.2415 Y11.6491
G01 X85.2451 Y11.6451
G01 X85.2491 Y11.6415
G01 X85.2534 Y11.6383
G01 X85.2581 Y11.6355
G01 X85.2630 Y11.6332
G01 X85.2680 Y11.6314
G01 X85.2733 Y11.6301
G01 X85.2786 Y11.6293
G01 X85.2840 Y11.6290
G01 X87.3160 Y11.6290
G01 X87.3214 Y11.6293
G01 X87.3267 Y11.6301
G01 X87.3320 Y11.6314
G01 X87.3370 Y11.6332
G01 X87.3419 Y11.6355
G01 X87.3466 Y11.6383
G01 X87.3509 Y11.6415
G01 X87.3549 Y11.6451
G01 X87.3585 Y11.6491
G01 X87.3617 Y11.6534
G01 X87.3645 Y11.6581
G01 X87.3668 Y11.6630
G01 X87.3686 Y11.6680
G01 X87.3699 Y11.6733
G01 X87.3707 Y11.6786
G01 X87.3710 Y11.6840
G01 X87.3710 Y12.6462
G01 X87.3998 Y12.6949
G01 X87.4318 Y12.7625
G01 X87.4339 Y12.7675
G01 X87.4607 Y12.8431
G01 X87.4799 Y12.9210
G01 X87.4909 Y12.9950
G01 X87.4914 Y13.0003
G01 X87.4952 Y13.0778
G01 X87.4952 Y20.9970
G01 X87.4896 Y21.0909
G01 X87.4889 Y21.0974
G01 X87.4727 Y21.1868
G01 X87.4010 Y21.4824
G00 Z2.0000
G00 X97.4183 Y10.1674
G01 F25.00
G01 Z-0.0187
G01 F45.00
G01 X97.4188 Y10.1728
G01 X97.4249 Y10.2973
G01 X97.4249 Y10.3027
G01 X97.4188 Y10.4272
G01 X97.4183 Y10.4326
G01 X97.4000 Y10.5558
G01 X97.3989 Y10.5611
G01 X97.3687 Y10.6820
G01 X97.3671 Y10.6872
G01 X97.3251 Y10.8045
G01 X97.3230 Y10.8095
G01 X97.2698 Y10.9222
G01 X97.2672 Y10.9269
G01 X97.2031 Y11.0338
G01 X97.2001 Y11.0383
G01 X97.1259 Y11.1384
G01 X97.1225 Y11.1426
G01 X97.0388 Y11.2350
G01 X97.0350 Y11.2388
G01 X96.9426 Y11.3225
G01 X96.9384 Y11.3259
G01 X96.8383 Y11.4001
G01 X96.8338 Y11.4031
G01 X96.7269 Y11.4672
G01 X96.7222 Y11.4698
G01 X96.6095 Y11.5230
G01 X96.6045 Y11.5251
G01 X96.4872 Y11.5671
G01 X96.4820 Y11.5687
G01 X96.3611 Y11.5989
G01 X96.3558 Y11.6000
G01 X96.2326 Y11.6183
G01 X96.2272 Y11.6188
G01 X96.1027 Y11.6249
G01 X96.0973 Y11.6249
G01 X95.9728 Y11.6188
G01 X95.9674 Y11.6183
G01 X95.8442 Y11.6000
G01 X95.8389 Y11.5989
G01 X95.7180 Y11.5687
G01 X95.7128 Y11.5671
G01 X95.5955 Y11.5251
G01 X95.5905 Y11.5230
G01 X95.4778 Y11.4698
G01 X95.4731 Y11.4672
G01 X95.3662 Y11.4031
G01 X95.3617 Y11.4001
G01 X95.2616 Y11.3259
G01 X95.2574 Y11.3225
G01 X95.1650 Y11.2388
G01 X95.1612 Y11.2350
G01 X95.0775 Y11.1426
G01 X95.0741 Y11.1384
G01 X94.9999 Y11.0383
G01 X94.9630 Y10.9774
G01 X87.3710 Y10.9774
G01 X87.3710 Y11.1760
G01 X87.3707 Y11.1814
G01 X87.3699 Y11.1867
G01 X87.3686 Y11.1920
G01 X87.3668 Y11.1970
G01 X87.3645 Y11.2019
G01 X87.3617 Y11.2066
G01 X87.3585 Y11.2109
G01 X87.3549 Y11.2149
G01 X87.3509 Y11.2185
G01 X87.3466 Y11.2217
G01 X87.3419 Y11.2245
G01 X87.3370 Y11.2268
G01 X87.3320 Y11.2286
G01 X87.3267 Y11.2299
G01 X87.3214 Y11.2307
G01 X87.3160 Y11.2310
G01 X85.2840 Y11.2310
G01 X85.2786 Y11.2307
G01 X85.2733 Y11.2299
G01 X85.2680 Y11.2286
G01 X85.2630 Y11.2268
G01 X85.2581 Y11.2245
G01 X85.2534 Y11.2217
G01 X85.2491 Y11.2185
G01 X85.2451 Y11.2149
G01 X85.2415 Y11.2109
G01 X85.2383 Y11.2066
G01 X85.2355 Y11.2019
G01 X85.2332 Y11.1970
G01 X85.2314 Y11.1920
G01 X85.2301 Y11.1867
G01 X85.2293 Y11.1814
G01 X85.2290 Y11.1760
G01 X85.2290 Y9.1440
G01 X85.2293 Y9.1386
G01 X85.2301 Y9.1333
G01 X85.2314 Y9.1280
G01 X85.2332 Y9.1230
G01 X85.2355 Y9.1181
G01 X85.2383 Y9.1134
G01 X85.2415 Y9.1091
G01 X85.2451 Y9.1051
G01 X85.2491 Y9.1015
G01 X85.2534 Y9.0983
G01 X85.2581 Y9.0955
G01 X85.2630 Y9.0932
G01 X85.2680 Y9.0914
G01 X85.2733 Y9.0901
G01 X85.2786 Y9.0893
G01 X85.2840 Y9.0890
G01 X87.3160 Y9.0890
G01 X87.3214 Y9.0893
G01 X87.3267 Y9.0901
G01 X87.3320 Y9.0914
G01 X87.3370 Y9.0932
G01 X87.3419 Y9.0955
G01 X87.3466 Y9.0983
G01 X87.3509 Y9.1015
G01 X87.3549 Y9.1051
G01 X87.3585 Y9.1091
G01 X87.3617 Y9.1134
G01 X87.3645 Y9.1181
G01 X87.3668 Y9.1230
G01 X87.3686 Y9.1280
G01 X87.3699 Y9.1333
G01 X87.3707 Y9.1386
G01 X87.3710 Y9.1440
G01 X87.3710 Y9.3426
G01 X95.1856 Y9.3426
G01 X95.2574 Y9.2775
G01 X95.2616 Y9.2741
G01 X95.3617 Y9.1999
G01 X95.3662 Y9.1969
G01 X95.4731 Y9.1328
G01 X95.4778 Y9.1302
G01 X95.5905 Y9.0770
G01 X95.5955 Y9.0749
G01 X95.7128 Y9.0329
G01 X95.7180 Y9.0313
G01 X95.8389 Y9.0011
G01 X95.8442 Y9.0000
G01 X95.9674 Y8.9817
G01 X95.9728 Y8.9812
G01 X96.0973 Y8.9751
G01 X96.1027 Y8.9751
G01 X96.2272 Y8.9812
G01 X96.2326 Y8.9817
G01 X96.3558 Y9.0000
G01 X96.3611 Y9.0011
G01 X96.4820 Y9.0313
G01 X96.4872 Y9.0329
G01 X96.6045 Y9.0749
G01 X96.6095 Y9.0770
G01 X96.7222 Y9.1302
G01 X96.7269 Y9.1328
G01 X96.8338 Y9.1969
G01 X96.8383 Y9.1999
G01 X96.9384 Y9.2741
G01 X96.9426 Y9.2775
G01 X97.0350 Y9.3612
G01 X97.0388 Y9.3650
G01 X97.1225 Y9.4574
G01 X97.1259 Y9.4616
G01 X97.2001 Y9.5617
G01 X97.2031 Y9.5662
G01 X97.2672 Y9.6731
G01 X97.2698 Y9.6778
G01 X97.3230 Y9.7905
G01 X97.3251 Y9.7955
G01 X97.3671 Y9.9128
G01 X97.3687 Y9.9180
G01 X97.3989 Y10.0389
G01 X97.4000 Y10.0442
G01 X97.4183 Y10.1674
G00 Z2.0000
G00 X117.3433 Y0.5567
G01 F25.00
G01 Z-0.0187
G01 F45.00
G01 X117.3433 Y61.9433
G01 X0.5567 Y61.9433
G01 X0.5567 Y0.5567
G01 X117.3433 Y0.5567
G00 Z2.0000
M05
G00 Z2.0000
G00 Z15.00
G00 X0.0 Y0.0

