(G-CODE GENERATED BY FLATCAM v8.991 - www.flatcam.org - Version Date: 2019/12/27)

(Name: cncmppt2025)
(Type: G-code from Geometry)
(Units: MM)

(Created on Saturday, 18 January 2025 at 09:34)

(TOOL DIAMETER: 0.11 mm)
(Feedrate: 45.0 mm/min)
(Feedrate_Z: 25.0 mm/min)
(Feedrate rapids 1500.0 mm/min)

(Z_Cut: -0.0187 mm)
(Z_Move: 2.0 mm)
(Z Toolchange: 15.0 mm)
(X,Y Toolchange: 0.0000, 0.0000 mm)
(Z Start: None mm)
(Z End: 15.0 mm)
(Steps per circle: 64)
(Preprocessor Geometry: default)

(X range:    0.4698 ...  121.9565  mm)
(Y range:    0.4221 ...   67.6088  mm)

(Spindle Speed: None RPM)
G21
G90
G94




G01 F45.00
G00 Z2.0000

M03
G00 X1.5006 Y23.6995
G01 F25.00
G01 Z-0.0187
G01 F45.00
G01 X1.5006 Y3.5045
G01 X1.5068 Y3.3772
G01 X1.5073 Y3.3719
G01 X1.5256 Y3.2485
G01 X1.5267 Y3.2432
G01 X1.5570 Y3.1223
G01 X1.5586 Y3.1171
G01 X1.6006 Y2.9997
G01 X1.6026 Y2.9947
G01 X1.6559 Y2.8820
G01 X1.6585 Y2.8772
G01 X1.7226 Y2.7703
G01 X1.7256 Y2.7658
G01 X1.7999 Y2.6656
G01 X1.8033 Y2.6615
G01 X1.8870 Y2.5691
G01 X1.8908 Y2.5653
G01 X1.9832 Y2.4815
G01 X1.9874 Y2.4781
G01 X2.0876 Y2.4038
G01 X2.0921 Y2.4008
G01 X2.1990 Y2.3367
G01 X2.2038 Y2.3342
G01 X2.3165 Y2.2808
G01 X2.3215 Y2.2788
G01 X2.4389 Y2.2368
G01 X2.4441 Y2.2352
G01 X2.5650 Y2.2049
G01 X2.5703 Y2.2039
G01 X2.6936 Y2.1856
G01 X2.6990 Y2.1850
G01 X2.8263 Y2.1788
G01 X9.9663 Y2.1788
G01 X9.9663 Y1.5995
G01 X9.9665 Y1.5941
G01 X9.9673 Y1.5888
G01 X9.9686 Y1.5835
G01 X9.9704 Y1.5784
G01 X9.9728 Y1.5736
G01 X9.9755 Y1.5689
G01 X9.9787 Y1.5646
G01 X9.9824 Y1.5606
G01 X9.9864 Y1.5570
G01 X9.9907 Y1.5537
G01 X9.9953 Y1.5510
G01 X10.0002 Y1.5487
G01 X10.0053 Y1.5468
G01 X10.0105 Y1.5455
G01 X10.0159 Y1.5447
G01 X10.0213 Y1.5445
G01 X13.8313 Y1.5445
G01 X13.8367 Y1.5447
G01 X13.8420 Y1.5455
G01 X13.8472 Y1.5468
G01 X13.8523 Y1.5487
G01 X13.8572 Y1.5510
G01 X13.8618 Y1.5537
G01 X13.8662 Y1.5570
G01 X13.8702 Y1.5606
G01 X13.8738 Y1.5646
G01 X13.8770 Y1.5689
G01 X13.8798 Y1.5736
G01 X13.8821 Y1.5784
G01 X13.8839 Y1.5835
G01 X13.8852 Y1.5888
G01 X13.8860 Y1.5941
G01 X13.8863 Y1.5995
G01 X13.8863 Y5.4095
G01 X13.8860 Y5.4149
G01 X13.8852 Y5.4202
G01 X13.8839 Y5.4254
G01 X13.8821 Y5.4305
G01 X13.8798 Y5.4354
G01 X13.8770 Y5.4400
G01 X13.8738 Y5.4444
G01 X13.8702 Y5.4484
G01 X13.8662 Y5.4520
G01 X13.8618 Y5.4552
G01 X13.8572 Y5.4580
G01 X13.8523 Y5.4603
G01 X13.8472 Y5.4621
G01 X13.8420 Y5.4634
G01 X13.8367 Y5.4642
G01 X13.8313 Y5.4645
G01 X10.0213 Y5.4645
G01 X10.0159 Y5.4642
G01 X10.0105 Y5.4634
G01 X10.0053 Y5.4621
G01 X10.0002 Y5.4603
G01 X9.9953 Y5.4580
G01 X9.9907 Y5.4552
G01 X9.9864 Y5.4520
G01 X9.9824 Y5.4484
G01 X9.9787 Y5.4444
G01 X9.9755 Y5.4400
G01 X9.9728 Y5.4354
G01 X9.9704 Y5.4305
G01 X9.9686 Y5.4254
G01 X9.9673 Y5.4202
G01 X9.9665 Y5.4149
G01 X9.9663 Y5.4095
G01 X9.9663 Y4.8301
G01 X4.1519 Y4.8301
G01 X4.1519 Y22.8788
G01 X10.1663 Y22.8788
G01 X10.1663 Y22.2995
G01 X10.1665 Y22.2941
G01 X10.1673 Y22.2888
G01 X10.1686 Y22.2835
G01 X10.1704 Y22.2784
G01 X10.1728 Y22.2736
G01 X10.1755 Y22.2689
G01 X10.1787 Y22.2646
G01 X10.1824 Y22.2606
G01 X10.1864 Y22.2570
G01 X10.1907 Y22.2537
G01 X10.1953 Y22.2510
G01 X10.2002 Y22.2487
G01 X10.2053 Y22.2468
G01 X10.2105 Y22.2455
G01 X10.2159 Y22.2447
G01 X10.2213 Y22.2445
G01 X14.0313 Y22.2445
G01 X14.0367 Y22.2447
G01 X14.0420 Y22.2455
G01 X14.0472 Y22.2468
G01 X14.0523 Y22.2487
G01 X14.0572 Y22.2510
G01 X14.0618 Y22.2537
G01 X14.0662 Y22.2570
G01 X14.0702 Y22.2606
G01 X14.0738 Y22.2646
G01 X14.0770 Y22.2689
G01 X14.0798 Y22.2736
G01 X14.0821 Y22.2784
G01 X14.0839 Y22.2835
G01 X14.0852 Y22.2888
G01 X14.0860 Y22.2941
G01 X14.0863 Y22.2995
G01 X14.0863 Y26.1095
G01 X14.0860 Y26.1149
G01 X14.0852 Y26.1202
G01 X14.0839 Y26.1254
G01 X14.0821 Y26.1305
G01 X14.0798 Y26.1354
G01 X14.0770 Y26.1400
G01 X14.0738 Y26.1444
G01 X14.0702 Y26.1484
G01 X14.0662 Y26.1520
G01 X14.0618 Y26.1552
G01 X14.0572 Y26.1580
G01 X14.0523 Y26.1603
G01 X14.0472 Y26.1621
G01 X14.0420 Y26.1634
G01 X14.0367 Y26.1642
G01 X14.0313 Y26.1645
G01 X10.2213 Y26.1645
G01 X10.2159 Y26.1642
G01 X10.2105 Y26.1634
G01 X10.2053 Y26.1621
G01 X10.2002 Y26.1603
G01 X10.1953 Y26.1580
G01 X10.1907 Y26.1552
G01 X10.1864 Y26.1520
G01 X10.1824 Y26.1484
G01 X10.1787 Y26.1444
G01 X10.1755 Y26.1400
G01 X10.1728 Y26.1354
G01 X10.1704 Y26.1305
G01 X10.1686 Y26.1254
G01 X10.1673 Y26.1202
G01 X10.1665 Y26.1149
G01 X10.1663 Y26.1095
G01 X10.1663 Y25.5301
G01 X4.0519 Y25.5301
G01 X4.0519 Y45.1788
G01 X10.0663 Y45.1788
G01 X10.0663 Y44.5995
G01 X10.0665 Y44.5941
G01 X10.0673 Y44.5888
G01 X10.0686 Y44.5835
G01 X10.0704 Y44.5784
G01 X10.0728 Y44.5736
G01 X10.0755 Y44.5689
G01 X10.0787 Y44.5646
G01 X10.0824 Y44.5606
G01 X10.0864 Y44.5570
G01 X10.0907 Y44.5537
G01 X10.0953 Y44.5510
G01 X10.1002 Y44.5487
G01 X10.1053 Y44.5468
G01 X10.1105 Y44.5455
G01 X10.1159 Y44.5447
G01 X10.1213 Y44.5445
G01 X13.9313 Y44.5445
G01 X13.9367 Y44.5447
G01 X13.9420 Y44.5455
G01 X13.9472 Y44.5468
G01 X13.9523 Y44.5487
G01 X13.9572 Y44.5510
G01 X13.9618 Y44.5537
G01 X13.9662 Y44.5570
G01 X13.9702 Y44.5606
G01 X13.9738 Y44.5646
G01 X13.9770 Y44.5689
G01 X13.9798 Y44.5736
G01 X13.9821 Y44.5784
G01 X13.9839 Y44.5835
G01 X13.9852 Y44.5888
G01 X13.9860 Y44.5941
G01 X13.9863 Y44.5995
G01 X13.9863 Y48.4095
G01 X13.9860 Y48.4149
G01 X13.9852 Y48.4202
G01 X13.9839 Y48.4254
G01 X13.9821 Y48.4305
G01 X13.9798 Y48.4354
G01 X13.9770 Y48.4400
G01 X13.9738 Y48.4444
G01 X13.9702 Y48.4484
G01 X13.9662 Y48.4520
G01 X13.9618 Y48.4552
G01 X13.9572 Y48.4580
G01 X13.9523 Y48.4603
G01 X13.9472 Y48.4621
G01 X13.9420 Y48.4634
G01 X13.9367 Y48.4642
G01 X13.9313 Y48.4645
G01 X10.1213 Y48.4645
G01 X10.1159 Y48.4642
G01 X10.1105 Y48.4634
G01 X10.1053 Y48.4621
G01 X10.1002 Y48.4603
G01 X10.0953 Y48.4580
G01 X10.0907 Y48.4552
G01 X10.0864 Y48.4520
G01 X10.0824 Y48.4484
G01 X10.0787 Y48.4444
G01 X10.0755 Y48.4400
G01 X10.0728 Y48.4354
G01 X10.0704 Y48.4305
G01 X10.0686 Y48.4254
G01 X10.0673 Y48.4202
G01 X10.0665 Y48.4149
G01 X10.0663 Y48.4095
G01 X10.0663 Y47.8301
G01 X4.6754 Y47.8301
G01 X4.2519 Y48.2536
G01 X4.2519 Y62.0164
G01 X5.7754 Y63.5398
G01 X24.1162 Y63.5398
G01 X32.5396 Y55.1164
G01 X32.5396 Y47.9255
G01 X31.9603 Y47.9255
G01 X31.9549 Y47.9252
G01 X31.9495 Y47.9244
G01 X31.9443 Y47.9231
G01 X31.9392 Y47.9213
G01 X31.9343 Y47.9190
G01 X31.9297 Y47.9162
G01 X31.9254 Y47.9130
G01 X31.9214 Y47.9094
G01 X31.9177 Y47.9054
G01 X31.9145 Y47.9010
G01 X31.9118 Y47.8964
G01 X31.9094 Y47.8915
G01 X31.9076 Y47.8864
G01 X31.9063 Y47.8812
G01 X31.9055 Y47.8759
G01 X31.9053 Y47.8705
G01 X31.9053 Y44.0605
G01 X31.9055 Y44.0551
G01 X31.9063 Y44.0498
G01 X31.9076 Y44.0445
G01 X31.9094 Y44.0394
G01 X31.9118 Y44.0346
G01 X31.9145 Y44.0299
G01 X31.9177 Y44.0256
G01 X31.9214 Y44.0216
G01 X31.9254 Y44.0180
G01 X31.9297 Y44.0147
G01 X31.9343 Y44.0120
G01 X31.9392 Y44.0097
G01 X31.9443 Y44.0078
G01 X31.9495 Y44.0065
G01 X31.9549 Y44.0057
G01 X31.9603 Y44.0055
G01 X35.7703 Y44.0055
G01 X35.7757 Y44.0057
G01 X35.7810 Y44.0065
G01 X35.7862 Y44.0078
G01 X35.7913 Y44.0097
G01 X35.7962 Y44.0120
G01 X35.8008 Y44.0147
G01 X35.8052 Y44.0180
G01 X35.8092 Y44.0216
G01 X35.8128 Y44.0256
G01 X35.8160 Y44.0299
G01 X35.8188 Y44.0346
G01 X35.8211 Y44.0394
G01 X35.8229 Y44.0445
G01 X35.8242 Y44.0498
G01 X35.8250 Y44.0551
G01 X35.8253 Y44.0605
G01 X35.8253 Y47.8705
G01 X35.8250 Y47.8759
G01 X35.8242 Y47.8812
G01 X35.8229 Y47.8864
G01 X35.8211 Y47.8915
G01 X35.8188 Y47.8964
G01 X35.8160 Y47.9010
G01 X35.8128 Y47.9054
G01 X35.8092 Y47.9094
G01 X35.8052 Y47.9130
G01 X35.8008 Y47.9162
G01 X35.7962 Y47.9190
G01 X35.7913 Y47.9213
G01 X35.7862 Y47.9231
G01 X35.7810 Y47.9244
G01 X35.7757 Y47.9252
G01 X35.7703 Y47.9255
G01 X35.1909 Y47.9255
G01 X35.1909 Y55.3398
G01 X55.3396 Y55.3398
G01 X55.3396 Y47.7255
G01 X54.7603 Y47.7255
G01 X54.7549 Y47.7252
G01 X54.7495 Y47.7244
G01 X54.7443 Y47.7231
G01 X54.7392 Y47.7213
G01 X54.7343 Y47.7190
G01 X54.7297 Y47.7162
G01 X54.7254 Y47.7130
G01 X54.7214 Y47.7094
G01 X54.7177 Y47.7054
G01 X54.7145 Y47.7010
G01 X54.7118 Y47.6964
G01 X54.7094 Y47.6915
G01 X54.7076 Y47.6864
G01 X54.7063 Y47.6812
G01 X54.7055 Y47.6759
G01 X54.7053 Y47.6705
G01 X54.7053 Y43.8605
G01 X54.7055 Y43.8551
G01 X54.7063 Y43.8498
G01 X54.7076 Y43.8445
G01 X54.7094 Y43.8394
G01 X54.7118 Y43.8346
G01 X54.7145 Y43.8299
G01 X54.7177 Y43.8256
G01 X54.7214 Y43.8216
G01 X54.7254 Y43.8180
G01 X54.7297 Y43.8147
G01 X54.7343 Y43.8120
G01 X54.7392 Y43.8097
G01 X54.7443 Y43.8078
G01 X54.7495 Y43.8065
G01 X54.7549 Y43.8057
G01 X54.7603 Y43.8055
G01 X58.5703 Y43.8055
G01 X58.5757 Y43.8057
G01 X58.5810 Y43.8065
G01 X58.5862 Y43.8078
G01 X58.5913 Y43.8097
G01 X58.5962 Y43.8120
G01 X58.6008 Y43.8147
G01 X58.6052 Y43.8180
G01 X58.6092 Y43.8216
G01 X58.6128 Y43.8256
G01 X58.6160 Y43.8299
G01 X58.6188 Y43.8346
G01 X58.6211 Y43.8394
G01 X58.6229 Y43.8445
G01 X58.6242 Y43.8498
G01 X58.6250 Y43.8551
G01 X58.6253 Y43.8605
G01 X58.6253 Y47.6705
G01 X58.6250 Y47.6759
G01 X58.6242 Y47.6812
G01 X58.6229 Y47.6864
G01 X58.6211 Y47.6915
G01 X58.6188 Y47.6964
G01 X58.6160 Y47.7010
G01 X58.6128 Y47.7054
G01 X58.6092 Y47.7094
G01 X58.6052 Y47.7130
G01 X58.6008 Y47.7162
G01 X58.5962 Y47.7190
G01 X58.5913 Y47.7213
G01 X58.5862 Y47.7231
G01 X58.5810 Y47.7244
G01 X58.5757 Y47.7252
G01 X58.5703 Y47.7255
G01 X57.9909 Y47.7255
G01 X57.9909 Y55.3398
G01 X78.0006 Y55.3398
G01 X78.0006 Y47.5255
G01 X77.4213 Y47.5255
G01 X77.4159 Y47.5252
G01 X77.4105 Y47.5244
G01 X77.4053 Y47.5231
G01 X77.4002 Y47.5213
G01 X77.3953 Y47.5190
G01 X77.3907 Y47.5162
G01 X77.3864 Y47.5130
G01 X77.3824 Y47.5094
G01 X77.3787 Y47.5054
G01 X77.3755 Y47.5010
G01 X77.3728 Y47.4964
G01 X77.3704 Y47.4915
G01 X77.3686 Y47.4864
G01 X77.3673 Y47.4812
G01 X77.3665 Y47.4759
G01 X77.3663 Y47.4705
G01 X77.3663 Y43.6605
G01 X77.3665 Y43.6551
G01 X77.3673 Y43.6498
G01 X77.3686 Y43.6445
G01 X77.3704 Y43.6394
G01 X77.3728 Y43.6346
G01 X77.3755 Y43.6299
G01 X77.3787 Y43.6256
G01 X77.3824 Y43.6216
G01 X77.3864 Y43.6180
G01 X77.3907 Y43.6147
G01 X77.3953 Y43.6120
G01 X77.4002 Y43.6097
G01 X77.4053 Y43.6078
G01 X77.4105 Y43.6065
G01 X77.4159 Y43.6057
G01 X77.4213 Y43.6055
G01 X81.2313 Y43.6055
G01 X81.2367 Y43.6057
G01 X81.2420 Y43.6065
G01 X81.2472 Y43.6078
G01 X81.2523 Y43.6097
G01 X81.2572 Y43.6120
G01 X81.2618 Y43.6147
G01 X81.2662 Y43.6180
G01 X81.2702 Y43.6216
G01 X81.2738 Y43.6256
G01 X81.2770 Y43.6299
G01 X81.2798 Y43.6346
G01 X81.2821 Y43.6394
G01 X81.2839 Y43.6445
G01 X81.2852 Y43.6498
G01 X81.2860 Y43.6551
G01 X81.2863 Y43.6605
G01 X81.2863 Y47.4705
G01 X81.2860 Y47.4759
G01 X81.2852 Y47.4812
G01 X81.2839 Y47.4864
G01 X81.2821 Y47.4915
G01 X81.2798 Y47.4964
G01 X81.2770 Y47.5010
G01 X81.2738 Y47.5054
G01 X81.2702 Y47.5094
G01 X81.2662 Y47.5130
G01 X81.2618 Y47.5162
G01 X81.2572 Y47.5190
G01 X81.2523 Y47.5213
G01 X81.2472 Y47.5231
G01 X81.2420 Y47.5244
G01 X81.2367 Y47.5252
G01 X81.2313 Y47.5255
G01 X80.6519 Y47.5255
G01 X80.6519 Y55.2395
G01 X96.1966 Y55.2361
G01 X96.1966 Y33.1911
G01 X95.9312 Y33.1911
G01 X95.8136 Y33.2332
G01 X95.8085 Y33.2348
G01 X95.6875 Y33.2651
G01 X95.6822 Y33.2661
G01 X95.5589 Y33.2844
G01 X95.5535 Y33.2849
G01 X95.4263 Y33.2911
G01 X94.7882 Y33.2910
G01 X94.6637 Y33.2849
G01 X94.6583 Y33.2844
G01 X94.5349 Y33.2661
G01 X94.5296 Y33.2651
G01 X94.4087 Y33.2348
G01 X94.4035 Y33.2332
G01 X94.2861 Y33.1912
G01 X94.2811 Y33.1891
G01 X94.1684 Y33.1358
G01 X94.1637 Y33.1333
G01 X94.0567 Y33.0691
G01 X94.0522 Y33.0662
G01 X93.9521 Y32.9919
G01 X93.9479 Y32.9884
G01 X93.8555 Y32.9047
G01 X93.8517 Y32.9009
G01 X93.7679 Y32.8085
G01 X93.7645 Y32.8043
G01 X93.6902 Y32.7042
G01 X93.6872 Y32.6997
G01 X93.6231 Y32.5927
G01 X93.6206 Y32.5880
G01 X93.5673 Y32.4752
G01 X93.5652 Y32.4703
G01 X93.5232 Y32.3529
G01 X93.5216 Y32.3477
G01 X93.4913 Y32.2267
G01 X93.4903 Y32.2214
G01 X93.4720 Y32.0981
G01 X93.4714 Y32.0927
G01 X93.4653 Y31.9682
G01 X93.4653 Y31.8792
G01 X93.1772 Y31.5911
G01 X88.7263 Y31.5911
G01 X88.5990 Y31.5849
G01 X88.5936 Y31.5844
G01 X88.4703 Y31.5661
G01 X88.4650 Y31.5651
G01 X88.3441 Y31.5348
G01 X88.3389 Y31.5332
G01 X88.2215 Y31.4912
G01 X88.2165 Y31.4891
G01 X88.1038 Y31.4358
G01 X88.0990 Y31.4333
G01 X87.9921 Y31.3691
G01 X87.9876 Y31.3662
G01 X87.8874 Y31.2919
G01 X87.8832 Y31.2884
G01 X87.7908 Y31.2047
G01 X87.7870 Y31.2009
G01 X87.7033 Y31.1085
G01 X87.6999 Y31.1043
G01 X87.6256 Y31.0042
G01 X87.6226 Y30.9997
G01 X87.5585 Y30.8927
G01 X87.5559 Y30.8880
G01 X87.5026 Y30.7752
G01 X87.5006 Y30.7703
G01 X87.4586 Y30.6529
G01 X87.4570 Y30.6477
G01 X87.4267 Y30.5267
G01 X87.4256 Y30.5214
G01 X87.4073 Y30.3981
G01 X87.4068 Y30.3927
G01 X87.4006 Y30.2655
G01 X87.4006 Y21.7655
G01 X87.4068 Y21.6382
G01 X87.4073 Y21.6329
G01 X87.4256 Y21.5095
G01 X87.4267 Y21.5042
G01 X87.4570 Y21.3833
G01 X87.4586 Y21.3781
G01 X87.5006 Y21.2607
G01 X87.5026 Y21.2557
G01 X87.5559 Y21.1430
G01 X87.5585 Y21.1382
G01 X87.6226 Y21.0313
G01 X87.6256 Y21.0268
G01 X87.6999 Y20.9266
G01 X87.7033 Y20.9225
G01 X87.7870 Y20.8301
G01 X87.7908 Y20.8263
G01 X87.8832 Y20.7425
G01 X87.8874 Y20.7391
G01 X87.9876 Y20.6648
G01 X87.9921 Y20.6618
G01 X88.0990 Y20.5977
G01 X88.1038 Y20.5952
G01 X88.2165 Y20.5418
G01 X88.2215 Y20.5398
G01 X88.3389 Y20.4978
G01 X88.3441 Y20.4962
G01 X88.4650 Y20.4659
G01 X88.4703 Y20.4649
G01 X88.5936 Y20.4466
G01 X88.5990 Y20.4460
G01 X88.7236 Y20.4399
G01 X88.7290 Y20.4399
G01 X88.8535 Y20.4460
G01 X88.8589 Y20.4466
G01 X88.9822 Y20.4649
G01 X88.9875 Y20.4659
G01 X89.1085 Y20.4962
G01 X89.1136 Y20.4978
G01 X89.2310 Y20.5398
G01 X89.2360 Y20.5418
G01 X89.3487 Y20.5952
G01 X89.3535 Y20.5977
G01 X89.4605 Y20.6618
G01 X89.4650 Y20.6648
G01 X89.5651 Y20.7391
G01 X89.5693 Y20.7425
G01 X89.6617 Y20.8263
G01 X89.6655 Y20.8301
G01 X89.7492 Y20.9225
G01 X89.7527 Y20.9266
G01 X89.8269 Y21.0268
G01 X89.8299 Y21.0313
G01 X89.8940 Y21.1382
G01 X89.8966 Y21.1430
G01 X89.9499 Y21.2557
G01 X89.9520 Y21.2607
G01 X89.9940 Y21.3781
G01 X89.9955 Y21.3833
G01 X90.0258 Y21.5042
G01 X90.0269 Y21.5095
G01 X90.0452 Y21.6329
G01 X90.0457 Y21.6382
G01 X90.0519 Y21.7655
G01 X90.0519 Y28.9398
G01 X93.7263 Y28.9398
G01 X93.8535 Y28.9460
G01 X93.8589 Y28.9466
G01 X93.9822 Y28.9649
G01 X93.9875 Y28.9659
G01 X94.1085 Y28.9962
G01 X94.1136 Y28.9978
G01 X94.2310 Y29.0398
G01 X94.2360 Y29.0418
G01 X94.3487 Y29.0952
G01 X94.3535 Y29.0977
G01 X94.4605 Y29.1618
G01 X94.4650 Y29.1648
G01 X94.5651 Y29.2391
G01 X94.5693 Y29.2425
G01 X94.6636 Y29.3281
G01 X95.8754 Y30.5398
G01 X96.3366 Y30.5398
G01 X96.3544 Y30.5027
G01 X96.4185 Y30.3957
G01 X96.4215 Y30.3912
G01 X96.4958 Y30.2911
G01 X96.4992 Y30.2869
G01 X96.5848 Y30.1926
G01 X100.1312 Y26.6463
G01 X100.2236 Y26.5625
G01 X100.2278 Y26.5591
G01 X100.3280 Y26.4848
G01 X100.3325 Y26.4818
G01 X100.4394 Y26.4177
G01 X100.4442 Y26.4152
G01 X100.5569 Y26.3618
G01 X100.5619 Y26.3598
G01 X100.6793 Y26.3178
G01 X100.6845 Y26.3162
G01 X100.8054 Y26.2859
G01 X100.8107 Y26.2849
G01 X100.9340 Y26.2666
G01 X100.9394 Y26.2660
G01 X101.0667 Y26.2598
G01 X113.6263 Y26.2598
G01 X113.7535 Y26.2660
G01 X113.7589 Y26.2666
G01 X113.8822 Y26.2849
G01 X113.8875 Y26.2859
G01 X114.0085 Y26.3162
G01 X114.0136 Y26.3178
G01 X114.1310 Y26.3598
G01 X114.1360 Y26.3618
G01 X114.2487 Y26.4152
G01 X114.2535 Y26.4177
G01 X114.3605 Y26.4818
G01 X114.3650 Y26.4848
G01 X114.4651 Y26.5591
G01 X114.4693 Y26.5625
G01 X114.5617 Y26.6463
G01 X114.5655 Y26.6501
G01 X114.6492 Y26.7425
G01 X114.6527 Y26.7466
G01 X114.7269 Y26.8468
G01 X114.7377 Y26.8643
G01 X114.7446 Y26.8709
G01 X114.8451 Y26.9817
G01 X114.8485 Y26.9859
G01 X114.9376 Y27.1060
G01 X114.9406 Y27.1105
G01 X115.0175 Y27.2388
G01 X115.0200 Y27.2436
G01 X115.0840 Y27.3788
G01 X115.0860 Y27.3837
G01 X115.1364 Y27.5246
G01 X115.1380 Y27.5297
G01 X115.1743 Y27.6748
G01 X115.1754 Y27.6801
G01 X115.1973 Y27.8280
G01 X115.1979 Y27.8334
G01 X115.2052 Y27.9828
G01 X115.2052 Y27.9882
G01 X115.1979 Y28.1376
G01 X115.1973 Y28.1429
G01 X115.1754 Y28.2909
G01 X115.1743 Y28.2962
G01 X115.1380 Y28.4412
G01 X115.1364 Y28.4464
G01 X115.0860 Y28.5872
G01 X115.0840 Y28.5922
G01 X115.0200 Y28.7274
G01 X115.0175 Y28.7322
G01 X114.9406 Y28.8604
G01 X114.9376 Y28.8649
G01 X114.8485 Y28.9851
G01 X114.8451 Y28.9892
G01 X114.7446 Y29.1000
G01 X114.7408 Y29.1039
G01 X114.6300 Y29.2043
G01 X114.6258 Y29.2077
G01 X114.5057 Y29.2968
G01 X114.5012 Y29.2998
G01 X114.3729 Y29.3767
G01 X114.3682 Y29.3792
G01 X114.2330 Y29.4432
G01 X114.2280 Y29.4453
G01 X114.0872 Y29.4956
G01 X114.0820 Y29.4972
G01 X113.9369 Y29.5335
G01 X113.9316 Y29.5346
G01 X113.7837 Y29.5565
G01 X113.7783 Y29.5571
G01 X113.6290 Y29.5644
G01 X113.6236 Y29.5644
G01 X113.4742 Y29.5571
G01 X113.4688 Y29.5565
G01 X113.3209 Y29.5346
G01 X113.3156 Y29.5335
G01 X113.1705 Y29.4972
G01 X113.1653 Y29.4956
G01 X113.0245 Y29.4453
G01 X113.0195 Y29.4432
G01 X112.8843 Y29.3792
G01 X112.8796 Y29.3767
G01 X112.7513 Y29.2998
G01 X112.7468 Y29.2968
G01 X112.6267 Y29.2077
G01 X112.6225 Y29.2043
G01 X112.5117 Y29.1039
G01 X112.5079 Y29.1000
G01 X112.4074 Y28.9892
G01 X112.4040 Y28.9851
G01 X112.3492 Y28.9111
G01 X101.6158 Y28.9111
G01 X98.8478 Y31.6790
G01 X98.8478 Y56.4817
G01 X98.8518 Y56.5682
G01 X98.8457 Y56.6927
G01 X98.8452 Y56.6981
G01 X98.8269 Y56.8214
G01 X98.8258 Y56.8267
G01 X98.7955 Y56.9477
G01 X98.7940 Y56.9529
G01 X98.7520 Y57.0703
G01 X98.7499 Y57.0752
G01 X98.6966 Y57.1880
G01 X98.6940 Y57.1927
G01 X98.6299 Y57.2997
G01 X98.6269 Y57.3042
G01 X98.5527 Y57.4043
G01 X98.5492 Y57.4085
G01 X98.4655 Y57.5009
G01 X98.4617 Y57.5047
G01 X98.3693 Y57.5884
G01 X98.3651 Y57.5919
G01 X98.2650 Y57.6662
G01 X98.2605 Y57.6691
G01 X98.1535 Y57.7333
G01 X98.1487 Y57.7358
G01 X98.0360 Y57.7891
G01 X98.0310 Y57.7912
G01 X97.9136 Y57.8332
G01 X97.9085 Y57.8348
G01 X97.7875 Y57.8651
G01 X97.7822 Y57.8661
G01 X97.6589 Y57.8844
G01 X97.6535 Y57.8849
G01 X97.5263 Y57.8911
G01 X79.5312 Y57.8911
G01 X79.4136 Y57.9332
G01 X79.4085 Y57.9348
G01 X79.2875 Y57.9651
G01 X79.2822 Y57.9661
G01 X79.1589 Y57.9844
G01 X79.1535 Y57.9849
G01 X79.0263 Y57.9911
G01 X33.9748 Y57.9911
G01 X33.8475 Y57.9849
G01 X33.8421 Y57.9844
G01 X33.7188 Y57.9661
G01 X33.7135 Y57.9651
G01 X33.5925 Y57.9348
G01 X33.5028 Y57.9029
G01 X25.6026 Y65.8028
G01 X25.5083 Y65.8884
G01 X25.5041 Y65.8919
G01 X25.4040 Y65.9662
G01 X25.3995 Y65.9691
G01 X25.2925 Y66.0333
G01 X25.2877 Y66.0358
G01 X25.1750 Y66.0891
G01 X25.1700 Y66.0912
G01 X25.0526 Y66.1332
G01 X25.0475 Y66.1348
G01 X24.9265 Y66.1651
G01 X24.9212 Y66.1661
G01 X24.7979 Y66.1844
G01 X24.7925 Y66.1849
G01 X24.6653 Y66.1911
G01 X5.2236 Y66.1910
G01 X5.0990 Y66.1849
G01 X5.0936 Y66.1844
G01 X4.9703 Y66.1661
G01 X4.9650 Y66.1651
G01 X4.8441 Y66.1348
G01 X4.8389 Y66.1332
G01 X4.7215 Y66.0912
G01 X4.7165 Y66.0891
G01 X4.6038 Y66.0358
G01 X4.5990 Y66.0333
G01 X4.4921 Y65.9691
G01 X4.4876 Y65.9662
G01 X4.3874 Y65.8919
G01 X4.3832 Y65.8884
G01 X4.2889 Y65.8028
G01 X1.9889 Y63.5028
G01 X1.9033 Y63.4085
G01 X1.8999 Y63.4043
G01 X1.8256 Y63.3042
G01 X1.8226 Y63.2997
G01 X1.7585 Y63.1927
G01 X1.7559 Y63.1880
G01 X1.7026 Y63.0752
G01 X1.7006 Y63.0703
G01 X1.6586 Y62.9529
G01 X1.6570 Y62.9477
G01 X1.6267 Y62.8267
G01 X1.6256 Y62.8214
G01 X1.6073 Y62.6981
G01 X1.6068 Y62.6927
G01 X1.6006 Y62.5655
G01 X1.6006 Y47.7045
G01 X1.6068 Y47.5772
G01 X1.6073 Y47.5719
G01 X1.6256 Y47.4485
G01 X1.6267 Y47.4432
G01 X1.6570 Y47.3223
G01 X1.6657 Y47.2972
G01 X1.6226 Y47.2387
G01 X1.5585 Y47.1317
G01 X1.5559 Y47.1270
G01 X1.5026 Y47.0142
G01 X1.5006 Y47.0093
G01 X1.4586 Y46.8919
G01 X1.4570 Y46.8867
G01 X1.4267 Y46.7657
G01 X1.4256 Y46.7604
G01 X1.4073 Y46.6371
G01 X1.4068 Y46.6317
G01 X1.4006 Y46.5045
G01 X1.4006 Y24.2045
G01 X1.4068 Y24.0772
G01 X1.4073 Y24.0719
G01 X1.4256 Y23.9485
G01 X1.4267 Y23.9432
G01 X1.4570 Y23.8223
G01 X1.4586 Y23.8171
G01 X1.5006 Y23.6995
G00 Z2.0000
G00 X23.7006 Y19.5257
G01 F25.00
G01 Z-0.0187
G01 F45.00
G01 X23.7006 Y13.5491
G01 X20.1904 Y10.0389
G01 X20.0034 Y10.2259
G01 X19.9090 Y10.3115
G01 X19.9048 Y10.3150
G01 X19.8047 Y10.3892
G01 X19.8002 Y10.3922
G01 X19.6932 Y10.4563
G01 X19.6885 Y10.4589
G01 X19.5758 Y10.5122
G01 X19.5708 Y10.5143
G01 X19.4534 Y10.5563
G01 X19.4482 Y10.5578
G01 X19.3273 Y10.5881
G01 X19.3220 Y10.5892
G01 X19.1986 Y10.6075
G01 X19.1932 Y10.6080
G01 X19.0660 Y10.6142
G01 X13.8863 Y10.6142
G01 X13.8863 Y10.8705
G01 X13.8860 Y10.8759
G01 X13.8852 Y10.8812
G01 X13.8839 Y10.8864
G01 X13.8821 Y10.8915
G01 X13.8798 Y10.8964
G01 X13.8770 Y10.9010
G01 X13.8738 Y10.9054
G01 X13.8702 Y10.9094
G01 X13.8662 Y10.9130
G01 X13.8618 Y10.9162
G01 X13.8572 Y10.9190
G01 X13.8523 Y10.9213
G01 X13.8472 Y10.9231
G01 X13.8420 Y10.9244
G01 X13.8367 Y10.9252
G01 X13.8313 Y10.9255
G01 X10.0213 Y10.9255
G01 X10.0159 Y10.9252
G01 X10.0105 Y10.9244
G01 X10.0053 Y10.9231
G01 X10.0002 Y10.9213
G01 X9.9953 Y10.9190
G01 X9.9907 Y10.9162
G01 X9.9864 Y10.9130
G01 X9.9824 Y10.9094
G01 X9.9787 Y10.9054
G01 X9.9755 Y10.9010
G01 X9.9728 Y10.8964
G01 X9.9704 Y10.8915
G01 X9.9686 Y10.8864
G01 X9.9673 Y10.8812
G01 X9.9665 Y10.8759
G01 X9.9663 Y10.8705
G01 X9.9663 Y10.3558
G01 X8.5830 Y10.3558
G01 X8.5636 Y10.3753
G01 X8.5636 Y17.4737
G01 X16.5730 Y17.4737
G01 X16.7002 Y17.4799
G01 X16.7056 Y17.4805
G01 X16.8289 Y17.4988
G01 X16.8342 Y17.4998
G01 X16.9552 Y17.5301
G01 X16.9604 Y17.5317
G01 X17.0778 Y17.5737
G01 X17.0827 Y17.5757
G01 X17.1955 Y17.6291
G01 X17.2002 Y17.6316
G01 X17.3072 Y17.6957
G01 X17.3117 Y17.6987
G01 X17.4118 Y17.7730
G01 X17.4160 Y17.7764
G01 X17.5103 Y17.8620
G01 X18.1636 Y18.5153
G01 X18.2492 Y18.6096
G01 X18.2527 Y18.6138
G01 X18.3269 Y18.7140
G01 X18.3299 Y18.7185
G01 X18.3940 Y18.8254
G01 X18.3966 Y18.8302
G01 X18.4499 Y18.9429
G01 X18.4520 Y18.9479
G01 X18.4940 Y19.0653
G01 X18.4955 Y19.0705
G01 X18.5258 Y19.1914
G01 X18.5269 Y19.1967
G01 X18.5452 Y19.3200
G01 X18.5457 Y19.3254
G01 X18.5519 Y19.4527
G01 X18.5519 Y29.6655
G01 X18.5457 Y29.7927
G01 X18.5452 Y29.7981
G01 X18.5269 Y29.9214
G01 X18.5258 Y29.9267
G01 X18.4955 Y30.0477
G01 X18.4940 Y30.0529
G01 X18.4520 Y30.1703
G01 X18.4499 Y30.1752
G01 X18.3966 Y30.2880
G01 X18.3940 Y30.2927
G01 X18.3299 Y30.3997
G01 X18.3269 Y30.4042
G01 X18.2527 Y30.5043
G01 X18.2492 Y30.5085
G01 X18.1655 Y30.6009
G01 X18.1617 Y30.6047
G01 X18.0693 Y30.6884
G01 X18.0651 Y30.6919
G01 X17.9650 Y30.7662
G01 X17.9605 Y30.7691
G01 X17.8535 Y30.8333
G01 X17.8487 Y30.8358
G01 X17.7360 Y30.8891
G01 X17.7310 Y30.8912
G01 X17.6136 Y30.9332
G01 X17.6085 Y30.9348
G01 X17.4875 Y30.9651
G01 X17.4822 Y30.9661
G01 X17.3589 Y30.9844
G01 X17.3535 Y30.9849
G01 X17.2263 Y30.9911
G01 X14.0863 Y30.9911
G01 X14.0863 Y31.5705
G01 X14.0860 Y31.5759
G01 X14.0852 Y31.5812
G01 X14.0839 Y31.5864
G01 X14.0821 Y31.5915
G01 X14.0798 Y31.5964
G01 X14.0770 Y31.6010
G01 X14.0738 Y31.6054
G01 X14.0702 Y31.6094
G01 X14.0662 Y31.6130
G01 X14.0618 Y31.6162
G01 X14.0572 Y31.6190
G01 X14.0523 Y31.6213
G01 X14.0472 Y31.6231
G01 X14.0420 Y31.6244
G01 X14.0367 Y31.6252
G01 X14.0313 Y31.6255
G01 X10.2213 Y31.6255
G01 X10.2159 Y31.6252
G01 X10.2105 Y31.6244
G01 X10.2053 Y31.6231
G01 X10.2002 Y31.6213
G01 X10.1953 Y31.6190
G01 X10.1907 Y31.6162
G01 X10.1864 Y31.6130
G01 X10.1824 Y31.6094
G01 X10.1787 Y31.6054
G01 X10.1755 Y31.6010
G01 X10.1728 Y31.5964
G01 X10.1704 Y31.5915
G01 X10.1686 Y31.5864
G01 X10.1673 Y31.5812
G01 X10.1665 Y31.5759
G01 X10.1663 Y31.5705
G01 X10.1663 Y30.9911
G01 X8.1519 Y30.9911
G01 X8.1519 Y39.1927
G01 X15.6263 Y39.1927
G01 X15.7535 Y39.1989
G01 X15.7589 Y39.1994
G01 X15.8822 Y39.2177
G01 X15.8875 Y39.2188
G01 X16.0085 Y39.2491
G01 X16.0136 Y39.2506
G01 X16.1310 Y39.2927
G01 X16.1360 Y39.2947
G01 X16.2487 Y39.3480
G01 X16.2535 Y39.3506
G01 X16.3605 Y39.4147
G01 X16.3650 Y39.4177
G01 X16.4651 Y39.4920
G01 X16.4693 Y39.4954
G01 X16.5636 Y39.5810
G01 X18.1636 Y41.1810
G01 X18.2492 Y41.2753
G01 X18.2527 Y41.2795
G01 X18.3269 Y41.3797
G01 X18.3299 Y41.3841
G01 X18.3940 Y41.4911
G01 X18.3966 Y41.4959
G01 X18.4499 Y41.6086
G01 X18.4520 Y41.6136
G01 X18.4940 Y41.7310
G01 X18.4955 Y41.7361
G01 X18.5258 Y41.8571
G01 X18.5269 Y41.8624
G01 X18.5452 Y41.9857
G01 X18.5457 Y41.9911
G01 X18.5518 Y42.1157
G01 X18.5519 Y50.6955
G01 X18.5457 Y50.8227
G01 X18.5452 Y50.8281
G01 X18.5269 Y50.9514
G01 X18.5258 Y50.9567
G01 X18.4955 Y51.0777
G01 X18.4940 Y51.0829
G01 X18.4520 Y51.2003
G01 X18.4499 Y51.2052
G01 X18.3966 Y51.3180
G01 X18.3940 Y51.3227
G01 X18.3299 Y51.4297
G01 X18.3269 Y51.4342
G01 X18.2527 Y51.5343
G01 X18.2492 Y51.5385
G01 X18.1636 Y51.6328
G01 X16.8936 Y52.9028
G01 X16.7993 Y52.9884
G01 X16.7951 Y52.9919
G01 X16.6950 Y53.0662
G01 X16.6905 Y53.0691
G01 X16.5835 Y53.1333
G01 X16.5787 Y53.1358
G01 X16.4660 Y53.1891
G01 X16.4610 Y53.1912
G01 X16.3436 Y53.2332
G01 X16.3385 Y53.2348
G01 X16.2175 Y53.2651
G01 X16.2122 Y53.2661
G01 X16.0889 Y53.2844
G01 X16.0835 Y53.2849
G01 X15.9563 Y53.2911
G01 X13.9863 Y53.2911
G01 X13.9863 Y53.8705
G01 X13.9860 Y53.8759
G01 X13.9852 Y53.8812
G01 X13.9839 Y53.8864
G01 X13.9821 Y53.8915
G01 X13.9798 Y53.8964
G01 X13.9770 Y53.9010
G01 X13.9738 Y53.9054
G01 X13.9702 Y53.9094
G01 X13.9662 Y53.9130
G01 X13.9618 Y53.9162
G01 X13.9572 Y53.9190
G01 X13.9523 Y53.9213
G01 X13.9472 Y53.9231
G01 X13.9420 Y53.9244
G01 X13.9367 Y53.9252
G01 X13.9313 Y53.9255
G01 X10.1213 Y53.9255
G01 X10.1159 Y53.9252
G01 X10.1105 Y53.9244
G01 X10.1053 Y53.9231
G01 X10.1002 Y53.9213
G01 X10.0953 Y53.9190
G01 X10.0907 Y53.9162
G01 X10.0864 Y53.9130
G01 X10.0824 Y53.9094
G01 X10.0787 Y53.9054
G01 X10.0755 Y53.9010
G01 X10.0728 Y53.8964
G01 X10.0704 Y53.8915
G01 X10.0686 Y53.8864
G01 X10.0673 Y53.8812
G01 X10.0665 Y53.8759
G01 X10.0663 Y53.8705
G01 X10.0663 Y53.2911
G01 X7.6519 Y53.2911
G01 X7.6519 Y60.0398
G01 X21.1477 Y60.0398
G01 X24.5788 Y56.6087
G01 X24.5788 Y41.5270
G01 X24.5850 Y41.3998
G01 X24.5855 Y41.3944
G01 X24.6038 Y41.2711
G01 X24.6049 Y41.2658
G01 X24.6352 Y41.1448
G01 X24.6368 Y41.1396
G01 X24.6788 Y41.0222
G01 X24.6808 Y41.0172
G01 X24.7341 Y40.9045
G01 X24.7367 Y40.8998
G01 X24.8008 Y40.7928
G01 X24.8038 Y40.7883
G01 X24.8781 Y40.6882
G01 X24.8815 Y40.6840
G01 X24.9671 Y40.5896
G01 X26.2697 Y39.2871
G01 X26.3640 Y39.2015
G01 X26.3682 Y39.1981
G01 X26.4683 Y39.1238
G01 X26.4728 Y39.1208
G01 X26.5798 Y39.0567
G01 X26.5845 Y39.0541
G01 X26.6973 Y39.0008
G01 X26.7022 Y38.9988
G01 X26.8196 Y38.9567
G01 X26.8248 Y38.9552
G01 X26.9458 Y38.9249
G01 X26.9511 Y38.9238
G01 X27.0744 Y38.9055
G01 X27.0798 Y38.9050
G01 X27.2070 Y38.8988
G01 X37.4647 Y38.8988
G01 X37.5920 Y38.9050
G01 X37.5973 Y38.9055
G01 X37.7207 Y38.9238
G01 X37.7260 Y38.9249
G01 X37.8469 Y38.9552
G01 X37.8521 Y38.9567
G01 X37.9695 Y38.9988
G01 X37.9745 Y39.0008
G01 X38.0872 Y39.0541
G01 X38.0920 Y39.0567
G01 X38.1989 Y39.1208
G01 X38.2034 Y39.1238
G01 X38.3036 Y39.1981
G01 X38.3077 Y39.2015
G01 X38.4021 Y39.2871
G01 X40.2636 Y41.1486
G01 X40.3492 Y41.2430
G01 X40.3527 Y41.2471
G01 X40.4269 Y41.3473
G01 X40.4299 Y41.3518
G01 X40.4940 Y41.4587
G01 X40.4966 Y41.4635
G01 X40.5499 Y41.5762
G01 X40.5520 Y41.5812
G01 X40.5940 Y41.6986
G01 X40.5955 Y41.7038
G01 X40.6258 Y41.8247
G01 X40.6269 Y41.8300
G01 X40.6452 Y41.9534
G01 X40.6457 Y41.9587
G01 X40.6519 Y42.0860
G01 X40.6519 Y44.0055
G01 X41.2313 Y44.0055
G01 X41.2367 Y44.0057
G01 X41.2420 Y44.0065
G01 X41.2472 Y44.0078
G01 X41.2523 Y44.0097
G01 X41.2572 Y44.0120
G01 X41.2618 Y44.0147
G01 X41.2662 Y44.0180
G01 X41.2702 Y44.0216
G01 X41.2738 Y44.0256
G01 X41.2770 Y44.0299
G01 X41.2798 Y44.0346
G01 X41.2821 Y44.0394
G01 X41.2839 Y44.0445
G01 X41.2852 Y44.0498
G01 X41.2860 Y44.0551
G01 X41.2863 Y44.0605
G01 X41.2863 Y47.8705
G01 X41.2860 Y47.8759
G01 X41.2852 Y47.8812
G01 X41.2839 Y47.8864
G01 X41.2821 Y47.8915
G01 X41.2798 Y47.8964
G01 X41.2770 Y47.9010
G01 X41.2738 Y47.9054
G01 X41.2702 Y47.9094
G01 X41.2662 Y47.9130
G01 X41.2618 Y47.9162
G01 X41.2572 Y47.9190
G01 X41.2523 Y47.9213
G01 X41.2472 Y47.9231
G01 X41.2420 Y47.9244
G01 X41.2367 Y47.9252
G01 X41.2313 Y47.9255
G01 X41.0519 Y47.9255
G01 X41.0519 Y50.9893
G01 X48.8128 Y50.9893
G01 X48.8128 Y41.0261
G01 X48.8189 Y40.8988
G01 X48.8195 Y40.8935
G01 X48.8378 Y40.7701
G01 X48.8388 Y40.7648
G01 X48.8691 Y40.6439
G01 X48.8707 Y40.6387
G01 X48.9127 Y40.5213
G01 X48.9148 Y40.5163
G01 X48.9681 Y40.4036
G01 X48.9706 Y40.3988
G01 X49.0347 Y40.2919
G01 X49.0377 Y40.2874
G01 X49.1120 Y40.1872
G01 X49.1154 Y40.1831
G01 X49.1992 Y40.0907
G01 X49.4616 Y39.8281
G01 X49.5560 Y39.7425
G01 X49.5601 Y39.7391
G01 X49.6603 Y39.6648
G01 X49.6648 Y39.6618
G01 X49.7717 Y39.5977
G01 X49.7765 Y39.5952
G01 X49.8892 Y39.5418
G01 X49.8942 Y39.5398
G01 X50.0116 Y39.4978
G01 X50.0168 Y39.4962
G01 X50.1377 Y39.4659
G01 X50.1430 Y39.4649
G01 X50.2664 Y39.4466
G01 X50.2717 Y39.4460
G01 X50.3990 Y39.4398
G01 X61.9263 Y39.4398
G01 X62.0535 Y39.4460
G01 X62.0589 Y39.4466
G01 X62.1822 Y39.4649
G01 X62.1875 Y39.4659
G01 X62.3085 Y39.4962
G01 X62.3136 Y39.4978
G01 X62.4310 Y39.5398
G01 X62.4360 Y39.5418
G01 X62.5487 Y39.5952
G01 X62.5535 Y39.5977
G01 X62.6605 Y39.6618
G01 X62.6650 Y39.6648
G01 X62.7651 Y39.7391
G01 X62.7693 Y39.7425
G01 X62.8617 Y39.8263
G01 X62.8778 Y39.8423
G01 X62.9634 Y39.9366
G01 X62.9668 Y39.9408
G01 X63.0411 Y40.0409
G01 X63.0441 Y40.0454
G01 X63.1082 Y40.1524
G01 X63.1107 Y40.1571
G01 X63.1640 Y40.2699
G01 X63.1661 Y40.2748
G01 X63.2081 Y40.3922
G01 X63.2097 Y40.3974
G01 X63.2400 Y40.5184
G01 X63.2410 Y40.5237
G01 X63.2593 Y40.6470
G01 X63.2599 Y40.6524
G01 X63.2660 Y40.7796
G01 X63.2660 Y43.8055
G01 X64.0313 Y43.8055
G01 X64.0367 Y43.8057
G01 X64.0420 Y43.8065
G01 X64.0472 Y43.8078
G01 X64.0523 Y43.8097
G01 X64.0572 Y43.8120
G01 X64.0618 Y43.8147
G01 X64.0662 Y43.8180
G01 X64.0702 Y43.8216
G01 X64.0738 Y43.8256
G01 X64.0770 Y43.8299
G01 X64.0798 Y43.8346
G01 X64.0821 Y43.8394
G01 X64.0839 Y43.8445
G01 X64.0852 Y43.8498
G01 X64.0860 Y43.8551
G01 X64.0863 Y43.8605
G01 X64.0863 Y47.6705
G01 X64.0860 Y47.6759
G01 X64.0852 Y47.6812
G01 X64.0839 Y47.6864
G01 X64.0821 Y47.6915
G01 X64.0798 Y47.6964
G01 X64.0770 Y47.7010
G01 X64.0738 Y47.7054
G01 X64.0702 Y47.7094
G01 X64.0662 Y47.7130
G01 X64.0618 Y47.7162
G01 X64.0572 Y47.7190
G01 X64.0523 Y47.7213
G01 X64.0472 Y47.7231
G01 X64.0420 Y47.7244
G01 X64.0367 Y47.7252
G01 X64.0313 Y47.7255
G01 X63.2660 Y47.7255
G01 X63.2660 Y49.6107
G01 X65.0295 Y51.3742
G01 X71.1428 Y51.3742
G01 X72.8006 Y49.7164
G01 X72.8007 Y39.3628
G01 X72.8068 Y39.2382
G01 X72.8073 Y39.2329
G01 X72.8256 Y39.1095
G01 X72.8267 Y39.1042
G01 X72.8570 Y38.9833
G01 X72.8586 Y38.9781
G01 X72.9006 Y38.8607
G01 X72.9026 Y38.8557
G01 X72.9559 Y38.7430
G01 X72.9585 Y38.7382
G01 X73.0226 Y38.6313
G01 X73.0256 Y38.6268
G01 X73.0999 Y38.5266
G01 X73.1033 Y38.5225
G01 X73.1889 Y38.4281
G01 X73.5908 Y38.0263
G01 X73.6832 Y37.9425
G01 X73.6874 Y37.9391
G01 X73.7876 Y37.8648
G01 X73.7921 Y37.8618
G01 X73.8990 Y37.7977
G01 X73.9038 Y37.7952
G01 X74.0165 Y37.7418
G01 X74.0215 Y37.7398
G01 X74.1389 Y37.6978
G01 X74.1441 Y37.6962
G01 X74.2650 Y37.6659
G01 X74.2703 Y37.6649
G01 X74.3936 Y37.6466
G01 X74.3990 Y37.6460
G01 X74.5263 Y37.6398
G01 X84.1263 Y37.6398
G01 X84.2535 Y37.6460
G01 X84.2589 Y37.6466
G01 X84.3822 Y37.6649
G01 X84.3875 Y37.6659
G01 X84.5085 Y37.6962
G01 X84.5136 Y37.6978
G01 X84.6310 Y37.7398
G01 X84.6360 Y37.7418
G01 X84.7487 Y37.7952
G01 X84.7535 Y37.7977
G01 X84.8605 Y37.8618
G01 X84.8650 Y37.8648
G01 X84.9651 Y37.9391
G01 X84.9693 Y37.9425
G01 X85.0636 Y38.0281
G01 X85.7246 Y38.6891
G01 X85.8102 Y38.7835
G01 X85.8137 Y38.7876
G01 X85.8879 Y38.8878
G01 X85.8909 Y38.8923
G01 X85.9550 Y38.9992
G01 X85.9576 Y39.0040
G01 X86.0109 Y39.1167
G01 X86.0130 Y39.1217
G01 X86.0550 Y39.2391
G01 X86.0565 Y39.2443
G01 X86.0868 Y39.3652
G01 X86.0879 Y39.3705
G01 X86.1062 Y39.4939
G01 X86.1067 Y39.4992
G01 X86.1129 Y39.6265
G01 X86.1129 Y43.6055
G01 X86.6923 Y43.6055
G01 X86.6977 Y43.6057
G01 X86.7030 Y43.6065
G01 X86.7082 Y43.6078
G01 X86.7133 Y43.6097
G01 X86.7182 Y43.6120
G01 X86.7228 Y43.6147
G01 X86.7272 Y43.6180
G01 X86.7312 Y43.6216
G01 X86.7348 Y43.6256
G01 X86.7380 Y43.6299
G01 X86.7408 Y43.6346
G01 X86.7431 Y43.6394
G01 X86.7449 Y43.6445
G01 X86.7462 Y43.6498
G01 X86.7470 Y43.6551
G01 X86.7473 Y43.6605
G01 X86.7473 Y47.4705
G01 X86.7470 Y47.4759
G01 X86.7462 Y47.4812
G01 X86.7449 Y47.4864
G01 X86.7431 Y47.4915
G01 X86.7408 Y47.4964
G01 X86.7380 Y47.5010
G01 X86.7348 Y47.5054
G01 X86.7312 Y47.5094
G01 X86.7272 Y47.5130
G01 X86.7228 Y47.5162
G01 X86.7182 Y47.5190
G01 X86.7133 Y47.5213
G01 X86.7082 Y47.5231
G01 X86.7030 Y47.5244
G01 X86.6977 Y47.5252
G01 X86.6923 Y47.5255
G01 X82.8823 Y47.5255
G01 X82.8769 Y47.5252
G01 X82.8715 Y47.5244
G01 X82.8663 Y47.5231
G01 X82.8612 Y47.5213
G01 X82.8563 Y47.5190
G01 X82.8517 Y47.5162
G01 X82.8474 Y47.5130
G01 X82.8434 Y47.5094
G01 X82.8397 Y47.5054
G01 X82.8365 Y47.5010
G01 X82.8338 Y47.4964
G01 X82.8314 Y47.4915
G01 X82.8296 Y47.4864
G01 X82.8283 Y47.4812
G01 X82.8275 Y47.4759
G01 X82.8273 Y47.4705
G01 X82.8273 Y43.6605
G01 X82.8275 Y43.6551
G01 X82.8283 Y43.6498
G01 X82.8296 Y43.6445
G01 X82.8314 Y43.6394
G01 X82.8338 Y43.6346
G01 X82.8365 Y43.6299
G01 X82.8397 Y43.6256
G01 X82.8434 Y43.6216
G01 X82.8474 Y43.6180
G01 X82.8517 Y43.6147
G01 X82.8563 Y43.6120
G01 X82.8612 Y43.6097
G01 X82.8663 Y43.6078
G01 X82.8715 Y43.6065
G01 X82.8769 Y43.6057
G01 X82.8823 Y43.6055
G01 X83.4616 Y43.6055
G01 X83.4616 Y40.2911
G01 X75.4519 Y40.2911
G01 X75.4518 Y50.2682
G01 X75.4457 Y50.3927
G01 X75.4452 Y50.3981
G01 X75.4269 Y50.5214
G01 X75.4258 Y50.5267
G01 X75.3955 Y50.6477
G01 X75.3940 Y50.6529
G01 X75.3520 Y50.7703
G01 X75.3499 Y50.7752
G01 X75.2966 Y50.8880
G01 X75.2940 Y50.8927
G01 X75.2299 Y50.9997
G01 X75.2269 Y51.0042
G01 X75.1527 Y51.1043
G01 X75.1492 Y51.1085
G01 X75.0636 Y51.2028
G01 X72.1617 Y54.1047
G01 X72.0693 Y54.1884
G01 X72.0651 Y54.1919
G01 X71.9650 Y54.2662
G01 X71.9605 Y54.2691
G01 X71.8535 Y54.3333
G01 X71.8487 Y54.3358
G01 X71.7360 Y54.3891
G01 X71.7310 Y54.3912
G01 X71.6136 Y54.4332
G01 X71.6085 Y54.4348
G01 X71.4875 Y54.4651
G01 X71.4822 Y54.4661
G01 X71.3589 Y54.4844
G01 X71.3535 Y54.4849
G01 X71.2290 Y54.4910
G01 X70.7236 Y54.4910
G01 X70.5990 Y54.4849
G01 X70.5936 Y54.4844
G01 X70.4703 Y54.4661
G01 X70.4650 Y54.4651
G01 X70.3441 Y54.4348
G01 X70.3389 Y54.4332
G01 X70.2215 Y54.3912
G01 X70.2165 Y54.3891
G01 X70.1038 Y54.3358
G01 X70.0990 Y54.3333
G01 X69.9921 Y54.2691
G01 X69.9876 Y54.2662
G01 X69.8874 Y54.1919
G01 X69.8832 Y54.1884
G01 X69.7908 Y54.1047
G01 X69.7870 Y54.1009
G01 X69.7187 Y54.0255
G01 X64.4804 Y54.0255
G01 X64.3532 Y54.0193
G01 X64.3478 Y54.0187
G01 X64.2244 Y54.0004
G01 X64.2191 Y53.9994
G01 X64.0982 Y53.9691
G01 X64.0930 Y53.9675
G01 X63.9756 Y53.9255
G01 X63.9706 Y53.9235
G01 X63.8579 Y53.8701
G01 X63.8532 Y53.8676
G01 X63.7462 Y53.8035
G01 X63.7417 Y53.8005
G01 X63.6416 Y53.7262
G01 X63.6374 Y53.7228
G01 X63.5430 Y53.6372
G01 X61.0012 Y51.0952
G01 X60.9174 Y51.0028
G01 X60.9140 Y50.9987
G01 X60.8397 Y50.8985
G01 X60.8367 Y50.8940
G01 X60.7726 Y50.7871
G01 X60.7701 Y50.7823
G01 X60.7168 Y50.6696
G01 X60.7147 Y50.6646
G01 X60.6727 Y50.5472
G01 X60.6711 Y50.5420
G01 X60.6408 Y50.4211
G01 X60.6398 Y50.4158
G01 X60.6215 Y50.2924
G01 X60.6209 Y50.2871
G01 X60.6148 Y50.1598
G01 X60.6148 Y47.7255
G01 X60.2213 Y47.7255
G01 X60.2159 Y47.7252
G01 X60.2105 Y47.7244
G01 X60.2053 Y47.7231
G01 X60.2002 Y47.7213
G01 X60.1953 Y47.7190
G01 X60.1907 Y47.7162
G01 X60.1864 Y47.7130
G01 X60.1824 Y47.7094
G01 X60.1787 Y47.7054
G01 X60.1755 Y47.7010
G01 X60.1728 Y47.6964
G01 X60.1704 Y47.6915
G01 X60.1686 Y47.6864
G01 X60.1673 Y47.6812
G01 X60.1665 Y47.6759
G01 X60.1663 Y47.6705
G01 X60.1663 Y43.8605
G01 X60.1665 Y43.8551
G01 X60.1673 Y43.8498
G01 X60.1686 Y43.8445
G01 X60.1704 Y43.8394
G01 X60.1728 Y43.8346
G01 X60.1755 Y43.8299
G01 X60.1787 Y43.8256
G01 X60.1824 Y43.8216
G01 X60.1864 Y43.8180
G01 X60.1907 Y43.8147
G01 X60.1953 Y43.8120
G01 X60.2002 Y43.8097
G01 X60.2053 Y43.8078
G01 X60.2105 Y43.8065
G01 X60.2159 Y43.8057
G01 X60.2213 Y43.8055
G01 X60.6148 Y43.8055
G01 X60.6148 Y42.0911
G01 X51.4640 Y42.0911
G01 X51.4640 Y52.1894
G01 X51.4578 Y52.3139
G01 X51.4573 Y52.3193
G01 X51.4390 Y52.4426
G01 X51.4380 Y52.4479
G01 X51.4077 Y52.5689
G01 X51.4061 Y52.5741
G01 X51.3641 Y52.6915
G01 X51.3620 Y52.6964
G01 X51.3087 Y52.8092
G01 X51.3062 Y52.8139
G01 X51.2421 Y52.9209
G01 X51.2391 Y52.9254
G01 X51.1648 Y53.0255
G01 X51.1614 Y53.0297
G01 X51.0758 Y53.1240
G01 X50.9475 Y53.2523
G01 X50.8531 Y53.3379
G01 X50.8489 Y53.3414
G01 X50.7488 Y53.4156
G01 X50.7443 Y53.4186
G01 X50.6373 Y53.4827
G01 X50.6326 Y53.4853
G01 X50.5199 Y53.5386
G01 X50.5149 Y53.5407
G01 X50.3975 Y53.5827
G01 X50.3923 Y53.5842
G01 X50.2714 Y53.6145
G01 X50.2661 Y53.6156
G01 X50.1427 Y53.6339
G01 X50.1373 Y53.6344
G01 X50.0128 Y53.6405
G01 X39.9758 Y53.6406
G01 X39.8485 Y53.6344
G01 X39.8431 Y53.6339
G01 X39.7198 Y53.6156
G01 X39.7145 Y53.6145
G01 X39.5935 Y53.5842
G01 X39.5884 Y53.5827
G01 X39.4710 Y53.5407
G01 X39.4660 Y53.5386
G01 X39.3533 Y53.4853
G01 X39.3485 Y53.4827
G01 X39.2415 Y53.4186
G01 X39.2371 Y53.4156
G01 X39.1369 Y53.3414
G01 X39.1327 Y53.3379
G01 X39.0403 Y53.2542
G01 X38.7870 Y53.0009
G01 X38.7033 Y52.9085
G01 X38.6999 Y52.9043
G01 X38.6256 Y52.8042
G01 X38.6226 Y52.7997
G01 X38.5585 Y52.6927
G01 X38.5559 Y52.6880
G01 X38.5026 Y52.5752
G01 X38.5006 Y52.5703
G01 X38.4586 Y52.4529
G01 X38.4570 Y52.4477
G01 X38.4267 Y52.3267
G01 X38.4256 Y52.3214
G01 X38.4073 Y52.1981
G01 X38.4068 Y52.1927
G01 X38.4006 Y52.0655
G01 X38.4006 Y47.9255
G01 X37.4213 Y47.9255
G01 X37.4159 Y47.9252
G01 X37.4105 Y47.9244
G01 X37.4053 Y47.9231
G01 X37.4002 Y47.9213
G01 X37.3953 Y47.9190
G01 X37.3907 Y47.9162
G01 X37.3864 Y47.9130
G01 X37.3824 Y47.9094
G01 X37.3787 Y47.9054
G01 X37.3755 Y47.9010
G01 X37.3728 Y47.8964
G01 X37.3704 Y47.8915
G01 X37.3686 Y47.8864
G01 X37.3673 Y47.8812
G01 X37.3665 Y47.8759
G01 X37.3663 Y47.8705
G01 X37.3663 Y44.0605
G01 X37.3665 Y44.0551
G01 X37.3673 Y44.0498
G01 X37.3686 Y44.0445
G01 X37.3704 Y44.0394
G01 X37.3728 Y44.0346
G01 X37.3755 Y44.0299
G01 X37.3787 Y44.0256
G01 X37.3824 Y44.0216
G01 X37.3864 Y44.0180
G01 X37.3907 Y44.0147
G01 X37.3953 Y44.0120
G01 X37.4002 Y44.0097
G01 X37.4053 Y44.0078
G01 X37.4105 Y44.0065
G01 X37.4159 Y44.0057
G01 X37.4213 Y44.0055
G01 X38.0006 Y44.0055
G01 X38.0006 Y42.6351
G01 X36.9156 Y41.5501
G01 X27.7561 Y41.5501
G01 X27.2301 Y42.0761
G01 X27.2301 Y57.1578
G01 X27.2239 Y57.2850
G01 X27.2234 Y57.2904
G01 X27.2051 Y57.4137
G01 X27.2040 Y57.4190
G01 X27.1737 Y57.5400
G01 X27.1722 Y57.5452
G01 X27.1302 Y57.6626
G01 X27.1281 Y57.6675
G01 X27.0748 Y57.7803
G01 X27.0722 Y57.7850
G01 X27.0081 Y57.8920
G01 X27.0051 Y57.8965
G01 X26.9309 Y57.9966
G01 X26.9274 Y58.0008
G01 X26.8437 Y58.0932
G01 X22.6341 Y62.3028
G01 X22.5398 Y62.3884
G01 X22.5356 Y62.3919
G01 X22.4355 Y62.4662
G01 X22.4310 Y62.4691
G01 X22.3240 Y62.5333
G01 X22.3192 Y62.5358
G01 X22.2065 Y62.5891
G01 X22.2015 Y62.5912
G01 X22.0841 Y62.6332
G01 X22.0790 Y62.6348
G01 X21.9580 Y62.6651
G01 X21.9527 Y62.6661
G01 X21.8294 Y62.6844
G01 X21.8240 Y62.6849
G01 X21.6968 Y62.6911
G01 X7.0519 Y62.6911
G01 X6.9247 Y62.6849
G01 X6.9193 Y62.6844
G01 X6.7960 Y62.6661
G01 X6.7907 Y62.6651
G01 X6.6697 Y62.6348
G01 X6.6645 Y62.6332
G01 X6.5471 Y62.5912
G01 X6.5421 Y62.5891
G01 X6.4294 Y62.5358
G01 X6.4247 Y62.5333
G01 X6.3177 Y62.4691
G01 X6.3132 Y62.4662
G01 X6.2131 Y62.3919
G01 X6.2089 Y62.3884
G01 X6.1145 Y62.3028
G01 X5.3889 Y61.5772
G01 X5.3033 Y61.4828
G01 X5.2999 Y61.4787
G01 X5.2256 Y61.3785
G01 X5.2226 Y61.3740
G01 X5.1585 Y61.2671
G01 X5.1559 Y61.2623
G01 X5.1026 Y61.1496
G01 X5.1006 Y61.1446
G01 X5.0586 Y61.0272
G01 X5.0570 Y61.0220
G01 X5.0267 Y60.9011
G01 X5.0256 Y60.8958
G01 X5.0073 Y60.7724
G01 X5.0068 Y60.7671
G01 X5.0006 Y60.6398
G01 X5.0006 Y51.9655
G01 X5.0068 Y51.8382
G01 X5.0073 Y51.8329
G01 X5.0256 Y51.7095
G01 X5.0267 Y51.7042
G01 X5.0570 Y51.5833
G01 X5.0586 Y51.5781
G01 X5.1006 Y51.4607
G01 X5.1026 Y51.4557
G01 X5.1559 Y51.3430
G01 X5.1585 Y51.3382
G01 X5.2226 Y51.2313
G01 X5.2256 Y51.2268
G01 X5.2999 Y51.1266
G01 X5.3033 Y51.1225
G01 X5.3870 Y51.0301
G01 X5.3908 Y51.0263
G01 X5.4832 Y50.9425
G01 X5.4874 Y50.9391
G01 X5.5876 Y50.8648
G01 X5.5921 Y50.8618
G01 X5.6990 Y50.7977
G01 X5.7038 Y50.7952
G01 X5.8165 Y50.7418
G01 X5.8215 Y50.7398
G01 X5.9389 Y50.6978
G01 X5.9441 Y50.6962
G01 X6.0650 Y50.6659
G01 X6.0703 Y50.6649
G01 X6.1936 Y50.6466
G01 X6.1990 Y50.6460
G01 X6.3263 Y50.6398
G01 X10.0663 Y50.6398
G01 X10.0663 Y50.0605
G01 X10.0665 Y50.0551
G01 X10.0673 Y50.0498
G01 X10.0686 Y50.0445
G01 X10.0704 Y50.0394
G01 X10.0728 Y50.0346
G01 X10.0755 Y50.0299
G01 X10.0787 Y50.0256
G01 X10.0824 Y50.0216
G01 X10.0864 Y50.0180
G01 X10.0907 Y50.0147
G01 X10.0953 Y50.0120
G01 X10.1002 Y50.0097
G01 X10.1053 Y50.0078
G01 X10.1105 Y50.0065
G01 X10.1159 Y50.0057
G01 X10.1213 Y50.0055
G01 X13.9313 Y50.0055
G01 X13.9367 Y50.0057
G01 X13.9420 Y50.0065
G01 X13.9472 Y50.0078
G01 X13.9523 Y50.0097
G01 X13.9572 Y50.0120
G01 X13.9618 Y50.0147
G01 X13.9662 Y50.0180
G01 X13.9702 Y50.0216
G01 X13.9738 Y50.0256
G01 X13.9770 Y50.0299
G01 X13.9798 Y50.0346
G01 X13.9821 Y50.0394
G01 X13.9839 Y50.0445
G01 X13.9852 Y50.0498
G01 X13.9860 Y50.0551
G01 X13.9863 Y50.0605
G01 X13.9863 Y50.6398
G01 X15.4072 Y50.6398
G01 X15.9006 Y50.1464
G01 X15.9006 Y42.6674
G01 X15.0772 Y41.8440
G01 X6.8263 Y41.8440
G01 X6.6990 Y41.8378
G01 X6.6936 Y41.8373
G01 X6.5703 Y41.8190
G01 X6.5650 Y41.8179
G01 X6.4441 Y41.7876
G01 X6.4389 Y41.7861
G01 X6.3215 Y41.7440
G01 X6.3165 Y41.7420
G01 X6.2038 Y41.6887
G01 X6.1990 Y41.6861
G01 X6.0921 Y41.6220
G01 X6.0876 Y41.6190
G01 X5.9874 Y41.5447
G01 X5.9832 Y41.5413
G01 X5.8908 Y41.4576
G01 X5.8870 Y41.4538
G01 X5.8033 Y41.3614
G01 X5.7999 Y41.3572
G01 X5.7256 Y41.2570
G01 X5.7226 Y41.2526
G01 X5.6585 Y41.1456
G01 X5.6559 Y41.1408
G01 X5.6026 Y41.0281
G01 X5.6006 Y41.0231
G01 X5.5586 Y40.9057
G01 X5.5570 Y40.9006
G01 X5.5267 Y40.7796
G01 X5.5256 Y40.7743
G01 X5.5073 Y40.6510
G01 X5.5068 Y40.6456
G01 X5.5007 Y40.5210
G01 X5.5006 Y30.2481
G01 X5.4641 Y30.1703
G01 X5.4221 Y30.0529
G01 X5.4205 Y30.0477
G01 X5.3902 Y29.9267
G01 X5.3892 Y29.9214
G01 X5.3709 Y29.7981
G01 X5.3704 Y29.7927
G01 X5.3642 Y29.6682
G01 X5.3642 Y29.6628
G01 X5.3704 Y29.5382
G01 X5.3709 Y29.5329
G01 X5.3892 Y29.4095
G01 X5.3902 Y29.4042
G01 X5.4205 Y29.2833
G01 X5.4221 Y29.2781
G01 X5.4641 Y29.1607
G01 X5.4662 Y29.1557
G01 X5.5195 Y29.0430
G01 X5.5220 Y29.0382
G01 X5.5861 Y28.9313
G01 X5.5891 Y28.9268
G01 X5.6634 Y28.8266
G01 X5.6668 Y28.8225
G01 X5.7506 Y28.7301
G01 X5.7544 Y28.7263
G01 X5.8468 Y28.6425
G01 X5.8510 Y28.6391
G01 X5.9511 Y28.5648
G01 X5.9556 Y28.5618
G01 X6.0626 Y28.4977
G01 X6.0673 Y28.4952
G01 X6.1800 Y28.4418
G01 X6.1850 Y28.4398
G01 X6.3024 Y28.3978
G01 X6.3076 Y28.3962
G01 X6.4286 Y28.3659
G01 X6.4339 Y28.3649
G01 X6.5572 Y28.3466
G01 X6.5626 Y28.3460
G01 X6.6898 Y28.3398
G01 X10.1663 Y28.3398
G01 X10.1663 Y27.7605
G01 X10.1665 Y27.7551
G01 X10.1673 Y27.7498
G01 X10.1686 Y27.7445
G01 X10.1704 Y27.7394
G01 X10.1728 Y27.7346
G01 X10.1755 Y27.7299
G01 X10.1787 Y27.7256
G01 X10.1824 Y27.7216
G01 X10.1864 Y27.7180
G01 X10.1907 Y27.7147
G01 X10.1953 Y27.7120
G01 X10.2002 Y27.7097
G01 X10.2053 Y27.7078
G01 X10.2105 Y27.7065
G01 X10.2159 Y27.7057
G01 X10.2213 Y27.7055
G01 X14.0313 Y27.7055
G01 X14.0367 Y27.7057
G01 X14.0420 Y27.7065
G01 X14.0472 Y27.7078
G01 X14.0523 Y27.7097
G01 X14.0572 Y27.7120
G01 X14.0618 Y27.7147
G01 X14.0662 Y27.7180
G01 X14.0702 Y27.7216
G01 X14.0738 Y27.7256
G01 X14.0770 Y27.7299
G01 X14.0798 Y27.7346
G01 X14.0821 Y27.7394
G01 X14.0839 Y27.7445
G01 X14.0852 Y27.7498
G01 X14.0860 Y27.7551
G01 X14.0863 Y27.7605
G01 X14.0863 Y28.3398
G01 X15.9006 Y28.3398
G01 X15.9006 Y20.1250
G01 X7.2379 Y20.1250
G01 X7.1107 Y20.1188
G01 X7.1053 Y20.1183
G01 X6.9820 Y20.1000
G01 X6.9767 Y20.0990
G01 X6.8557 Y20.0687
G01 X6.8506 Y20.0671
G01 X6.7332 Y20.0251
G01 X6.7282 Y20.0230
G01 X6.6155 Y19.9697
G01 X6.6107 Y19.9672
G01 X6.5037 Y19.9030
G01 X6.4992 Y19.9001
G01 X6.3991 Y19.8258
G01 X6.3949 Y19.8223
G01 X6.3025 Y19.7386
G01 X6.2987 Y19.7348
G01 X6.2150 Y19.6424
G01 X6.2115 Y19.6382
G01 X6.1373 Y19.5381
G01 X6.1343 Y19.5336
G01 X6.0702 Y19.4266
G01 X6.0676 Y19.4219
G01 X6.0143 Y19.3091
G01 X6.0122 Y19.3042
G01 X5.9702 Y19.1868
G01 X5.9687 Y19.1816
G01 X5.9384 Y19.0606
G01 X5.9373 Y19.0553
G01 X5.9190 Y18.9320
G01 X5.9185 Y18.9266
G01 X5.9123 Y18.7994
G01 X5.9123 Y9.8262
G01 X5.9185 Y9.6989
G01 X5.9190 Y9.6936
G01 X5.9373 Y9.5702
G01 X5.9384 Y9.5649
G01 X5.9687 Y9.4440
G01 X5.9702 Y9.4388
G01 X6.0122 Y9.3214
G01 X6.0143 Y9.3164
G01 X6.0676 Y9.2037
G01 X6.0702 Y9.1989
G01 X6.1343 Y9.0920
G01 X6.1373 Y9.0875
G01 X6.2115 Y8.9873
G01 X6.2150 Y8.9832
G01 X6.2987 Y8.8908
G01 X7.0966 Y8.0928
G01 X7.1909 Y8.0072
G01 X7.1951 Y8.0038
G01 X7.2953 Y7.9295
G01 X7.2997 Y7.9265
G01 X7.4067 Y7.8624
G01 X7.4115 Y7.8598
G01 X7.5242 Y7.8065
G01 X7.5292 Y7.8045
G01 X7.6466 Y7.7625
G01 X7.6517 Y7.7609
G01 X7.7727 Y7.7306
G01 X7.7780 Y7.7295
G01 X7.9013 Y7.7112
G01 X7.9067 Y7.7107
G01 X8.0313 Y7.7046
G01 X9.9663 Y7.7045
G01 X9.9663 Y7.0605
G01 X9.9665 Y7.0551
G01 X9.9673 Y7.0498
G01 X9.9686 Y7.0445
G01 X9.9704 Y7.0394
G01 X9.9728 Y7.0346
G01 X9.9755 Y7.0299
G01 X9.9787 Y7.0256
G01 X9.9824 Y7.0216
G01 X9.9864 Y7.0180
G01 X9.9907 Y7.0147
G01 X9.9953 Y7.0120
G01 X10.0002 Y7.0097
G01 X10.0053 Y7.0078
G01 X10.0105 Y7.0065
G01 X10.0159 Y7.0057
G01 X10.0213 Y7.0055
G01 X13.8313 Y7.0055
G01 X13.8367 Y7.0057
G01 X13.8420 Y7.0065
G01 X13.8472 Y7.0078
G01 X13.8523 Y7.0097
G01 X13.8572 Y7.0120
G01 X13.8618 Y7.0147
G01 X13.8662 Y7.0180
G01 X13.8702 Y7.0216
G01 X13.8738 Y7.0256
G01 X13.8770 Y7.0299
G01 X13.8798 Y7.0346
G01 X13.8821 Y7.0394
G01 X13.8839 Y7.0445
G01 X13.8852 Y7.0498
G01 X13.8860 Y7.0551
G01 X13.8863 Y7.0605
G01 X13.8863 Y7.9629
G01 X18.5169 Y7.9629
G01 X19.8517 Y6.6281
G01 X19.9461 Y6.5425
G01 X19.9502 Y6.5391
G01 X20.0504 Y6.4648
G01 X20.0549 Y6.4618
G01 X20.1618 Y6.3977
G01 X20.1666 Y6.3952
G01 X20.2793 Y6.3418
G01 X20.2843 Y6.3398
G01 X20.4017 Y6.2978
G01 X20.4069 Y6.2962
G01 X20.5278 Y6.2659
G01 X20.5331 Y6.2649
G01 X20.6565 Y6.2466
G01 X20.6618 Y6.2460
G01 X20.7864 Y6.2399
G01 X22.1701 Y6.2398
G01 X22.2796 Y6.1743
G01 X22.2843 Y6.1717
G01 X22.4195 Y6.1078
G01 X22.4245 Y6.1057
G01 X22.5653 Y6.0553
G01 X22.5705 Y6.0538
G01 X22.7156 Y6.0174
G01 X22.7209 Y6.0164
G01 X22.8688 Y5.9944
G01 X22.8742 Y5.9939
G01 X23.0236 Y5.9865
G01 X23.0290 Y5.9865
G01 X23.1783 Y5.9939
G01 X23.1837 Y5.9944
G01 X23.3316 Y6.0164
G01 X23.3369 Y6.0174
G01 X23.4820 Y6.0538
G01 X23.4872 Y6.0553
G01 X23.6280 Y6.1057
G01 X23.6330 Y6.1078
G01 X23.7682 Y6.1717
G01 X23.7729 Y6.1743
G01 X23.9012 Y6.2511
G01 X23.9057 Y6.2541
G01 X24.0258 Y6.3432
G01 X24.0300 Y6.3467
G01 X24.1408 Y6.4471
G01 X24.1446 Y6.4509
G01 X24.2451 Y6.5617
G01 X24.2485 Y6.5659
G01 X24.3376 Y6.6860
G01 X24.3406 Y6.6905
G01 X24.4175 Y6.8188
G01 X24.4200 Y6.8236
G01 X24.4840 Y6.9588
G01 X24.4860 Y6.9637
G01 X24.5364 Y7.1046
G01 X24.5380 Y7.1097
G01 X24.5743 Y7.2548
G01 X24.5754 Y7.2601
G01 X24.5973 Y7.4080
G01 X24.5979 Y7.4134
G01 X24.6052 Y7.5628
G01 X24.6052 Y7.5682
G01 X24.5979 Y7.7176
G01 X24.5949 Y7.7391
G01 X24.9136 Y8.3768
G01 X31.5102 Y14.9734
G01 X31.5958 Y15.0678
G01 X31.5993 Y15.0720
G01 X31.6735 Y15.1721
G01 X31.6765 Y15.1766
G01 X31.7406 Y15.2836
G01 X31.7432 Y15.2883
G01 X31.7965 Y15.4010
G01 X31.7986 Y15.4060
G01 X31.8406 Y15.5234
G01 X31.8421 Y15.5286
G01 X31.8724 Y15.6496
G01 X31.8735 Y15.6549
G01 X31.8918 Y15.7782
G01 X31.8923 Y15.7836
G01 X31.8985 Y15.9108
G01 X31.8985 Y27.9189
G01 X31.8923 Y28.0461
G01 X31.8860 Y28.0905
G01 X32.9236 Y29.1281
G01 X33.0092 Y29.2225
G01 X33.0127 Y29.2266
G01 X33.0869 Y29.3268
G01 X33.0899 Y29.3313
G01 X33.1540 Y29.4382
G01 X33.1566 Y29.4430
G01 X33.2099 Y29.5557
G01 X33.2120 Y29.5607
G01 X33.2540 Y29.6781
G01 X33.2555 Y29.6833
G01 X33.2858 Y29.8042
G01 X33.2869 Y29.8095
G01 X33.3052 Y29.9329
G01 X33.3057 Y29.9382
G01 X33.3118 Y30.0628
G01 X33.3118 Y30.0682
G01 X33.3057 Y30.1927
G01 X33.3052 Y30.1981
G01 X33.2869 Y30.3214
G01 X33.2858 Y30.3267
G01 X33.2555 Y30.4477
G01 X33.2540 Y30.4529
G01 X33.2120 Y30.5703
G01 X33.2099 Y30.5752
G01 X33.1566 Y30.6880
G01 X33.1540 Y30.6927
G01 X33.0899 Y30.7997
G01 X33.0869 Y30.8042
G01 X33.0127 Y30.9043
G01 X33.0092 Y30.9085
G01 X32.9236 Y31.0028
G01 X32.7245 Y31.2019
G01 X32.6302 Y31.2875
G01 X32.6260 Y31.2910
G01 X32.5259 Y31.3653
G01 X32.5214 Y31.3682
G01 X32.4144 Y31.4324
G01 X32.4096 Y31.4349
G01 X32.2969 Y31.4882
G01 X32.2919 Y31.4903
G01 X32.1745 Y31.5323
G01 X32.1694 Y31.5339
G01 X32.0484 Y31.5642
G01 X32.0431 Y31.5652
G01 X31.9198 Y31.5835
G01 X31.9144 Y31.5840
G01 X31.7899 Y31.5901
G01 X29.2948 Y31.5902
G01 X29.1676 Y31.5840
G01 X29.1622 Y31.5835
G01 X29.0388 Y31.5652
G01 X29.0335 Y31.5642
G01 X28.9126 Y31.5339
G01 X28.9074 Y31.5323
G01 X28.7900 Y31.4903
G01 X28.7850 Y31.4882
G01 X28.6723 Y31.4349
G01 X28.6676 Y31.4324
G01 X28.5606 Y31.3682
G01 X28.5561 Y31.3653
G01 X28.4560 Y31.2910
G01 X28.4518 Y31.2875
G01 X28.3574 Y31.2019
G01 X23.7889 Y26.6334
G01 X23.7033 Y26.5391
G01 X23.6999 Y26.5349
G01 X23.6256 Y26.4347
G01 X23.6226 Y26.4302
G01 X23.5585 Y26.3233
G01 X23.5559 Y26.3185
G01 X23.5026 Y26.2058
G01 X23.5006 Y26.2008
G01 X23.4586 Y26.0834
G01 X23.4570 Y26.0782
G01 X23.4267 Y25.9573
G01 X23.4256 Y25.9520
G01 X23.4073 Y25.8287
G01 X23.4068 Y25.8233
G01 X23.4007 Y25.6987
G01 X23.4006 Y20.3655
G01 X23.4068 Y20.2382
G01 X23.4073 Y20.2329
G01 X23.4256 Y20.1095
G01 X23.4267 Y20.1042
G01 X23.4570 Y19.9833
G01 X23.4586 Y19.9781
G01 X23.5006 Y19.8607
G01 X23.5026 Y19.8557
G01 X23.5559 Y19.7430
G01 X23.5585 Y19.7382
G01 X23.6226 Y19.6313
G01 X23.6256 Y19.6268
G01 X23.7006 Y19.5257
G00 Z2.0000
G00 X35.3272 Y29.0614
G01 F25.00
G01 Z-0.0187
G01 F45.00
G01 X35.3308 Y29.0654
G01 X35.3340 Y29.0697
G01 X35.3368 Y29.0744
G01 X35.3391 Y29.0792
G01 X35.3409 Y29.0843
G01 X35.3422 Y29.0896
G01 X35.3430 Y29.0949
G01 X35.3433 Y29.1003
G01 X35.3433 Y30.0564
G01 X35.3436 Y30.0628
G01 X35.3433 Y30.0746
G01 X35.3433 Y31.0307
G01 X35.3430 Y31.0361
G01 X35.3422 Y31.0414
G01 X35.3409 Y31.0466
G01 X35.3391 Y31.0517
G01 X35.3368 Y31.0566
G01 X35.3340 Y31.0612
G01 X35.3308 Y31.0656
G01 X35.3272 Y31.0696
G01 X35.0224 Y31.3744
G01 X35.0184 Y31.3780
G01 X35.0140 Y31.3812
G01 X35.0094 Y31.3840
G01 X35.0045 Y31.3863
G01 X34.9994 Y31.3881
G01 X34.9942 Y31.3894
G01 X34.9889 Y31.3902
G01 X34.9835 Y31.3905
G01 X34.0691 Y31.3905
G01 X34.0637 Y31.3902
G01 X34.0583 Y31.3894
G01 X34.0531 Y31.3881
G01 X34.0480 Y31.3863
G01 X34.0431 Y31.3840
G01 X34.0385 Y31.3812
G01 X34.0342 Y31.3780
G01 X34.0302 Y31.3744
G01 X33.7254 Y31.0696
G01 X33.7217 Y31.0656
G01 X33.7185 Y31.0612
G01 X33.7158 Y31.0566
G01 X33.7134 Y31.0517
G01 X33.7116 Y31.0466
G01 X33.7103 Y31.0414
G01 X33.7095 Y31.0361
G01 X33.7093 Y31.0307
G01 X33.7093 Y30.3574
G01 X33.7042 Y30.3484
G01 X33.6722 Y30.2807
G01 X33.6449 Y30.2053
G01 X33.6252 Y30.1276
G01 X33.6241 Y30.1223
G01 X33.6126 Y30.0429
G01 X33.6089 Y29.9655
G01 X33.6089 Y22.9781
G01 X33.5949 Y22.9622
G01 X33.5399 Y22.8877
G01 X33.4925 Y22.8081
G01 X33.4531 Y22.7242
G01 X33.4222 Y22.6369
G01 X33.3999 Y22.5470
G01 X33.3866 Y22.4553
G01 X33.3823 Y22.3628
G01 X33.3871 Y22.2703
G01 X33.4010 Y22.1787
G01 X33.4238 Y22.0889
G01 X33.4531 Y22.0067
G01 X33.4925 Y21.9229
G01 X33.4951 Y21.9181
G01 X33.5429 Y21.8388
G01 X33.5983 Y21.7646
G01 X33.6607 Y21.6961
G01 X33.7295 Y21.6341
G01 X33.7996 Y21.5821
G01 X33.8789 Y21.5343
G01 X33.8837 Y21.5317
G01 X33.9675 Y21.4924
G01 X34.0548 Y21.4614
G01 X34.1448 Y21.4392
G01 X34.2364 Y21.4258
G01 X34.3290 Y21.4215
G01 X34.4215 Y21.4264
G01 X34.5131 Y21.4402
G01 X34.6029 Y21.4630
G01 X34.6900 Y21.4944
G01 X34.7736 Y21.5343
G01 X34.8529 Y21.5821
G01 X34.9272 Y21.6375
G01 X34.9956 Y21.6999
G01 X35.0576 Y21.7687
G01 X35.1126 Y21.8433
G01 X35.1600 Y21.9229
G01 X35.1994 Y22.0067
G01 X35.2303 Y22.0941
G01 X35.2526 Y22.1840
G01 X35.2659 Y22.2756
G01 X35.2702 Y22.3682
G01 X35.2654 Y22.4607
G01 X35.2526 Y22.5470
G01 X35.2436 Y22.5838
G01 X35.2436 Y28.9779
G01 X35.3272 Y29.0614
G00 Z2.0000
G00 X36.6598 Y31.3905
G01 F25.00
G01 Z-0.0187
G01 F45.00
G01 X36.6037 Y31.3902
G01 X36.5983 Y31.3894
G01 X36.5931 Y31.3881
G01 X36.5880 Y31.3863
G01 X36.5831 Y31.3840
G01 X36.5785 Y31.3812
G01 X36.5742 Y31.3780
G01 X36.5702 Y31.3744
G01 X36.5142 Y31.3184
G01 X36.4321 Y31.2691
G01 X36.4276 Y31.2662
G01 X36.3274 Y31.1919
G01 X36.3232 Y31.1884
G01 X36.2289 Y31.1028
G01 X36.1270 Y31.0009
G01 X36.0433 Y30.9085
G01 X36.0399 Y30.9043
G01 X35.9656 Y30.8042
G01 X35.9626 Y30.7997
G01 X35.8985 Y30.6927
G01 X35.8959 Y30.6880
G01 X35.8426 Y30.5752
G01 X35.8406 Y30.5703
G01 X35.7986 Y30.4529
G01 X35.7970 Y30.4477
G01 X35.7667 Y30.3267
G01 X35.7656 Y30.3214
G01 X35.7473 Y30.1981
G01 X35.7468 Y30.1927
G01 X35.7407 Y30.0682
G01 X35.7407 Y30.0628
G01 X35.7468 Y29.9382
G01 X35.7473 Y29.9329
G01 X35.7656 Y29.8095
G01 X35.7667 Y29.8042
G01 X35.7970 Y29.6833
G01 X35.7986 Y29.6781
G01 X35.8406 Y29.5607
G01 X35.8426 Y29.5557
G01 X35.8959 Y29.4430
G01 X35.8985 Y29.4382
G01 X35.9626 Y29.3313
G01 X35.9656 Y29.3268
G01 X36.0399 Y29.2266
G01 X36.0433 Y29.2225
G01 X36.1270 Y29.1301
G01 X36.1308 Y29.1263
G01 X36.2232 Y29.0425
G01 X36.2274 Y29.0391
G01 X36.3276 Y28.9648
G01 X36.3321 Y28.9618
G01 X36.4142 Y28.9126
G01 X36.5702 Y28.7566
G01 X36.5742 Y28.7530
G01 X36.5785 Y28.7497
G01 X36.5831 Y28.7470
G01 X36.5880 Y28.7447
G01 X36.5931 Y28.7428
G01 X36.5983 Y28.7415
G01 X36.6037 Y28.7407
G01 X36.6091 Y28.7405
G01 X37.0520 Y28.7405
G01 X37.0690 Y28.7399
G01 X37.0805 Y28.7405
G01 X37.5235 Y28.7405
G01 X37.5289 Y28.7407
G01 X37.5342 Y28.7415
G01 X37.5394 Y28.7428
G01 X37.5445 Y28.7447
G01 X37.5494 Y28.7470
G01 X37.5540 Y28.7497
G01 X37.5584 Y28.7530
G01 X37.5624 Y28.7566
G01 X37.6456 Y28.8398
G01 X41.6806 Y28.8398
G01 X41.6806 Y21.7655
G01 X41.6868 Y21.6382
G01 X41.6873 Y21.6329
G01 X41.7056 Y21.5095
G01 X41.7067 Y21.5042
G01 X41.7370 Y21.3833
G01 X41.7386 Y21.3781
G01 X41.7806 Y21.2607
G01 X41.7826 Y21.2557
G01 X41.8359 Y21.1430
G01 X41.8548 Y21.1111
G01 X41.8548 Y15.5655
G01 X41.8597 Y15.4631
G01 X41.8602 Y15.4578
G01 X41.8749 Y15.3591
G01 X41.8759 Y15.3538
G01 X41.9002 Y15.2570
G01 X41.9017 Y15.2519
G01 X41.9353 Y15.1580
G01 X41.9374 Y15.1530
G01 X41.9801 Y15.0628
G01 X41.9826 Y15.0580
G01 X42.0339 Y14.9725
G01 X42.0369 Y14.9680
G01 X42.0963 Y14.8879
G01 X42.0997 Y14.8837
G01 X42.1667 Y14.8098
G01 X42.1705 Y14.8059
G01 X42.2445 Y14.7390
G01 X42.2486 Y14.7355
G01 X42.3288 Y14.6761
G01 X42.3332 Y14.6731
G01 X42.4188 Y14.6218
G01 X42.4236 Y14.6193
G01 X42.5137 Y14.5766
G01 X42.5187 Y14.5746
G01 X42.6127 Y14.5410
G01 X42.6178 Y14.5394
G01 X42.7146 Y14.5152
G01 X42.7199 Y14.5141
G01 X42.8186 Y14.4995
G01 X42.8239 Y14.4989
G01 X42.9236 Y14.4940
G01 X42.9290 Y14.4940
G01 X43.0286 Y14.4989
G01 X43.0340 Y14.4995
G01 X43.1326 Y14.5141
G01 X43.1379 Y14.5152
G01 X43.2347 Y14.5394
G01 X43.2399 Y14.5410
G01 X43.3338 Y14.5746
G01 X43.3388 Y14.5766
G01 X43.4290 Y14.6193
G01 X43.4337 Y14.6218
G01 X43.5193 Y14.6731
G01 X43.5238 Y14.6761
G01 X43.6039 Y14.7355
G01 X43.6081 Y14.7390
G01 X43.6820 Y14.8059
G01 X43.6858 Y14.8098
G01 X43.7528 Y14.8837
G01 X43.7562 Y14.8879
G01 X43.8156 Y14.9680
G01 X43.8186 Y14.9725
G01 X43.8699 Y15.0580
G01 X43.8725 Y15.0628
G01 X43.9151 Y15.1530
G01 X43.9172 Y15.1580
G01 X43.9508 Y15.2519
G01 X43.9523 Y15.2570
G01 X43.9766 Y15.3538
G01 X43.9776 Y15.3591
G01 X43.9923 Y15.4578
G01 X43.9928 Y15.4631
G01 X43.9978 Y15.5655
G01 X43.9978 Y20.8878
G01 X44.0327 Y20.9266
G01 X44.1069 Y21.0268
G01 X44.1099 Y21.0313
G01 X44.1740 Y21.1382
G01 X44.1766 Y21.1430
G01 X44.2299 Y21.2557
G01 X44.2320 Y21.2607
G01 X44.2740 Y21.3781
G01 X44.2755 Y21.3833
G01 X44.3058 Y21.5042
G01 X44.3069 Y21.5095
G01 X44.3252 Y21.6329
G01 X44.3257 Y21.6382
G01 X44.3318 Y21.7628
G01 X44.3319 Y28.8398
G01 X83.7416 Y28.8398
G01 X83.8689 Y28.8460
G01 X83.8743 Y28.8466
G01 X83.9976 Y28.8649
G01 X84.0029 Y28.8659
G01 X84.1238 Y28.8962
G01 X84.1290 Y28.8978
G01 X84.2464 Y28.9398
G01 X84.2514 Y28.9418
G01 X84.3641 Y28.9952
G01 X84.3689 Y28.9977
G01 X84.4758 Y29.0618
G01 X84.4803 Y29.0648
G01 X84.5805 Y29.1391
G01 X84.5847 Y29.1425
G01 X84.6790 Y29.2281
G01 X90.9931 Y35.5422
G01 X91.0787 Y35.6366
G01 X91.0821 Y35.6407
G01 X91.1564 Y35.7409
G01 X91.1594 Y35.7454
G01 X91.2235 Y35.8523
G01 X91.2261 Y35.8571
G01 X91.2794 Y35.9698
G01 X91.2814 Y35.9748
G01 X91.3234 Y36.0922
G01 X91.3250 Y36.0974
G01 X91.3553 Y36.2183
G01 X91.3564 Y36.2236
G01 X91.3747 Y36.3470
G01 X91.3752 Y36.3523
G01 X91.3814 Y36.4796
G01 X91.3814 Y43.6055
G01 X92.1533 Y43.6055
G01 X92.1587 Y43.6057
G01 X92.1640 Y43.6065
G01 X92.1692 Y43.6078
G01 X92.1743 Y43.6097
G01 X92.1792 Y43.6120
G01 X92.1838 Y43.6147
G01 X92.1882 Y43.6180
G01 X92.1922 Y43.6216
G01 X92.1958 Y43.6256
G01 X92.1990 Y43.6299
G01 X92.2018 Y43.6346
G01 X92.2041 Y43.6394
G01 X92.2059 Y43.6445
G01 X92.2072 Y43.6498
G01 X92.2080 Y43.6551
G01 X92.2083 Y43.6605
G01 X92.2083 Y47.4705
G01 X92.2080 Y47.4759
G01 X92.2072 Y47.4812
G01 X92.2059 Y47.4864
G01 X92.2041 Y47.4915
G01 X92.2018 Y47.4964
G01 X92.1990 Y47.5010
G01 X92.1958 Y47.5054
G01 X92.1922 Y47.5094
G01 X92.1882 Y47.5130
G01 X92.1838 Y47.5162
G01 X92.1792 Y47.5190
G01 X92.1743 Y47.5213
G01 X92.1692 Y47.5231
G01 X92.1640 Y47.5244
G01 X92.1587 Y47.5252
G01 X92.1533 Y47.5255
G01 X88.3433 Y47.5255
G01 X88.3379 Y47.5252
G01 X88.3325 Y47.5244
G01 X88.3273 Y47.5231
G01 X88.3222 Y47.5213
G01 X88.3173 Y47.5190
G01 X88.3127 Y47.5162
G01 X88.3084 Y47.5130
G01 X88.3044 Y47.5094
G01 X88.3007 Y47.5054
G01 X88.2975 Y47.5010
G01 X88.2948 Y47.4964
G01 X88.2924 Y47.4915
G01 X88.2906 Y47.4864
G01 X88.2893 Y47.4812
G01 X88.2885 Y47.4759
G01 X88.2883 Y47.4705
G01 X88.2883 Y43.6605
G01 X88.2885 Y43.6551
G01 X88.2893 Y43.6498
G01 X88.2906 Y43.6445
G01 X88.2924 Y43.6394
G01 X88.2948 Y43.6346
G01 X88.2975 Y43.6299
G01 X88.3007 Y43.6256
G01 X88.3044 Y43.6216
G01 X88.3084 Y43.6180
G01 X88.3127 Y43.6147
G01 X88.3173 Y43.6120
G01 X88.3222 Y43.6097
G01 X88.3273 Y43.6078
G01 X88.3325 Y43.6065
G01 X88.3379 Y43.6057
G01 X88.3433 Y43.6055
G01 X88.7301 Y43.6055
G01 X88.7301 Y37.0287
G01 X83.1925 Y31.4911
G01 X37.1663 Y31.4911
G01 X37.0390 Y31.4849
G01 X37.0336 Y31.4844
G01 X36.9103 Y31.4661
G01 X36.9050 Y31.4651
G01 X36.7841 Y31.4348
G01 X36.7789 Y31.4332
G01 X36.6598 Y31.3905
G00 Z2.0000
G00 X21.8519 Y38.4858
G01 F25.00
G01 Z-0.0187
G01 F45.00
G01 X21.8519 Y55.9655
G01 X21.8457 Y56.0927
G01 X21.8452 Y56.0981
G01 X21.8269 Y56.2214
G01 X21.8258 Y56.2267
G01 X21.7955 Y56.3477
G01 X21.7940 Y56.3529
G01 X21.7520 Y56.4703
G01 X21.7499 Y56.4752
G01 X21.6966 Y56.5880
G01 X21.6940 Y56.5927
G01 X21.6299 Y56.6997
G01 X21.6269 Y56.7042
G01 X21.5527 Y56.8043
G01 X21.5492 Y56.8085
G01 X21.4636 Y56.9028
G01 X20.0026 Y58.3638
G01 X19.9083 Y58.4494
G01 X19.9041 Y58.4529
G01 X19.8040 Y58.5272
G01 X19.7995 Y58.5301
G01 X19.6925 Y58.5943
G01 X19.6877 Y58.5968
G01 X19.5750 Y58.6501
G01 X19.5700 Y58.6522
G01 X19.4526 Y58.6942
G01 X19.4475 Y58.6958
G01 X19.3265 Y58.7261
G01 X19.3212 Y58.7271
G01 X19.1979 Y58.7454
G01 X19.1925 Y58.7459
G01 X19.0653 Y58.7521
G01 X13.9863 Y58.7521
G01 X13.9863 Y59.3315
G01 X13.9860 Y59.3369
G01 X13.9852 Y59.3422
G01 X13.9839 Y59.3474
G01 X13.9821 Y59.3525
G01 X13.9798 Y59.3574
G01 X13.9770 Y59.3620
G01 X13.9738 Y59.3664
G01 X13.9702 Y59.3704
G01 X13.9662 Y59.3740
G01 X13.9618 Y59.3772
G01 X13.9572 Y59.3800
G01 X13.9523 Y59.3823
G01 X13.9472 Y59.3841
G01 X13.9420 Y59.3854
G01 X13.9367 Y59.3862
G01 X13.9313 Y59.3865
G01 X10.1213 Y59.3865
G01 X10.1159 Y59.3862
G01 X10.1105 Y59.3854
G01 X10.1053 Y59.3841
G01 X10.1002 Y59.3823
G01 X10.0953 Y59.3800
G01 X10.0907 Y59.3772
G01 X10.0864 Y59.3740
G01 X10.0824 Y59.3704
G01 X10.0787 Y59.3664
G01 X10.0755 Y59.3620
G01 X10.0728 Y59.3574
G01 X10.0704 Y59.3525
G01 X10.0686 Y59.3474
G01 X10.0673 Y59.3422
G01 X10.0665 Y59.3369
G01 X10.0663 Y59.3315
G01 X10.0663 Y55.5215
G01 X10.0665 Y55.5161
G01 X10.0673 Y55.5108
G01 X10.0686 Y55.5055
G01 X10.0704 Y55.5004
G01 X10.0728 Y55.4956
G01 X10.0755 Y55.4909
G01 X10.0787 Y55.4866
G01 X10.0824 Y55.4826
G01 X10.0864 Y55.4790
G01 X10.0907 Y55.4757
G01 X10.0953 Y55.4730
G01 X10.1002 Y55.4707
G01 X10.1053 Y55.4688
G01 X10.1105 Y55.4675
G01 X10.1159 Y55.4667
G01 X10.1213 Y55.4665
G01 X13.9313 Y55.4665
G01 X13.9367 Y55.4667
G01 X13.9420 Y55.4675
G01 X13.9472 Y55.4688
G01 X13.9523 Y55.4707
G01 X13.9572 Y55.4730
G01 X13.9618 Y55.4757
G01 X13.9662 Y55.4790
G01 X13.9702 Y55.4826
G01 X13.9738 Y55.4866
G01 X13.9770 Y55.4909
G01 X13.9798 Y55.4956
G01 X13.9821 Y55.5004
G01 X13.9839 Y55.5055
G01 X13.9852 Y55.5108
G01 X13.9860 Y55.5161
G01 X13.9863 Y55.5215
G01 X13.9863 Y56.1008
G01 X18.5162 Y56.1008
G01 X19.2006 Y55.4164
G01 X19.2006 Y36.4521
G01 X14.0863 Y36.4521
G01 X14.0863 Y37.0315
G01 X14.0860 Y37.0369
G01 X14.0852 Y37.0422
G01 X14.0839 Y37.0474
G01 X14.0821 Y37.0525
G01 X14.0798 Y37.0574
G01 X14.0770 Y37.0620
G01 X14.0738 Y37.0664
G01 X14.0702 Y37.0704
G01 X14.0662 Y37.0740
G01 X14.0618 Y37.0772
G01 X14.0572 Y37.0800
G01 X14.0523 Y37.0823
G01 X14.0472 Y37.0841
G01 X14.0420 Y37.0854
G01 X14.0367 Y37.0862
G01 X14.0313 Y37.0865
G01 X10.2213 Y37.0865
G01 X10.2159 Y37.0862
G01 X10.2105 Y37.0854
G01 X10.2053 Y37.0841
G01 X10.2002 Y37.0823
G01 X10.1953 Y37.0800
G01 X10.1907 Y37.0772
G01 X10.1864 Y37.0740
G01 X10.1824 Y37.0704
G01 X10.1787 Y37.0664
G01 X10.1755 Y37.0620
G01 X10.1728 Y37.0574
G01 X10.1704 Y37.0525
G01 X10.1686 Y37.0474
G01 X10.1673 Y37.0422
G01 X10.1665 Y37.0369
G01 X10.1663 Y37.0315
G01 X10.1663 Y33.2215
G01 X10.1665 Y33.2161
G01 X10.1673 Y33.2108
G01 X10.1686 Y33.2055
G01 X10.1704 Y33.2004
G01 X10.1728 Y33.1956
G01 X10.1755 Y33.1909
G01 X10.1787 Y33.1866
G01 X10.1824 Y33.1826
G01 X10.1864 Y33.1790
G01 X10.1907 Y33.1757
G01 X10.1953 Y33.1730
G01 X10.2002 Y33.1707
G01 X10.2053 Y33.1688
G01 X10.2105 Y33.1675
G01 X10.2159 Y33.1667
G01 X10.2213 Y33.1665
G01 X14.0313 Y33.1665
G01 X14.0367 Y33.1667
G01 X14.0420 Y33.1675
G01 X14.0472 Y33.1688
G01 X14.0523 Y33.1707
G01 X14.0572 Y33.1730
G01 X14.0618 Y33.1757
G01 X14.0662 Y33.1790
G01 X14.0702 Y33.1826
G01 X14.0738 Y33.1866
G01 X14.0770 Y33.1909
G01 X14.0798 Y33.1956
G01 X14.0821 Y33.2004
G01 X14.0839 Y33.2055
G01 X14.0852 Y33.2108
G01 X14.0860 Y33.2161
G01 X14.0863 Y33.2215
G01 X14.0863 Y33.8008
G01 X19.2201 Y33.8008
G01 X19.2267 Y33.7582
G01 X19.2570 Y33.6372
G01 X19.2586 Y33.6321
G01 X19.3006 Y33.5147
G01 X19.3026 Y33.5097
G01 X19.3559 Y33.3970
G01 X19.3585 Y33.3922
G01 X19.4226 Y33.2852
G01 X19.4256 Y33.2808
G01 X19.4999 Y33.1806
G01 X19.5033 Y33.1764
G01 X19.5870 Y33.0840
G01 X19.8546 Y32.8164
G01 X19.8546 Y15.7521
G01 X13.8863 Y15.7521
G01 X13.8863 Y16.3315
G01 X13.8860 Y16.3369
G01 X13.8852 Y16.3422
G01 X13.8839 Y16.3474
G01 X13.8821 Y16.3525
G01 X13.8798 Y16.3574
G01 X13.8770 Y16.3620
G01 X13.8738 Y16.3664
G01 X13.8702 Y16.3704
G01 X13.8662 Y16.3740
G01 X13.8618 Y16.3772
G01 X13.8572 Y16.3800
G01 X13.8523 Y16.3823
G01 X13.8472 Y16.3841
G01 X13.8420 Y16.3854
G01 X13.8367 Y16.3862
G01 X13.8313 Y16.3865
G01 X10.0213 Y16.3865
G01 X10.0159 Y16.3862
G01 X10.0105 Y16.3854
G01 X10.0053 Y16.3841
G01 X10.0002 Y16.3823
G01 X9.9953 Y16.3800
G01 X9.9907 Y16.3772
G01 X9.9864 Y16.3740
G01 X9.9824 Y16.3704
G01 X9.9787 Y16.3664
G01 X9.9755 Y16.3620
G01 X9.9728 Y16.3574
G01 X9.9704 Y16.3525
G01 X9.9686 Y16.3474
G01 X9.9673 Y16.3422
G01 X9.9665 Y16.3369
G01 X9.9663 Y16.3315
G01 X9.9663 Y12.5215
G01 X9.9665 Y12.5161
G01 X9.9673 Y12.5108
G01 X9.9686 Y12.5055
G01 X9.9704 Y12.5004
G01 X9.9728 Y12.4956
G01 X9.9755 Y12.4909
G01 X9.9787 Y12.4866
G01 X9.9824 Y12.4826
G01 X9.9864 Y12.4790
G01 X9.9907 Y12.4757
G01 X9.9953 Y12.4730
G01 X10.0002 Y12.4707
G01 X10.0053 Y12.4688
G01 X10.0105 Y12.4675
G01 X10.0159 Y12.4667
G01 X10.0213 Y12.4665
G01 X13.8313 Y12.4665
G01 X13.8367 Y12.4667
G01 X13.8420 Y12.4675
G01 X13.8472 Y12.4688
G01 X13.8523 Y12.4707
G01 X13.8572 Y12.4730
G01 X13.8618 Y12.4757
G01 X13.8662 Y12.4790
G01 X13.8702 Y12.4826
G01 X13.8738 Y12.4866
G01 X13.8770 Y12.4909
G01 X13.8798 Y12.4956
G01 X13.8821 Y12.5004
G01 X13.8839 Y12.5055
G01 X13.8852 Y12.5108
G01 X13.8860 Y12.5161
G01 X13.8863 Y12.5215
G01 X13.8863 Y13.1008
G01 X20.7422 Y13.1008
G01 X20.8695 Y13.1070
G01 X20.8748 Y13.1076
G01 X20.9982 Y13.1259
G01 X21.0035 Y13.1269
G01 X21.1244 Y13.1572
G01 X21.1296 Y13.1588
G01 X21.2470 Y13.2008
G01 X21.2520 Y13.2028
G01 X21.3647 Y13.2562
G01 X21.3695 Y13.2587
G01 X21.4764 Y13.3228
G01 X21.4809 Y13.3258
G01 X21.5811 Y13.4001
G01 X21.5852 Y13.4035
G01 X21.6796 Y13.4891
G01 X22.1195 Y13.9291
G01 X22.2032 Y14.0215
G01 X22.2066 Y14.0257
G01 X22.2809 Y14.1258
G01 X22.2839 Y14.1303
G01 X22.3480 Y14.2373
G01 X22.3505 Y14.2420
G01 X22.4039 Y14.3547
G01 X22.4059 Y14.3597
G01 X22.4479 Y14.4771
G01 X22.4495 Y14.4823
G01 X22.4798 Y14.6032
G01 X22.4809 Y14.6085
G01 X22.4992 Y14.7319
G01 X22.4997 Y14.7373
G01 X22.5059 Y14.8645
G01 X22.5059 Y35.6772
G01 X22.4997 Y35.8044
G01 X22.4966 Y35.8268
G01 X22.5097 Y35.8398
G01 X66.2899 Y35.8398
G01 X66.4171 Y35.8460
G01 X66.4225 Y35.8466
G01 X66.5459 Y35.8649
G01 X66.5512 Y35.8659
G01 X66.6721 Y35.8962
G01 X66.6773 Y35.8978
G01 X66.7947 Y35.9398
G01 X66.7997 Y35.9418
G01 X66.9124 Y35.9952
G01 X66.9171 Y35.9977
G01 X67.0241 Y36.0618
G01 X67.0286 Y36.0648
G01 X67.1287 Y36.1391
G01 X67.1329 Y36.1425
G01 X67.2273 Y36.2281
G01 X68.5246 Y37.5255
G01 X68.6102 Y37.6198
G01 X68.6137 Y37.6240
G01 X68.6879 Y37.7241
G01 X68.6909 Y37.7286
G01 X68.7550 Y37.8356
G01 X68.7576 Y37.8404
G01 X68.8109 Y37.9531
G01 X68.8130 Y37.9581
G01 X68.8550 Y38.0755
G01 X68.8565 Y38.0806
G01 X68.8868 Y38.2016
G01 X68.8879 Y38.2069
G01 X68.9062 Y38.3302
G01 X68.9067 Y38.3356
G01 X68.9129 Y38.4628
G01 X68.9129 Y43.8055
G01 X69.4923 Y43.8055
G01 X69.4977 Y43.8057
G01 X69.5030 Y43.8065
G01 X69.5082 Y43.8078
G01 X69.5133 Y43.8097
G01 X69.5182 Y43.8120
G01 X69.5228 Y43.8147
G01 X69.5272 Y43.8180
G01 X69.5312 Y43.8216
G01 X69.5348 Y43.8256
G01 X69.5380 Y43.8299
G01 X69.5408 Y43.8346
G01 X69.5431 Y43.8394
G01 X69.5449 Y43.8445
G01 X69.5462 Y43.8498
G01 X69.5470 Y43.8551
G01 X69.5473 Y43.8605
G01 X69.5473 Y47.6705
G01 X69.5470 Y47.6759
G01 X69.5462 Y47.6812
G01 X69.5449 Y47.6864
G01 X69.5431 Y47.6915
G01 X69.5408 Y47.6964
G01 X69.5380 Y47.7010
G01 X69.5348 Y47.7054
G01 X69.5312 Y47.7094
G01 X69.5272 Y47.7130
G01 X69.5228 Y47.7162
G01 X69.5182 Y47.7190
G01 X69.5133 Y47.7213
G01 X69.5082 Y47.7231
G01 X69.5030 Y47.7244
G01 X69.4977 Y47.7252
G01 X69.4923 Y47.7255
G01 X65.6823 Y47.7255
G01 X65.6769 Y47.7252
G01 X65.6715 Y47.7244
G01 X65.6663 Y47.7231
G01 X65.6612 Y47.7213
G01 X65.6563 Y47.7190
G01 X65.6517 Y47.7162
G01 X65.6474 Y47.7130
G01 X65.6434 Y47.7094
G01 X65.6397 Y47.7054
G01 X65.6365 Y47.7010
G01 X65.6338 Y47.6964
G01 X65.6314 Y47.6915
G01 X65.6296 Y47.6864
G01 X65.6283 Y47.6812
G01 X65.6275 Y47.6759
G01 X65.6273 Y47.6705
G01 X65.6273 Y43.8605
G01 X65.6275 Y43.8551
G01 X65.6283 Y43.8498
G01 X65.6296 Y43.8445
G01 X65.6314 Y43.8394
G01 X65.6338 Y43.8346
G01 X65.6365 Y43.8299
G01 X65.6397 Y43.8256
G01 X65.6434 Y43.8216
G01 X65.6474 Y43.8180
G01 X65.6517 Y43.8147
G01 X65.6563 Y43.8120
G01 X65.6612 Y43.8097
G01 X65.6663 Y43.8078
G01 X65.6715 Y43.8065
G01 X65.6769 Y43.8057
G01 X65.6823 Y43.8055
G01 X66.2616 Y43.8055
G01 X66.2616 Y39.0119
G01 X65.7408 Y38.4911
G01 X46.3420 Y38.4911
G01 X46.1129 Y38.7202
G01 X46.1129 Y44.0055
G01 X46.6923 Y44.0055
G01 X46.6977 Y44.0057
G01 X46.7030 Y44.0065
G01 X46.7082 Y44.0078
G01 X46.7133 Y44.0097
G01 X46.7182 Y44.0120
G01 X46.7228 Y44.0147
G01 X46.7272 Y44.0180
G01 X46.7312 Y44.0216
G01 X46.7348 Y44.0256
G01 X46.7380 Y44.0299
G01 X46.7408 Y44.0346
G01 X46.7431 Y44.0394
G01 X46.7449 Y44.0445
G01 X46.7462 Y44.0498
G01 X46.7470 Y44.0551
G01 X46.7473 Y44.0605
G01 X46.7473 Y47.8705
G01 X46.7470 Y47.8759
G01 X46.7462 Y47.8812
G01 X46.7449 Y47.8864
G01 X46.7431 Y47.8915
G01 X46.7408 Y47.8964
G01 X46.7380 Y47.9010
G01 X46.7348 Y47.9054
G01 X46.7312 Y47.9094
G01 X46.7272 Y47.9130
G01 X46.7228 Y47.9162
G01 X46.7182 Y47.9190
G01 X46.7133 Y47.9213
G01 X46.7082 Y47.9231
G01 X46.7030 Y47.9244
G01 X46.6977 Y47.9252
G01 X46.6923 Y47.9255
G01 X42.8823 Y47.9255
G01 X42.8769 Y47.9252
G01 X42.8715 Y47.9244
G01 X42.8663 Y47.9231
G01 X42.8612 Y47.9213
G01 X42.8563 Y47.9190
G01 X42.8517 Y47.9162
G01 X42.8474 Y47.9130
G01 X42.8434 Y47.9094
G01 X42.8397 Y47.9054
G01 X42.8365 Y47.9010
G01 X42.8338 Y47.8964
G01 X42.8314 Y47.8915
G01 X42.8296 Y47.8864
G01 X42.8283 Y47.8812
G01 X42.8275 Y47.8759
G01 X42.8273 Y47.8705
G01 X42.8273 Y44.0605
G01 X42.8275 Y44.0551
G01 X42.8283 Y44.0498
G01 X42.8296 Y44.0445
G01 X42.8314 Y44.0394
G01 X42.8338 Y44.0346
G01 X42.8365 Y44.0299
G01 X42.8397 Y44.0256
G01 X42.8434 Y44.0216
G01 X42.8474 Y44.0180
G01 X42.8517 Y44.0147
G01 X42.8563 Y44.0120
G01 X42.8612 Y44.0097
G01 X42.8663 Y44.0078
G01 X42.8715 Y44.0065
G01 X42.8769 Y44.0057
G01 X42.8823 Y44.0055
G01 X43.4616 Y44.0055
G01 X43.4616 Y38.9646
G01 X43.4559 Y38.9546
G01 X43.4026 Y38.8419
G01 X43.4006 Y38.8369
G01 X43.3586 Y38.7195
G01 X43.3570 Y38.7143
G01 X43.3267 Y38.5934
G01 X43.3256 Y38.5881
G01 X43.3112 Y38.4911
G01 X21.9606 Y38.4911
G01 X21.8519 Y38.4858
G00 Z2.0000
G00 X96.4272 Y21.1479
G01 F25.00
G01 Z-0.0187
G01 F45.00
G01 X96.4815 Y21.2384
G01 X96.4840 Y21.2432
G01 X96.5320 Y21.3446
G01 X96.5340 Y21.3495
G01 X96.5718 Y21.4552
G01 X96.5734 Y21.4603
G01 X96.6006 Y21.5691
G01 X96.6017 Y21.5744
G01 X96.6182 Y21.6854
G01 X96.6187 Y21.6907
G01 X96.6242 Y21.8028
G01 X96.6242 Y21.8082
G01 X96.6187 Y21.9202
G01 X96.6182 Y21.9256
G01 X96.6017 Y22.0365
G01 X96.6006 Y22.0418
G01 X96.5734 Y22.1506
G01 X96.5718 Y22.1558
G01 X96.5340 Y22.2614
G01 X96.5320 Y22.2664
G01 X96.4840 Y22.3678
G01 X96.4815 Y22.3726
G01 X96.4238 Y22.4688
G01 X96.4208 Y22.4733
G01 X96.3540 Y22.5634
G01 X96.3506 Y22.5675
G01 X96.2752 Y22.6506
G01 X96.2714 Y22.6545
G01 X96.1883 Y22.7298
G01 X96.1841 Y22.7332
G01 X96.0940 Y22.8000
G01 X96.0896 Y22.8030
G01 X95.9933 Y22.8607
G01 X95.9886 Y22.8632
G01 X95.8872 Y22.9112
G01 X95.8822 Y22.9133
G01 X95.7766 Y22.9510
G01 X95.7714 Y22.9526
G01 X95.6626 Y22.9799
G01 X95.6573 Y22.9809
G01 X95.5464 Y22.9974
G01 X95.5410 Y22.9979
G01 X95.4290 Y23.0034
G01 X95.4236 Y23.0034
G01 X95.3115 Y22.9979
G01 X95.3062 Y22.9974
G01 X95.1952 Y22.9809
G01 X95.1899 Y22.9799
G01 X95.0811 Y22.9526
G01 X95.0759 Y22.9510
G01 X94.9703 Y22.9133
G01 X94.9653 Y22.9112
G01 X94.8639 Y22.8632
G01 X94.8592 Y22.8607
G01 X94.7630 Y22.8030
G01 X94.7585 Y22.8000
G01 X94.6684 Y22.7332
G01 X94.6642 Y22.7298
G01 X94.5811 Y22.6545
G01 X94.5773 Y22.6506
G01 X94.5020 Y22.5675
G01 X94.4985 Y22.5634
G01 X94.4317 Y22.4733
G01 X94.4287 Y22.4688
G01 X94.3710 Y22.3726
G01 X94.3685 Y22.3678
G01 X94.3205 Y22.2664
G01 X94.3185 Y22.2614
G01 X94.2807 Y22.1558
G01 X94.2791 Y22.1506
G01 X94.2519 Y22.0418
G01 X94.2508 Y22.0365
G01 X94.2344 Y21.9256
G01 X94.2338 Y21.9202
G01 X94.2283 Y21.8082
G01 X94.2283 Y21.8028
G01 X94.2338 Y21.6907
G01 X94.2344 Y21.6854
G01 X94.2508 Y21.5744
G01 X94.2519 Y21.5691
G01 X94.2791 Y21.4603
G01 X94.2807 Y21.4552
G01 X94.3185 Y21.3495
G01 X94.3205 Y21.3446
G01 X94.3685 Y21.2432
G01 X94.3710 Y21.2384
G01 X94.4287 Y21.1422
G01 X94.4317 Y21.1377
G01 X94.4985 Y21.0476
G01 X94.5020 Y21.0434
G01 X94.5773 Y20.9603
G01 X94.5811 Y20.9565
G01 X94.6642 Y20.8812
G01 X94.6684 Y20.8778
G01 X94.7585 Y20.8109
G01 X94.8385 Y20.7627
G01 X94.8866 Y20.5646
G01 X94.8866 Y13.0829
G01 X93.5973 Y13.0829
G01 X93.5973 Y13.2815
G01 X93.5970 Y13.2869
G01 X93.5962 Y13.2922
G01 X93.5949 Y13.2974
G01 X93.5931 Y13.3025
G01 X93.5908 Y13.3074
G01 X93.5880 Y13.3120
G01 X93.5848 Y13.3164
G01 X93.5812 Y13.3204
G01 X93.5772 Y13.3240
G01 X93.5728 Y13.3272
G01 X93.5682 Y13.3300
G01 X93.5633 Y13.3323
G01 X93.5582 Y13.3341
G01 X93.5530 Y13.3354
G01 X93.5477 Y13.3362
G01 X93.5423 Y13.3365
G01 X91.5103 Y13.3365
G01 X91.5049 Y13.3362
G01 X91.4995 Y13.3354
G01 X91.4943 Y13.3341
G01 X91.4892 Y13.3323
G01 X91.4843 Y13.3300
G01 X91.4797 Y13.3272
G01 X91.4754 Y13.3240
G01 X91.4714 Y13.3204
G01 X91.4677 Y13.3164
G01 X91.4645 Y13.3120
G01 X91.4618 Y13.3074
G01 X91.4594 Y13.3025
G01 X91.4576 Y13.2974
G01 X91.4563 Y13.2922
G01 X91.4555 Y13.2869
G01 X91.4553 Y13.2815
G01 X91.4553 Y11.2495
G01 X91.4555 Y11.2441
G01 X91.4563 Y11.2388
G01 X91.4576 Y11.2335
G01 X91.4594 Y11.2284
G01 X91.4618 Y11.2236
G01 X91.4645 Y11.2189
G01 X91.4677 Y11.2146
G01 X91.4714 Y11.2106
G01 X91.4754 Y11.2070
G01 X91.4797 Y11.2037
G01 X91.4843 Y11.2010
G01 X91.4892 Y11.1987
G01 X91.4943 Y11.1968
G01 X91.4995 Y11.1955
G01 X91.5049 Y11.1947
G01 X91.5103 Y11.1945
G01 X93.5423 Y11.1945
G01 X93.5477 Y11.1947
G01 X93.5530 Y11.1955
G01 X93.5582 Y11.1968
G01 X93.5633 Y11.1987
G01 X93.5682 Y11.2010
G01 X93.5728 Y11.2037
G01 X93.5772 Y11.2070
G01 X93.5812 Y11.2106
G01 X93.5848 Y11.2146
G01 X93.5880 Y11.2189
G01 X93.5908 Y11.2236
G01 X93.5931 Y11.2284
G01 X93.5949 Y11.2335
G01 X93.5962 Y11.2388
G01 X93.5970 Y11.2441
G01 X93.5973 Y11.2495
G01 X93.5973 Y11.4481
G01 X95.3263 Y11.4481
G01 X95.4037 Y11.4518
G01 X95.4091 Y11.4524
G01 X95.4884 Y11.4644
G01 X95.5661 Y11.4841
G01 X95.6365 Y11.5093
G01 X95.7092 Y11.5434
G01 X95.7781 Y11.5844
G01 X95.7826 Y11.5874
G01 X95.8468 Y11.6354
G01 X95.9042 Y11.6875
G01 X96.2839 Y12.0672
G01 X96.3341 Y12.1227
G01 X96.3821 Y12.1869
G01 X96.3851 Y12.1914
G01 X96.4261 Y12.2604
G01 X96.4602 Y12.3330
G01 X96.4854 Y12.4034
G01 X96.5051 Y12.4812
G01 X96.5171 Y12.5605
G01 X96.5177 Y12.5658
G01 X96.5214 Y12.6433
G01 X96.5214 Y20.6625
G01 X96.5159 Y20.7564
G01 X96.5151 Y20.7629
G01 X96.4990 Y20.8523
G01 X96.4272 Y21.1479
G00 Z2.0000
G00 X103.6445 Y9.7329
G01 F25.00
G01 Z-0.0187
G01 F45.00
G01 X103.6451 Y9.7383
G01 X103.6512 Y9.8628
G01 X103.6512 Y9.8682
G01 X103.6451 Y9.9927
G01 X103.6445 Y9.9980
G01 X103.6263 Y10.1213
G01 X103.6252 Y10.1266
G01 X103.5949 Y10.2475
G01 X103.5934 Y10.2527
G01 X103.5514 Y10.3700
G01 X103.5493 Y10.3750
G01 X103.4960 Y10.4877
G01 X103.4935 Y10.4924
G01 X103.4294 Y10.5993
G01 X103.4264 Y10.6038
G01 X103.3522 Y10.7039
G01 X103.3487 Y10.7081
G01 X103.2650 Y10.8004
G01 X103.2612 Y10.8043
G01 X103.1689 Y10.8880
G01 X103.1647 Y10.8914
G01 X103.0646 Y10.9656
G01 X103.0601 Y10.9686
G01 X102.9532 Y11.0327
G01 X102.9484 Y11.0352
G01 X102.8358 Y11.0885
G01 X102.8308 Y11.0906
G01 X102.7135 Y11.1326
G01 X102.7083 Y11.1341
G01 X102.5874 Y11.1644
G01 X102.5821 Y11.1655
G01 X102.4588 Y11.1838
G01 X102.4534 Y11.1843
G01 X102.3290 Y11.1904
G01 X102.3236 Y11.1904
G01 X102.1991 Y11.1843
G01 X102.1937 Y11.1838
G01 X102.0704 Y11.1655
G01 X102.0651 Y11.1644
G01 X101.9442 Y11.1341
G01 X101.9391 Y11.1326
G01 X101.8217 Y11.0906
G01 X101.8167 Y11.0885
G01 X101.7041 Y11.0352
G01 X101.6993 Y11.0327
G01 X101.5924 Y10.9686
G01 X101.5879 Y10.9656
G01 X101.4878 Y10.8914
G01 X101.4836 Y10.8880
G01 X101.3913 Y10.8043
G01 X101.3875 Y10.8004
G01 X101.3038 Y10.7081
G01 X101.3004 Y10.7039
G01 X101.2261 Y10.6038
G01 X101.1893 Y10.5429
G01 X93.5973 Y10.5429
G01 X93.5973 Y10.7415
G01 X93.5970 Y10.7469
G01 X93.5962 Y10.7522
G01 X93.5949 Y10.7574
G01 X93.5931 Y10.7625
G01 X93.5908 Y10.7674
G01 X93.5880 Y10.7720
G01 X93.5848 Y10.7764
G01 X93.5812 Y10.7804
G01 X93.5772 Y10.7840
G01 X93.5728 Y10.7872
G01 X93.5682 Y10.7900
G01 X93.5633 Y10.7923
G01 X93.5582 Y10.7941
G01 X93.5530 Y10.7954
G01 X93.5477 Y10.7962
G01 X93.5423 Y10.7965
G01 X91.5103 Y10.7965
G01 X91.5049 Y10.7962
G01 X91.4995 Y10.7954
G01 X91.4943 Y10.7941
G01 X91.4892 Y10.7923
G01 X91.4843 Y10.7900
G01 X91.4797 Y10.7872
G01 X91.4754 Y10.7840
G01 X91.4714 Y10.7804
G01 X91.4677 Y10.7764
G01 X91.4645 Y10.7720
G01 X91.4618 Y10.7674
G01 X91.4594 Y10.7625
G01 X91.4576 Y10.7574
G01 X91.4563 Y10.7522
G01 X91.4555 Y10.7469
G01 X91.4553 Y10.7415
G01 X91.4553 Y8.7095
G01 X91.4555 Y8.7041
G01 X91.4563 Y8.6988
G01 X91.4576 Y8.6935
G01 X91.4594 Y8.6884
G01 X91.4618 Y8.6836
G01 X91.4645 Y8.6789
G01 X91.4677 Y8.6746
G01 X91.4714 Y8.6706
G01 X91.4754 Y8.6670
G01 X91.4797 Y8.6637
G01 X91.4843 Y8.6610
G01 X91.4892 Y8.6587
G01 X91.4943 Y8.6568
G01 X91.4995 Y8.6555
G01 X91.5049 Y8.6547
G01 X91.5103 Y8.6545
G01 X93.5423 Y8.6545
G01 X93.5477 Y8.6547
G01 X93.5530 Y8.6555
G01 X93.5582 Y8.6568
G01 X93.5633 Y8.6587
G01 X93.5682 Y8.6610
G01 X93.5728 Y8.6637
G01 X93.5772 Y8.6670
G01 X93.5812 Y8.6706
G01 X93.5848 Y8.6746
G01 X93.5880 Y8.6789
G01 X93.5908 Y8.6836
G01 X93.5931 Y8.6884
G01 X93.5949 Y8.6935
G01 X93.5962 Y8.6988
G01 X93.5970 Y8.7041
G01 X93.5973 Y8.7095
G01 X93.5973 Y8.9081
G01 X101.4118 Y8.9081
G01 X101.4836 Y8.8430
G01 X101.4878 Y8.8396
G01 X101.5879 Y8.7653
G01 X101.5924 Y8.7623
G01 X101.6993 Y8.6983
G01 X101.7041 Y8.6957
G01 X101.8167 Y8.6424
G01 X101.8217 Y8.6404
G01 X101.9391 Y8.5984
G01 X101.9442 Y8.5968
G01 X102.0651 Y8.5665
G01 X102.0704 Y8.5655
G01 X102.1937 Y8.5472
G01 X102.1991 Y8.5467
G01 X102.3236 Y8.5405
G01 X102.3290 Y8.5405
G01 X102.4534 Y8.5467
G01 X102.4588 Y8.5472
G01 X102.5821 Y8.5655
G01 X102.5874 Y8.5665
G01 X102.7083 Y8.5968
G01 X102.7135 Y8.5984
G01 X102.8308 Y8.6404
G01 X102.8358 Y8.6424
G01 X102.9484 Y8.6957
G01 X102.9532 Y8.6983
G01 X103.0601 Y8.7623
G01 X103.0646 Y8.7653
G01 X103.1647 Y8.8396
G01 X103.1689 Y8.8430
G01 X103.2612 Y8.9267
G01 X103.2650 Y8.9305
G01 X103.3487 Y9.0229
G01 X103.3522 Y9.0270
G01 X103.4264 Y9.1271
G01 X103.4294 Y9.1316
G01 X103.4935 Y9.2385
G01 X103.4960 Y9.2433
G01 X103.5493 Y9.3560
G01 X103.5514 Y9.3609
G01 X103.5934 Y9.4783
G01 X103.5949 Y9.4835
G01 X103.6252 Y9.6044
G01 X103.6263 Y9.6096
G01 X103.6445 Y9.7329
G00 Z2.0000
G00 X121.9565 Y0.4221
G01 F25.00
G01 Z-0.0187
G01 F45.00
G01 X121.9565 Y67.6088
G01 X0.4698 Y67.6088
G01 X0.4698 Y0.4221
G01 X121.9565 Y0.4221
G00 Z2.0000
G00 X101.1521 Y54.9725
G01 F25.00
G01 Z-0.0187
G01 F45.00
G01 X101.1521 Y33.0726
G01 X101.1583 Y32.9453
G01 X101.1588 Y32.9399
G01 X101.1771 Y32.8166
G01 X101.1782 Y32.8113
G01 X101.2085 Y32.6903
G01 X101.2101 Y32.6852
G01 X101.2521 Y32.5678
G01 X101.2541 Y32.5628
G01 X101.3075 Y32.4501
G01 X101.3100 Y32.4453
G01 X101.3741 Y32.3383
G01 X101.3771 Y32.3339
G01 X101.4514 Y32.2337
G01 X101.4548 Y32.2295
G01 X101.5385 Y32.1371
G01 X101.5494 Y32.1263
G01 X101.6418 Y32.0425
G01 X101.6460 Y32.0391
G01 X101.7461 Y31.9648
G01 X101.7506 Y31.9618
G01 X101.8576 Y31.8977
G01 X101.8624 Y31.8952
G01 X101.9751 Y31.8418
G01 X101.9801 Y31.8398
G01 X102.0975 Y31.7978
G01 X102.1026 Y31.7962
G01 X102.2236 Y31.7659
G01 X102.2289 Y31.7649
G01 X102.3522 Y31.7466
G01 X102.3576 Y31.7460
G01 X102.4821 Y31.7399
G01 X112.7701 Y31.7398
G01 X112.8796 Y31.6743
G01 X112.8843 Y31.6717
G01 X113.0195 Y31.6078
G01 X113.0245 Y31.6057
G01 X113.1653 Y31.5553
G01 X113.1705 Y31.5538
G01 X113.3156 Y31.5174
G01 X113.3209 Y31.5164
G01 X113.4688 Y31.4944
G01 X113.4742 Y31.4939
G01 X113.6236 Y31.4865
G01 X113.6290 Y31.4865
G01 X113.7783 Y31.4939
G01 X113.7837 Y31.4944
G01 X113.9316 Y31.5164
G01 X113.9369 Y31.5174
G01 X114.0820 Y31.5538
G01 X114.0872 Y31.5553
G01 X114.2280 Y31.6057
G01 X114.2330 Y31.6078
G01 X114.3682 Y31.6717
G01 X114.3729 Y31.6743
G01 X114.4942 Y31.7469
G01 X115.9936 Y31.7469
G01 X115.9936 Y7.8256
G01 X44.9608 Y7.8256
G01 X44.9519 Y7.8253
G01 X44.9519 Y12.3255
G01 X44.9457 Y12.4527
G01 X44.9452 Y12.4581
G01 X44.9269 Y12.5814
G01 X44.9258 Y12.5867
G01 X44.8955 Y12.7077
G01 X44.8940 Y12.7129
G01 X44.8520 Y12.8303
G01 X44.8499 Y12.8352
G01 X44.7966 Y12.9480
G01 X44.7940 Y12.9527
G01 X44.7299 Y13.0597
G01 X44.7269 Y13.0642
G01 X44.6527 Y13.1643
G01 X44.6492 Y13.1685
G01 X44.5636 Y13.2628
G01 X43.8636 Y13.9628
G01 X43.7693 Y14.0484
G01 X43.7651 Y14.0519
G01 X43.6650 Y14.1262
G01 X43.6605 Y14.1291
G01 X43.5535 Y14.1933
G01 X43.5487 Y14.1958
G01 X43.4360 Y14.2491
G01 X43.4310 Y14.2512
G01 X43.3136 Y14.2932
G01 X43.3085 Y14.2948
G01 X43.1875 Y14.3251
G01 X43.1822 Y14.3261
G01 X43.0589 Y14.3444
G01 X43.0535 Y14.3449
G01 X42.9290 Y14.3510
G01 X42.9236 Y14.3510
G01 X42.7990 Y14.3449
G01 X42.7936 Y14.3444
G01 X42.6703 Y14.3261
G01 X42.6650 Y14.3251
G01 X42.5441 Y14.2948
G01 X42.5389 Y14.2932
G01 X42.4215 Y14.2512
G01 X42.4165 Y14.2491
G01 X42.3038 Y14.1958
G01 X42.2990 Y14.1933
G01 X42.1921 Y14.1291
G01 X42.1876 Y14.1262
G01 X42.0874 Y14.0519
G01 X42.0832 Y14.0484
G01 X41.9908 Y13.9647
G01 X41.9870 Y13.9609
G01 X41.9033 Y13.8685
G01 X41.8999 Y13.8643
G01 X41.8256 Y13.7642
G01 X41.8226 Y13.7597
G01 X41.7585 Y13.6527
G01 X41.7559 Y13.6480
G01 X41.7026 Y13.5352
G01 X41.7006 Y13.5303
G01 X41.6586 Y13.4129
G01 X41.6570 Y13.4077
G01 X41.6267 Y13.2867
G01 X41.6256 Y13.2814
G01 X41.6073 Y13.1581
G01 X41.6068 Y13.1527
G01 X41.6007 Y13.0282
G01 X41.6007 Y13.0228
G01 X41.6068 Y12.8982
G01 X41.6073 Y12.8929
G01 X41.6256 Y12.7695
G01 X41.6267 Y12.7642
G01 X41.6570 Y12.6433
G01 X41.6586 Y12.6381
G01 X41.7006 Y12.5207
G01 X41.7026 Y12.5157
G01 X41.7559 Y12.4030
G01 X41.7585 Y12.3982
G01 X41.8226 Y12.2913
G01 X41.8548 Y12.2475
G01 X41.8548 Y8.6322
G01 X35.6519 Y8.6322
G01 X35.6519 Y12.2055
G01 X35.6457 Y12.3327
G01 X35.6452 Y12.3381
G01 X35.6269 Y12.4614
G01 X35.6258 Y12.4667
G01 X35.5955 Y12.5877
G01 X35.5940 Y12.5929
G01 X35.5520 Y12.7103
G01 X35.5499 Y12.7152
G01 X35.4966 Y12.8280
G01 X35.4940 Y12.8327
G01 X35.4299 Y12.9397
G01 X35.4269 Y12.9442
G01 X35.3527 Y13.0443
G01 X35.3492 Y13.0485
G01 X35.2655 Y13.1409
G01 X35.2617 Y13.1447
G01 X35.1693 Y13.2284
G01 X35.1651 Y13.2319
G01 X35.0650 Y13.3062
G01 X35.0605 Y13.3091
G01 X34.9535 Y13.3733
G01 X34.9487 Y13.3758
G01 X34.8360 Y13.4291
G01 X34.8310 Y13.4312
G01 X34.7136 Y13.4732
G01 X34.7085 Y13.4748
G01 X34.5875 Y13.5051
G01 X34.5822 Y13.5061
G01 X34.4589 Y13.5244
G01 X34.4535 Y13.5249
G01 X34.3290 Y13.5310
G01 X34.3236 Y13.5310
G01 X34.1990 Y13.5249
G01 X34.1936 Y13.5244
G01 X34.0703 Y13.5061
G01 X34.0650 Y13.5051
G01 X33.9441 Y13.4748
G01 X33.9389 Y13.4732
G01 X33.8215 Y13.4312
G01 X33.8165 Y13.4291
G01 X33.7038 Y13.3758
G01 X33.6990 Y13.3733
G01 X33.5921 Y13.3091
G01 X33.5876 Y13.3062
G01 X33.4874 Y13.2319
G01 X33.4832 Y13.2284
G01 X33.3908 Y13.1447
G01 X33.3870 Y13.1409
G01 X33.3033 Y13.0485
G01 X33.2999 Y13.0443
G01 X33.2256 Y12.9442
G01 X33.2226 Y12.9397
G01 X33.1585 Y12.8327
G01 X33.1559 Y12.8280
G01 X33.1026 Y12.7152
G01 X33.1006 Y12.7103
G01 X33.0586 Y12.5929
G01 X33.0570 Y12.5877
G01 X33.0267 Y12.4667
G01 X33.0256 Y12.4614
G01 X33.0073 Y12.3381
G01 X33.0068 Y12.3327
G01 X33.0006 Y12.2055
G01 X33.0006 Y8.8911
G01 X29.4925 Y8.8911
G01 X29.4617 Y8.9247
G01 X29.3693 Y9.0084
G01 X29.3651 Y9.0119
G01 X29.2650 Y9.0862
G01 X29.2605 Y9.0891
G01 X29.1535 Y9.1533
G01 X29.1487 Y9.1558
G01 X29.0360 Y9.2091
G01 X29.0310 Y9.2112
G01 X28.9136 Y9.2532
G01 X28.9085 Y9.2548
G01 X28.7875 Y9.2851
G01 X28.7822 Y9.2861
G01 X28.6589 Y9.3044
G01 X28.6535 Y9.3049
G01 X28.5290 Y9.3110
G01 X28.5236 Y9.3110
G01 X28.3990 Y9.3049
G01 X28.3936 Y9.3044
G01 X28.2703 Y9.2861
G01 X28.2650 Y9.2851
G01 X28.1441 Y9.2548
G01 X28.1389 Y9.2532
G01 X28.0215 Y9.2112
G01 X28.0165 Y9.2091
G01 X27.9038 Y9.1558
G01 X27.8456 Y9.1212
G01 X27.7956 Y9.1135
G01 X27.6505 Y9.0772
G01 X27.6453 Y9.0756
G01 X27.5045 Y9.0253
G01 X27.4995 Y9.0232
G01 X27.3643 Y8.9592
G01 X27.3596 Y8.9567
G01 X27.2313 Y8.8798
G01 X27.2268 Y8.8768
G01 X27.1067 Y8.7877
G01 X27.1025 Y8.7843
G01 X26.9917 Y8.6839
G01 X26.9879 Y8.6800
G01 X26.8874 Y8.5692
G01 X26.8840 Y8.5651
G01 X26.7949 Y8.4449
G01 X26.7919 Y8.4404
G01 X26.7150 Y8.3122
G01 X26.7125 Y8.3074
G01 X26.6485 Y8.1722
G01 X26.6465 Y8.1672
G01 X26.5961 Y8.0264
G01 X26.5945 Y8.0212
G01 X26.5582 Y7.8762
G01 X26.5571 Y7.8709
G01 X26.5352 Y7.7229
G01 X26.5347 Y7.7176
G01 X26.5273 Y7.5682
G01 X26.5273 Y7.5628
G01 X26.5347 Y7.4134
G01 X26.5352 Y7.4080
G01 X26.5571 Y7.2601
G01 X26.5582 Y7.2548
G01 X26.5945 Y7.1097
G01 X26.5961 Y7.1046
G01 X26.6465 Y6.9637
G01 X26.6485 Y6.9588
G01 X26.7125 Y6.8236
G01 X26.7150 Y6.8188
G01 X26.7919 Y6.6905
G01 X26.7949 Y6.6860
G01 X26.8840 Y6.5659
G01 X26.8874 Y6.5617
G01 X26.9879 Y6.4509
G01 X26.9917 Y6.4471
G01 X27.1025 Y6.3467
G01 X27.1067 Y6.3432
G01 X27.2268 Y6.2541
G01 X27.2313 Y6.2511
G01 X27.3596 Y6.1743
G01 X27.3643 Y6.1717
G01 X27.4995 Y6.1078
G01 X27.5045 Y6.1057
G01 X27.6453 Y6.0553
G01 X27.6505 Y6.0538
G01 X27.7743 Y6.0228
G01 X29.9689 Y3.8281
G01 X30.0632 Y3.7425
G01 X30.0674 Y3.7391
G01 X30.1676 Y3.6648
G01 X30.1721 Y3.6618
G01 X30.2790 Y3.5977
G01 X30.2838 Y3.5952
G01 X30.3965 Y3.5418
G01 X30.4015 Y3.5398
G01 X30.5189 Y3.4978
G01 X30.5241 Y3.4962
G01 X30.6450 Y3.4659
G01 X30.6503 Y3.4649
G01 X30.7736 Y3.4466
G01 X30.7790 Y3.4460
G01 X30.9036 Y3.4399
G01 X119.5263 Y3.4398
G01 X119.6535 Y3.4460
G01 X119.6589 Y3.4466
G01 X119.7822 Y3.4649
G01 X119.7875 Y3.4659
G01 X119.9085 Y3.4962
G01 X119.9136 Y3.4978
G01 X120.0310 Y3.5398
G01 X120.0360 Y3.5418
G01 X120.1487 Y3.5952
G01 X120.1535 Y3.5977
G01 X120.2605 Y3.6618
G01 X120.2650 Y3.6648
G01 X120.3651 Y3.7391
G01 X120.3693 Y3.7425
G01 X120.4617 Y3.8263
G01 X120.4655 Y3.8301
G01 X120.5492 Y3.9225
G01 X120.5527 Y3.9266
G01 X120.6269 Y4.0268
G01 X120.6299 Y4.0313
G01 X120.6940 Y4.1382
G01 X120.6966 Y4.1430
G01 X120.7499 Y4.2557
G01 X120.7520 Y4.2607
G01 X120.7940 Y4.3781
G01 X120.7955 Y4.3833
G01 X120.8258 Y4.5042
G01 X120.8269 Y4.5095
G01 X120.8452 Y4.6329
G01 X120.8457 Y4.6382
G01 X120.8518 Y4.7628
G01 X120.8519 Y29.1567
G01 X120.8650 Y29.1648
G01 X120.9651 Y29.2391
G01 X120.9693 Y29.2425
G01 X121.0617 Y29.3263
G01 X121.0655 Y29.3301
G01 X121.1492 Y29.4225
G01 X121.1527 Y29.4266
G01 X121.2269 Y29.5268
G01 X121.2299 Y29.5313
G01 X121.2940 Y29.6382
G01 X121.2966 Y29.6430
G01 X121.3499 Y29.7557
G01 X121.3520 Y29.7607
G01 X121.3940 Y29.8781
G01 X121.3955 Y29.8833
G01 X121.4258 Y30.0042
G01 X121.4269 Y30.0095
G01 X121.4452 Y30.1329
G01 X121.4457 Y30.1382
G01 X121.4519 Y30.2655
G01 X121.4518 Y31.6682
G01 X121.4457 Y31.7927
G01 X121.4452 Y31.7981
G01 X121.4269 Y31.9214
G01 X121.4258 Y31.9267
G01 X121.3955 Y32.0477
G01 X121.3940 Y32.0529
G01 X121.3520 Y32.1703
G01 X121.3499 Y32.1752
G01 X121.2966 Y32.2880
G01 X121.2940 Y32.2927
G01 X121.2299 Y32.3997
G01 X121.2269 Y32.4042
G01 X121.1527 Y32.5043
G01 X121.1492 Y32.5085
G01 X121.0636 Y32.6028
G01 X117.7914 Y35.8751
G01 X117.6970 Y35.9607
G01 X117.6929 Y35.9641
G01 X117.5927 Y36.0384
G01 X117.5882 Y36.0414
G01 X117.4813 Y36.1055
G01 X117.4765 Y36.1080
G01 X117.3638 Y36.1614
G01 X117.3588 Y36.1634
G01 X117.2414 Y36.2054
G01 X117.2362 Y36.2070
G01 X117.1153 Y36.2373
G01 X117.1100 Y36.2384
G01 X116.9866 Y36.2567
G01 X116.9813 Y36.2572
G01 X116.8540 Y36.2634
G01 X105.9122 Y36.2634
G01 X105.9122 Y53.3252
G01 X105.9060 Y53.4524
G01 X105.9055 Y53.4578
G01 X105.8872 Y53.5812
G01 X105.8861 Y53.5865
G01 X105.8558 Y53.7074
G01 X105.8542 Y53.7126
G01 X105.8122 Y53.8300
G01 X105.8102 Y53.8350
G01 X105.7569 Y53.9477
G01 X105.7543 Y53.9524
G01 X105.6902 Y54.0594
G01 X105.6872 Y54.0639
G01 X105.6129 Y54.1640
G01 X105.6095 Y54.1682
G01 X105.5258 Y54.2606
G01 X103.4151 Y56.3713
G01 X103.3309 Y56.4478
G01 X103.2650 Y56.5204
G01 X103.2612 Y56.5243
G01 X103.1689 Y56.6080
G01 X103.1647 Y56.6114
G01 X103.0646 Y56.6856
G01 X103.0601 Y56.6886
G01 X102.9532 Y56.7527
G01 X102.9484 Y56.7552
G01 X102.8358 Y56.8085
G01 X102.8308 Y56.8106
G01 X102.7135 Y56.8526
G01 X102.7083 Y56.8541
G01 X102.5874 Y56.8844
G01 X102.5821 Y56.8855
G01 X102.4588 Y56.9038
G01 X102.4534 Y56.9043
G01 X102.3290 Y56.9104
G01 X102.3236 Y56.9104
G01 X102.1991 Y56.9043
G01 X102.1937 Y56.9038
G01 X102.0704 Y56.8855
G01 X102.0651 Y56.8844
G01 X101.9442 Y56.8541
G01 X101.9391 Y56.8526
G01 X101.8217 Y56.8106
G01 X101.8167 Y56.8085
G01 X101.7041 Y56.7552
G01 X101.6993 Y56.7527
G01 X101.5924 Y56.6886
G01 X101.5879 Y56.6856
G01 X101.4878 Y56.6114
G01 X101.4836 Y56.6080
G01 X101.3913 Y56.5243
G01 X101.3875 Y56.5204
G01 X101.3038 Y56.4281
G01 X101.3004 Y56.4239
G01 X101.2261 Y56.3238
G01 X101.2231 Y56.3193
G01 X101.1590 Y56.2124
G01 X101.1565 Y56.2077
G01 X101.1032 Y56.0950
G01 X101.1011 Y56.0900
G01 X101.0592 Y55.9727
G01 X101.0576 Y55.9675
G01 X101.0273 Y55.8466
G01 X101.0263 Y55.8413
G01 X101.0080 Y55.7180
G01 X101.0074 Y55.7127
G01 X101.0013 Y55.5882
G01 X101.0013 Y55.5828
G01 X101.0074 Y55.4583
G01 X101.0080 Y55.4529
G01 X101.0263 Y55.3296
G01 X101.0273 Y55.3244
G01 X101.0576 Y55.2035
G01 X101.0592 Y55.1983
G01 X101.1011 Y55.0809
G01 X101.1032 Y55.0760
G01 X101.1521 Y54.9725
G00 Z2.0000
M05
G00 Z2.0000
G00 Z15.00
G00 X0.0 Y0.0

